(1001)
(T1  D=1.587 CR=0. - ZMIN=-5.3 - FLAT END MILL)
G0 G90 G94 G17
G21
G53 Z0.

(2D POCKET7)
M5
M9
T1
S16500 M3
G55
M9
G0 X22.077 Y21.82
Z15.
Z3.2
G1 Z0.2 F40.
Z-2.752 F1270.
X22.083 Y21.823 Z-2.776
X22.098 Y21.831 Z-2.794
X22.12 Y21.842 Z-2.8
G3 X22.206 Y21.983 I-0.072 J0.141
G1 Y23.5
G2 X21.113 Y22.731 I-1.375 J0.794
G3 X20.968 Y22.448 I0.035 J-0.197
G1 X21.678 Y20.963
G3 X22.053 Y21.003 I0.18 J0.086
G1 X22.064 Y21.051 Z-2.808
X22.074 Y21.094 Z-2.83
X22.083 Y21.128 Z-2.865
X22.088 Y21.15 Z-2.91
X22.09 Y21.157 Z-2.959
Z-3.641
X22.092 Y21.165 Z-3.69
X22.097 Y21.187 Z-3.735
X22.105 Y21.221 Z-3.77
X22.115 Y21.264 Z-3.792
X22.127 Y21.312 Z-3.8
G3 X22.206 Y21.983 I-2.796 J0.671
G1 Y23.5
G2 X21.113 Y22.731 I-1.375 J0.794
G3 X20.968 Y22.448 I0.035 J-0.197
G1 X21.678 Y20.963
G3 X22.053 Y21.003 I0.18 J0.086
G1 X22.064 Y21.051 Z-3.808
X22.074 Y21.094 Z-3.83
X22.083 Y21.128 Z-3.865
X22.088 Y21.15 Z-3.91
X22.09 Y21.157 Z-3.959
Z-4.641
X22.092 Y21.165 Z-4.69
X22.097 Y21.187 Z-4.735
X22.105 Y21.221 Z-4.77
X22.115 Y21.264 Z-4.792
X22.127 Y21.312 Z-4.8
G3 X22.206 Y21.983 I-2.796 J0.671
G1 Y23.5
G2 X21.113 Y22.731 I-1.375 J0.794
G3 X20.968 Y22.448 I0.035 J-0.197
G1 X21.678 Y20.963
G3 X22.053 Y21.003 I0.18 J0.086
G1 X22.064 Y21.051 Z-4.808
X22.074 Y21.094 Z-4.83
X22.083 Y21.128 Z-4.865
X22.088 Y21.15 Z-4.91
X22.09 Y21.157 Z-4.959
Z-5.141
X22.092 Y21.165 Z-5.19
X22.097 Y21.187 Z-5.235
X22.105 Y21.221 Z-5.27
X22.115 Y21.264 Z-5.292
X22.127 Y21.312 Z-5.3
G3 X22.206 Y21.983 I-2.796 J0.671
G1 Y23.5
G2 X21.113 Y22.731 I-1.375 J0.794
G1 X20.331 Y22.591
X20.283 Y22.582 Z-5.292
X20.24 Y22.574 Z-5.27
X20.205 Y22.568 Z-5.235
X20.183 Y22.564 Z-5.19
X20.175 Y22.563 Z-5.141
G0 Z5.
X25.514 Y28.184
Z3.2
G1 Z-2.657 F40.
X25.513 Y28.177 Z-2.701 F1270.
X25.509 Y28.157 Z-2.741
X25.504 Y28.126 Z-2.773
X25.498 Y28.086 Z-2.793
X25.491 Y28.043 Z-2.8
X25.296 Y26.808
G3 X25.294 Y26.783 I0.157 J-0.025
G1 Y19.25
G2 X23.25 Y17.206 I-2.044 J0.
G1 X23.
G2 X22.41 Y17.469 I0. J0.794
G3 X22.061 Y17.328 I-0.149 J-0.134
G1 X22.11 Y16.095
G3 X22.469 Y15.982 I0.2 J0.008
G2 X23.1 Y16.294 I0.631 J-0.482
G1 X23.25
G3 X26.206 Y19.25 I0. J2.956
G1 Y25.5
Y26.187
Y26.785
G3 X26.112 Y26.954 I-0.2 J0.
G1 X25.624 Y27.26
G3 X25.319 Y27.106 I-0.106 J-0.17
G1 X25.315 Y27.057 Z-2.808
X25.312 Y27.013 Z-2.83
X25.309 Y26.978 Z-2.865
X25.307 Y26.955 Z-2.91
X25.306 Y26.948 Z-2.959
Z-3.641
Y26.94 Z-3.69
X25.304 Y26.918 Z-3.735
X25.301 Y26.883 Z-3.77
X25.298 Y26.838 Z-3.792
X25.294 Y26.789 Z-3.8
Y26.783
Y19.25
G2 X23.25 Y17.206 I-2.044 J0.
G1 X23.
G2 X22.41 Y17.469 I0. J0.794
G1 X21.879 Y18.059
X21.846 Y18.096 Z-3.792
X21.817 Y18.129 Z-3.77
X21.793 Y18.155 Z-3.735
X21.778 Y18.172 Z-3.69
X21.773 Y18.177 Z-3.641
Z0.2
X22.285 Y12.963
Z-2.752
X22.291 Y12.961 Z-2.776
X22.308 Y12.957 Z-2.794
X22.331 Y12.952 Z-2.8
G3 X22.488 Y13.006 I0.035 J0.155
G2 X23.1 Y13.294 I0.612 J-0.506
G1 X23.25
G3 X29.206 Y19.25 I0. J5.956
G1 Y25.5
Y26.187
Y26.785
G3 X29.006 Y26.985 I-0.2 J0.
G1 X28.493 Y26.983
G3 X28.294 Y26.783 I0.001 J-0.2
G1 Y19.25
G2 X23.25 Y14.206 I-5.044 J0.
G1 X23.1
G2 X22.488 Y14.494 I0. J0.794
G1 X21.882 Y14.802
G2 X21.84 Y14.89 I0.035 J0.071
G1 X21.952 Y15.401
X22.054 Y15.439
X22.084 Y15.478 Z-2.808
X22.111 Y15.513 Z-2.83
X22.132 Y15.541 Z-2.865
X22.146 Y15.559 Z-2.91
X22.151 Y15.565 Z-2.959
Z-3.641
X22.155 Y15.571 Z-3.69
X22.169 Y15.589 Z-3.735
X22.19 Y15.617 Z-3.77
X22.217 Y15.652 Z-3.792
X22.247 Y15.691 Z-3.8
X22.469 Y15.982
G2 X23.1 Y16.294 I0.631 J-0.482
G1 X23.25
G3 X26.206 Y19.25 I0. J2.956
G1 Y25.5
Y26.187
Y26.785
G3 X26.112 Y26.954 I-0.2 J0.
G1 X25.624 Y27.26
G3 X25.319 Y27.106 I-0.106 J-0.17
G1 X25.315 Y27.057 Z-3.808
X25.312 Y27.013 Z-3.83
X25.309 Y26.978 Z-3.865
X25.307 Y26.955 Z-3.91
X25.306 Y26.948 Z-3.959
Z-4.641
Y26.94 Z-4.69
X25.304 Y26.918 Z-4.735
X25.301 Y26.883 Z-4.77
X25.298 Y26.838 Z-4.792
X25.294 Y26.789 Z-4.8
Y26.783
Y19.25
G2 X23.25 Y17.206 I-2.044 J0.
G1 X23.
G2 X22.41 Y17.469 I0. J0.794
G1 X21.879 Y18.059
X21.846 Y18.096 Z-4.792
X21.817 Y18.129 Z-4.77
X21.793 Y18.155 Z-4.735
X21.778 Y18.172 Z-4.69
X21.773 Y18.177 Z-4.641
Z0.2
X22.285 Y9.963
Z-2.752
X22.291 Y9.961 Z-2.776
X22.308 Y9.957 Z-2.794
X22.331 Y9.952 Z-2.8
G3 X22.488 Y10.006 I0.035 J0.155
G2 X23.1 Y10.294 I0.612 J-0.506
G1 X23.25
G3 X32.206 Y19.25 I0. J8.956
G1 Y25.5
Y26.187
Y26.785
G3 X32.006 Y26.985 I-0.2 J0.
G1 X31.493 Y26.983
G3 X31.294 Y26.783 I0.001 J-0.2
G1 Y19.25
G2 X23.25 Y11.206 I-8.044 J0.
G1 X23.1
G2 X22.488 Y11.494 I0. J0.794
G1 X21.914 Y11.792
G2 X21.873 Y11.882 I0.036 J0.071
G1 X22.02 Y12.469
X22.053 Y12.479
X22.084 Y12.517 Z-2.808
X22.112 Y12.551 Z-2.83
X22.135 Y12.578 Z-2.865
X22.149 Y12.596 Z-2.91
X22.154 Y12.602 Z-2.959
Z-3.641
X22.159 Y12.608 Z-3.69
X22.173 Y12.625 Z-3.735
X22.196 Y12.652 Z-3.77
X22.224 Y12.686 Z-3.792
X22.255 Y12.724 Z-3.8
X22.488 Y13.006
G2 X23.1 Y13.294 I0.612 J-0.506
G1 X23.25
G3 X29.206 Y19.25 I0. J5.956
G1 Y25.5
Y26.187
Y26.785
G3 X29.006 Y26.985 I-0.2 J0.
G1 X28.493 Y26.983
G3 X28.294 Y26.783 I0.001 J-0.2
G1 Y19.25
G2 X23.25 Y14.206 I-5.044 J0.
G1 X23.1
G2 X22.488 Y14.494 I0. J0.794
G1 X21.882 Y14.802
G2 X21.84 Y14.89 I0.035 J0.071
G1 X21.952 Y15.401
X22.054 Y15.439
X22.084 Y15.478 Z-3.808
X22.111 Y15.513 Z-3.83
X22.132 Y15.541 Z-3.865
X22.146 Y15.559 Z-3.91
X22.151 Y15.565 Z-3.959
Z-4.641
X22.155 Y15.571 Z-4.69
X22.169 Y15.589 Z-4.735
X22.19 Y15.617 Z-4.77
X22.217 Y15.652 Z-4.792
X22.247 Y15.691 Z-4.8
X22.469 Y15.982
G2 X23.1 Y16.294 I0.631 J-0.482
G1 X23.25
G3 X26.206 Y19.25 I0. J2.956
G1 Y25.5
Y26.187
Y26.785
G3 X26.112 Y26.954 I-0.2 J0.
G1 X25.624 Y27.26
G3 X25.319 Y27.106 I-0.106 J-0.17
G1 X25.315 Y27.057 Z-4.808
X25.312 Y27.013 Z-4.83
X25.309 Y26.978 Z-4.865
X25.307 Y26.955 Z-4.91
X25.306 Y26.948 Z-4.959
Z-5.141
Y26.94 Z-5.19
X25.304 Y26.918 Z-5.235
X25.301 Y26.883 Z-5.27
X25.298 Y26.838 Z-5.292
X25.294 Y26.789 Z-5.3
Y26.783
Y19.25
G2 X23.25 Y17.206 I-2.044 J0.
G1 X23.
G2 X22.41 Y17.469 I0. J0.794
G1 X21.879 Y18.059
X21.846 Y18.096 Z-5.292
X21.817 Y18.129 Z-5.27
X21.793 Y18.155 Z-5.235
X21.778 Y18.172 Z-5.19
X21.773 Y18.177 Z-5.141
G0 Z5.
X28.514 Y28.184
Z3.2
G1 Z-4.657 F40.
X28.513 Y28.177 Z-4.701 F1270.
X28.509 Y28.157 Z-4.741
X28.504 Y28.126 Z-4.773
X28.498 Y28.086 Z-4.793
X28.491 Y28.043 Z-4.8
X28.296 Y26.808
G3 X28.294 Y26.783 I0.157 J-0.025
G1 Y19.25
G2 X23.25 Y14.206 I-5.044 J0.
G1 X23.1
G2 X22.488 Y14.494 I0. J0.794
G1 X21.882 Y14.802
G2 X21.84 Y14.89 I0.035 J0.071
G1 X21.952 Y15.401
X22.054 Y15.439
X22.084 Y15.478 Z-4.808
X22.111 Y15.513 Z-4.83
X22.132 Y15.541 Z-4.865
X22.146 Y15.559 Z-4.91
X22.151 Y15.565 Z-4.959
Z-5.141
X22.155 Y15.571 Z-5.19
X22.169 Y15.589 Z-5.235
X22.19 Y15.617 Z-5.27
X22.217 Y15.652 Z-5.292
X22.247 Y15.691 Z-5.3
X22.469 Y15.982
G2 X23.1 Y16.294 I0.631 J-0.482
G1 X23.25
G3 X26.206 Y19.25 I0. J2.956
G1 Y25.5
Y26.187
Y26.785
G3 X26.204 Y26.81 I-0.159 J0.
G1 X26.08 Y27.594
X26.072 Y27.642 Z-5.292
X26.066 Y27.686 Z-5.27
X26.06 Y27.721 Z-5.235
X26.057 Y27.743 Z-5.19
X26.055 Y27.751 Z-5.141
G0 Z5.
X31.514 Y28.184
Z3.2
G1 Z-3.657 F40.
X31.513 Y28.177 Z-3.701 F1270.
X31.509 Y28.157 Z-3.741
X31.504 Y28.126 Z-3.773
X31.498 Y28.086 Z-3.793
X31.491 Y28.043 Z-3.8
X31.296 Y26.808
G3 X31.294 Y26.783 I0.157 J-0.025
G1 Y19.25
G2 X23.25 Y11.206 I-8.044 J0.
G1 X23.1
G2 X22.488 Y11.494 I0. J0.794
G1 X21.914 Y11.792
G2 X21.873 Y11.882 I0.036 J0.071
G1 X22.02 Y12.469
X22.053 Y12.479
X22.084 Y12.517 Z-3.808
X22.112 Y12.551 Z-3.83
X22.135 Y12.578 Z-3.865
X22.149 Y12.596 Z-3.91
X22.154 Y12.602 Z-3.959
Z-4.641
X22.159 Y12.608 Z-4.69
X22.173 Y12.625 Z-4.735
X22.196 Y12.652 Z-4.77
X22.224 Y12.686 Z-4.792
X22.255 Y12.724 Z-4.8
X22.488 Y13.006
G2 X23.1 Y13.294 I0.612 J-0.506
G1 X23.25
G3 X29.206 Y19.25 I0. J5.956
G1 Y25.5
Y26.187
Y26.785
G3 X29.112 Y26.954 I-0.2 J0.
G1 X28.624 Y27.26
G3 X28.319 Y27.106 I-0.106 J-0.17
G1 X28.315 Y27.057 Z-4.808
X28.312 Y27.013 Z-4.83
X28.309 Y26.978 Z-4.865
X28.307 Y26.955 Z-4.91
X28.306 Y26.948 Z-4.959
Z-5.141
Y26.94 Z-5.19
X28.304 Y26.918 Z-5.235
X28.301 Y26.883 Z-5.27
X28.298 Y26.838 Z-5.292
X28.294 Y26.789 Z-5.3
Y26.783
Y19.25
G2 X23.25 Y14.206 I-5.044 J0.
G1 X23.1
G2 X22.488 Y14.494 I0. J0.794
G1 X21.982 Y15.106
X21.951 Y15.143 Z-5.292
X21.923 Y15.178 Z-5.27
X21.901 Y15.205 Z-5.235
X21.886 Y15.222 Z-5.19
X21.881 Y15.228 Z-5.141
Z0.2
X21.96 Y7.201
Z-2.752
X21.964 Y7.196 Z-2.776
X21.975 Y7.183 Z-2.794
X21.991 Y7.165 Z-2.8
G3 X22.148 Y7.113 I0.121 J0.103
G1 X22.635 Y7.229
G2 X23.187 Y7.294 I0.552 J-2.316
G1 X23.25
G3 X35.206 Y19.25 I0. J11.956
G1 Y25.5
Y26.187
Y26.785
G3 X35.006 Y26.985 I-0.2 J0.
G1 X34.493 Y26.983
G3 X34.294 Y26.783 I0.001 J-0.2
G1 Y19.25
G2 X23.25 Y8.206 I-11.044 J0.
G1 X23.1
G2 X22.428 Y8.577 I0. J0.794
G1 X21.904 Y8.918
G2 X21.871 Y9.009 I0.042 J0.067
G1 X22.018 Y9.469
X22.053 Y9.479
X22.084 Y9.517 Z-2.808
X22.112 Y9.551 Z-2.83
X22.135 Y9.578 Z-2.865
X22.149 Y9.596 Z-2.91
X22.154 Y9.602 Z-2.959
Z-3.641
X22.159 Y9.608 Z-3.69
X22.173 Y9.625 Z-3.735
X22.196 Y9.652 Z-3.77
X22.224 Y9.686 Z-3.792
X22.255 Y9.724 Z-3.8
X22.488 Y10.006
G2 X23.1 Y10.294 I0.612 J-0.506
G1 X23.25
G3 X32.206 Y19.25 I0. J8.956
G1 Y25.5
Y26.187
Y26.785
G3 X32.112 Y26.954 I-0.2 J0.
G1 X31.624 Y27.26
G3 X31.319 Y27.106 I-0.106 J-0.17
G1 X31.315 Y27.057 Z-3.808
X31.312 Y27.013 Z-3.83
X31.309 Y26.978 Z-3.865
X31.307 Y26.955 Z-3.91
X31.306 Y26.948 Z-3.959
Z-4.641
Y26.94 Z-4.69
X31.304 Y26.918 Z-4.735
X31.301 Y26.883 Z-4.77
X31.298 Y26.838 Z-4.792
X31.294 Y26.789 Z-4.8
Y26.783
Y19.25
G2 X23.25 Y11.206 I-8.044 J0.
G1 X23.1
G2 X22.488 Y11.494 I0. J0.794
G1 X21.914 Y11.792
G2 X21.873 Y11.882 I0.036 J0.071
G1 X22.02 Y12.469
X22.053 Y12.479
X22.084 Y12.517 Z-4.808
X22.112 Y12.551 Z-4.83
X22.135 Y12.578 Z-4.865
X22.149 Y12.596 Z-4.91
X22.154 Y12.602 Z-4.959
Z-5.141
X22.159 Y12.608 Z-5.19
X22.173 Y12.625 Z-5.235
X22.196 Y12.652 Z-5.27
X22.224 Y12.686 Z-5.292
X22.255 Y12.724 Z-5.3
X22.488 Y13.006
G2 X23.1 Y13.294 I0.612 J-0.506
G1 X23.25
G3 X29.206 Y19.25 I0. J5.956
G1 Y25.5
Y26.187
Y26.785
G3 X29.204 Y26.81 I-0.159 J0.
G1 X29.08 Y27.594
X29.072 Y27.642 Z-5.292
X29.066 Y27.686 Z-5.27
X29.06 Y27.721 Z-5.235
X29.057 Y27.743 Z-5.19
X29.055 Y27.751 Z-5.141
G0 Z5.
X34.514 Y28.184
Z3.2
G1 Z-3.657 F40.
X34.513 Y28.177 Z-3.701 F1270.
X34.509 Y28.157 Z-3.741
X34.504 Y28.126 Z-3.773
X34.498 Y28.086 Z-3.793
X34.491 Y28.043 Z-3.8
X34.296 Y26.808
G3 X34.294 Y26.783 I0.157 J-0.025
G1 Y19.25
G2 X23.25 Y8.206 I-11.044 J0.
G1 X23.1
G2 X22.428 Y8.577 I0. J0.794
G3 X22.061 Y8.497 I-0.169 J-0.107
G1 X21.904 Y7.334
G3 X22.148 Y7.113 I0.198 J-0.027
G1 X22.635 Y7.229
G2 X23.187 Y7.294 I0.552 J-2.316
G1 X23.25
G3 X35.206 Y19.25 I0. J11.956
G1 Y25.5
Y26.187
Y26.785
G3 X35.112 Y26.954 I-0.2 J0.
G1 X34.624 Y27.26
G3 X34.319 Y27.106 I-0.106 J-0.17
G1 X34.315 Y27.057 Z-3.808
X34.312 Y27.013 Z-3.83
X34.309 Y26.978 Z-3.865
X34.307 Y26.955 Z-3.91
X34.306 Y26.948 Z-3.959
Z-4.641
Y26.94 Z-4.69
X34.304 Y26.918 Z-4.735
X34.301 Y26.883 Z-4.77
X34.298 Y26.838 Z-4.792
X34.294 Y26.789 Z-4.8
Y26.783
Y19.25
G2 X23.25 Y8.206 I-11.044 J0.
G1 X23.1
G2 X22.428 Y8.577 I0. J0.794
G3 X22.352 Y8.614 I-0.067 J-0.042
G1 X22.317 Y8.61
G2 X22.229 Y8.691 I-0.009 J0.079
G1 X22.266 Y9.906
G2 X22.351 Y9.982 I0.079 J-0.002
G1 X22.422 Y9.977
G3 X22.488 Y10.006 I0.006 J0.079
G2 X23.1 Y10.294 I0.612 J-0.506
G1 X23.25
G3 X32.206 Y19.25 I0. J8.956
G1 Y25.5
Y26.187
Y26.785
G3 X32.112 Y26.954 I-0.2 J0.
G1 X31.624 Y27.26
G3 X31.319 Y27.106 I-0.106 J-0.17
G1 X31.315 Y27.057 Z-4.808
X31.312 Y27.013 Z-4.83
X31.309 Y26.978 Z-4.865
X31.307 Y26.955 Z-4.91
X31.306 Y26.948 Z-4.959
Z-5.141
Y26.94 Z-5.19
X31.304 Y26.918 Z-5.235
X31.301 Y26.883 Z-5.27
X31.298 Y26.838 Z-5.292
X31.294 Y26.789 Z-5.3
Y26.783
Y19.25
G2 X23.25 Y11.206 I-8.044 J0.
G1 X23.1
G2 X22.488 Y11.494 I0. J0.794
G3 X22.134 Y11.367 I-0.154 J-0.127
G1 Y10.133
G3 X22.488 Y10.006 I0.2 J0.
G2 X23.1 Y10.294 I0.612 J-0.506
G1 X23.25
G3 X32.206 Y19.25 I0. J8.956
G1 Y25.5
Y26.187
Y26.785
G3 X32.204 Y26.81 I-0.159 J0.
G1 X32.08 Y27.594
X32.072 Y27.642 Z-5.292
X32.066 Y27.686 Z-5.27
X32.06 Y27.721 Z-5.235
X32.057 Y27.743 Z-5.19
X32.055 Y27.751 Z-5.141
G0 Z5.
X21.96 Y7.201
Z3.2
G1 Z-1.8 F40.
Z-4.752 F1270.
X21.964 Y7.196 Z-4.776
X21.975 Y7.183 Z-4.794
X21.991 Y7.165 Z-4.8
G3 X22.148 Y7.113 I0.121 J0.103
G1 X22.635 Y7.229
G2 X23.187 Y7.294 I0.552 J-2.316
G1 X23.25
G3 X35.206 Y19.25 I0. J11.956
G1 Y25.5
Y26.187
Y26.785
G3 X35.112 Y26.954 I-0.2 J0.
G1 X34.624 Y27.26
G3 X34.319 Y27.106 I-0.106 J-0.17
G1 X34.315 Y27.057 Z-4.808
X34.312 Y27.013 Z-4.83
X34.309 Y26.978 Z-4.865
X34.307 Y26.955 Z-4.91
X34.306 Y26.948 Z-4.959
Z-5.141
Y26.94 Z-5.19
X34.304 Y26.918 Z-5.235
X34.301 Y26.883 Z-5.27
X34.298 Y26.838 Z-5.292
X34.294 Y26.789 Z-5.3
Y26.783
Y19.25
G2 X23.25 Y8.206 I-11.044 J0.
G1 X23.1
G2 X22.428 Y8.577 I0. J0.794
G3 X22.061 Y8.497 I-0.169 J-0.107
G1 X21.904 Y7.334
G3 X22.148 Y7.113 I0.198 J-0.027
G1 X22.635 Y7.229
G2 X23.187 Y7.294 I0.552 J-2.316
G1 X23.25
G3 X35.206 Y19.25 I0. J11.956
G1 Y25.5
Y26.187
Y26.785
G3 X35.204 Y26.81 I-0.159 J0.
G1 X35.08 Y27.594
X35.072 Y27.642 Z-5.292
X35.066 Y27.686 Z-5.27
X35.06 Y27.721 Z-5.235
X35.057 Y27.743 Z-5.19
X35.055 Y27.751 Z-5.141
G0 Z5.
X6.958 Y23.077
Z3.2
G1 Z0.2 F40.
Z-2.752 F1270.
X6.955 Y23.083 Z-2.776
X6.947 Y23.098 Z-2.794
X6.937 Y23.12 Z-2.8
G3 X6.795 Y23.206 I-0.141 J-0.072
G1 X6.197
X6.
Y22.411
G3 X6.256 Y22.219 I0.2 J0.
G1 X7.785 Y22.666
G3 X7.775 Y23.053 I-0.056 J0.192
G1 X7.728 Y23.064 Z-2.808
X7.684 Y23.074 Z-2.83
X7.65 Y23.083 Z-2.865
X7.628 Y23.088 Z-2.91
X7.621 Y23.09 Z-2.959
Z-3.641
X7.613 Y23.092 Z-3.69
X7.591 Y23.097 Z-3.735
X7.557 Y23.105 Z-3.77
X7.514 Y23.115 Z-3.792
X7.466 Y23.127 Z-3.8
G3 X6.795 Y23.206 I-0.671 J-2.796
G1 X6.197
X6.
Y22.411
G3 X6.256 Y22.219 I0.2 J0.
G1 X7.785 Y22.666
G3 X7.775 Y23.053 I-0.056 J0.192
G1 X7.728 Y23.064 Z-3.808
X7.684 Y23.074 Z-3.83
X7.65 Y23.083 Z-3.865
X7.628 Y23.088 Z-3.91
X7.621 Y23.09 Z-3.959
Z-4.641
X7.613 Y23.092 Z-4.69
X7.591 Y23.097 Z-4.735
X7.557 Y23.105 Z-4.77
X7.514 Y23.115 Z-4.792
X7.466 Y23.127 Z-4.8
G3 X6.795 Y23.206 I-0.671 J-2.796
G1 X6.197
X6.
Y22.411
G3 X6.256 Y22.219 I0.2 J0.
G1 X7.785 Y22.666
G3 X7.775 Y23.053 I-0.056 J0.192
G1 X7.728 Y23.064 Z-4.808
X7.684 Y23.074 Z-4.83
X7.65 Y23.083 Z-4.865
X7.628 Y23.088 Z-4.91
X7.621 Y23.09 Z-4.959
Z-5.141
X7.613 Y23.092 Z-5.19
X7.591 Y23.097 Z-5.235
X7.557 Y23.105 Z-5.27
X7.514 Y23.115 Z-5.292
X7.466 Y23.127 Z-5.3
G3 X6.795 Y23.206 I-0.671 J-2.796
G1 X6.197
X6.
Y22.411
G3 X6.002 Y22.386 I0.159 J0.
G1 X6.079 Y21.902
X6.086 Y21.854 Z-5.292
X6.093 Y21.81 Z-5.27
X6.099 Y21.775 Z-5.235
X6.102 Y21.753 Z-5.19
X6.103 Y21.746 Z-5.141
G0 Z5.
X6.129 Y8.078
Z3.2
G1 Z0.2 F40.
Z-2.752 F1270.
X6.123 Y8.075 Z-2.776
X6.108 Y8.067 Z-2.794
X6.087 Y8.056 Z-2.8
G3 X6. Y7.915 I0.072 J-0.141
G1 Y7.317
Y7.294
X6.602 Y7.143
G3 X6.847 Y7.376 I0.049 J0.194
G1 X6.544 Y8.887
G3 X6.154 Y8.895 I-0.196 J-0.039
G1 X6.142 Y8.847 Z-2.808
X6.132 Y8.804 Z-2.83
X6.124 Y8.77 Z-2.865
X6.118 Y8.748 Z-2.91
X6.117 Y8.74 Z-2.959
Z-3.641
X6.115 Y8.733 Z-3.69
X6.109 Y8.711 Z-3.735
X6.101 Y8.677 Z-3.77
X6.091 Y8.634 Z-3.792
X6.079 Y8.586 Z-3.8
G3 X6. Y7.915 I2.796 J-0.671
G1 Y7.317
Y7.294
X6.602 Y7.143
G3 X6.847 Y7.376 I0.049 J0.194
G1 X6.544 Y8.887
G3 X6.154 Y8.895 I-0.196 J-0.039
G1 X6.142 Y8.847 Z-3.808
X6.132 Y8.804 Z-3.83
X6.124 Y8.77 Z-3.865
X6.118 Y8.748 Z-3.91
X6.117 Y8.74 Z-3.959
Z-4.641
X6.115 Y8.733 Z-4.69
X6.109 Y8.711 Z-4.735
X6.101 Y8.677 Z-4.77
X6.091 Y8.634 Z-4.792
X6.079 Y8.586 Z-4.8
G3 X6. Y7.915 I2.796 J-0.671
G1 Y7.317
Y7.294
X6.602 Y7.143
G3 X6.847 Y7.376 I0.049 J0.194
G1 X6.544 Y8.887
G3 X6.154 Y8.895 I-0.196 J-0.039
G1 X6.142 Y8.847 Z-4.808
X6.132 Y8.804 Z-4.83
X6.124 Y8.77 Z-4.865
X6.118 Y8.748 Z-4.91
X6.117 Y8.74 Z-4.959
Z-5.141
X6.115 Y8.733 Z-5.19
X6.109 Y8.711 Z-5.235
X6.101 Y8.677 Z-5.27
X6.091 Y8.634 Z-5.292
X6.079 Y8.586 Z-5.3
G3 X6. Y7.915 I2.796 J-0.671
G1 Y7.317
Y7.294
X6.602 Y7.143
G3 X6.627 Y7.139 I0.039 J0.154
G1 X7.115 Y7.096
X7.164 Y7.092 Z-5.292
X7.208 Y7.088 Z-5.27
X7.243 Y7.085 Z-5.235
X7.265 Y7.083 Z-5.19
X7.273 Y7.082 Z-5.141
G0 Z15.

(DRILL2)
G55
M9
G0 X3.5 Y11.2
Z15.
Z5.
Z3.2
Z0.2
G1 Z-2.197 F51.
G0 Z-2.097
G1 Z-2.594 F51.
G0 Z-2.494
G1 Z-2.991 F51.
G0 Z-2.891
G1 Z-3.387 F51.
G0 Z-3.287
G1 Z-3.784 F51.
G0 Z-3.684
G1 Z-4.181 F51.
G0 Z-4.081
G1 Z-4.578 F51.
G0 Z-4.478
G1 Z-4.975 F51.
G0 Z-4.875
G1 Z-5.3 F51.
G0 Z5.
X36.5 Y12.5
Z3.2
Z0.2
G1 Z-2.197 F51.
G0 Z-2.097
G1 Z-2.594 F51.
G0 Z-2.494
G1 Z-2.991 F51.
G0 Z-2.891
G1 Z-3.387 F51.
G0 Z-3.287
G1 Z-3.784 F51.
G0 Z-3.684
G1 Z-4.181 F51.
G0 Z-4.081
G1 Z-4.578 F51.
G0 Z-4.478
G1 Z-4.975 F51.
G0 Z-4.875
G1 Z-5.3 F51.
G0 Z5.
Z15.

M9
G53 Z0.
M30
