(1001)
(T1  D=3.175 CR=0. - ZMIN=-6.3 - FLAT END MILL)
G0 G90 G94 G17
G21
G53 Z0.

(FACE6)
M5
M9
T1
S16500 M3
G55
M9
G0 X43.417 Y4.318
Z15.
Z5.
G1 Z-0.482 F1500.
G18 G3 X43.099 Z-0.8 I-0.317 K0.
G1 X41.353
X0.169
G17 G2 Y6.783 I0. J1.232
G1 X41.353
G3 Y9.248 I0. J1.232
G1 X0.169
G2 Y11.712 I0. J1.232
G1 X41.353
G3 Y14.177 I0. J1.232
G1 X0.169
G2 Y16.642 I0. J1.232
G1 X41.353
G3 Y19.107 I0. J1.232
G1 X0.169
G2 Y21.571 I0. J1.232
G1 X41.353
G3 Y24.036 I0. J1.232
G1 X0.169
G2 Y26.501 I0. J1.232
G1 X41.353
G3 Y28.966 I0. J1.232
G1 X0.169
G18 G3 X-0.148 Z-0.482 I0. K0.318
G0 Z5.
X-1.895 Y4.318
G1 Z-1.482 F1500.
G2 X-1.577 Z-1.8 I0.317 K0.
G1 X0.169
X41.353
G17 G3 Y6.783 I0. J1.232
G1 X0.169
G2 Y9.248 I0. J1.232
G1 X41.353
G3 Y11.712 I0. J1.232
G1 X0.169
G2 Y14.177 I0. J1.232
G1 X41.353
G3 Y16.642 I0. J1.232
G1 X0.169
G2 Y19.107 I0. J1.232
G1 X41.353
G3 Y21.571 I0. J1.232
G1 X0.169
G2 Y24.036 I0. J1.232
G1 X41.353
G3 Y26.501 I0. J1.232
G1 X0.169
G2 Y28.966 I0. J1.232
G1 X41.353
G18 G2 X41.67 Z-1.482 I0. K0.317
G0 Z15.
G17

(2D POCKET6)
G55
M9
G0 X19.183 Y10.351
Z15.
Z3.2
G1 Z0.7 F1500.
X8.817 Y20.718 Z0.188 F300.
G3 X8.592 Y20.493 I-0.112 J-0.112
G1 X19.593 Y9.492 Z-0.355
G3 X19.818 Y9.717 I0.112 J0.112
G1 X8.817 Y20.718 Z-0.899
G3 X8.592 Y20.493 I-0.112 J-0.112
G1 X19.593 Y9.492 Z-1.442
G3 X19.818 Y9.717 I0.112 J0.112
G1 X8.817 Y20.718 Z-1.985
G3 X8.592 Y20.493 I-0.112 J-0.112
G1 X19.593 Y9.492 Z-2.528
G3 X19.818 Y9.717 I0.112 J0.112
G1 X14.317 Y15.217 Z-2.8
G2 X14.251 Y15.312 I0.233 J0.233
G1 X13.906 Y16.057
G2 X14.504 Y16.333 I0.299 J0.138
X14.205 Y15.866 I-0.299 J-0.138
G1 X13.656 F1500.
G3 X13.341 Y15.55 I0. J-0.315
G1 Y15.314
G3 X13.371 Y15.157 I0.422 J0.
G2 X13.62 Y14.468 I-10.175 J-4.067
G3 X14.078 Y14.134 I0.458 J0.148
G1 X14.696
G3 X14.985 Y14.444 I0. J0.29
G2 X14.965 Y14.996 I8.422 J0.577
X14.966 Y15.549 I61.875 J0.184
G3 X14.651 Y15.866 I-0.315 J0.002
G1 X14.205
G2 X13.066 Y16.537 I0. J1.302
G3 X11.786 Y16.206 I-0.597 J-0.331
G1 Y15.279
G3 X11.917 Y14.605 I1.795 J0.
G2 X12.418 Y12.905 I-8.418 J-3.406
G3 X12.812 Y12.58 I0.394 J0.076
G1 X16.216
G3 X16.531 Y12.877 I0. J0.315
G2 X16.61 Y13.584 I6.569 J-0.377
G3 Y13.916 I-0.994 J0.166
G2 X16.502 Y15.153 I7.823 J1.307
X16.581 Y16.392 I8.582 J0.075
G3 X16.573 Y16.59 I-0.559 J0.077
G2 X16.554 Y16.682 I6.427 J1.41
G3 X16.137 Y17.103 I-0.53 J-0.108
G2 X15.239 Y17.35 I1.658 J7.778
G3 X14.808 Y17.42 I-0.431 J-1.274
G1 X12.101
G3 X11.786 Y17.105 I0. J-0.315
G1 Y16.206
G2 X10.756 Y14.394 I-2.109 J0.
G3 X9.91 Y12.489 I0.923 J-1.55
G2 X10.027 Y10.828 I-6.364 J-1.281
G3 X10.317 Y10.473 I0.339 J-0.019
G2 X11.557 Y10.171 I-0.958 J-6.646
G3 X12.348 Y10.037 I0.79 J2.261
G1 X16.454
G3 X17.245 Y10.172 I0. J2.395
G2 X18.929 Y10.52 I2.152 J-6.151
G3 X19.21 Y10.919 I-0.022 J0.315
G2 X19.036 Y12.098 I4.617 J1.283
X19.14 Y13.285 I5.49 J0.12
G3 Y14.215 I-2.349 J0.465
G2 X19.042 Y15.17 I5.064 J1.003
X19.112 Y16.126 I5.811 J0.055
G3 X19.074 Y17.057 I-2.366 J0.372
G2 X18.957 Y18.097 I4.136 J0.993
G3 X18.963 Y19.143 I-95.693 J1.046
X18.643 Y19.463 I-0.319 J0.
X18.248 Y19.45 I0. J-6.337
G2 X17.852 Y19.438 I-0.396 J6.329
X16.857 Y19.539 I0. J4.948
X15.895 Y19.814 I1.326 J6.459
G3 X15.064 Y19.963 I-0.831 J-2.246
G1 X9.559
G3 X9.244 Y19.647 I0. J-0.315
G1 Y15.212
G3 X9.546 Y13.686 I3.999 J0.
G2 X9.91 Y12.489 I-6. J-2.478
X9.123 Y10.298 I-2.206 J-0.444
G3 X9.795 Y8.068 I0.793 J-0.977
G2 X11.36 Y7.588 I-0.394 J-4.068
G1 X17.442
G2 X21.154 Y7.692 I1.959 J-3.588
G1 X21.969 Y7.886
G2 X21.513 Y9. I1.131 J1.114
G1 Y9.5
G2 X22.121 Y10.75 I1.587 J0.
X21.513 Y12. I0.979 J1.25
G1 Y12.5
G2 X22.121 Y13.75 I1.587 J0.
X21.513 Y15. I0.979 J1.25
G1 Y15.5
G2 X22.073 Y16.711 I1.587 J0.
X21.413 Y18. I0.927 J1.289
G1 Y21.984
G2 X20.831 Y21.913 I-0.581 J2.309
G1 X17.852
G2 X16.51 Y22.21 I0. J3.175
G1 X16.076 Y22.412
X6.794 Y22.413
Y13.62
G2 Y8.78 I-3.294 J-2.421
G1 Y7.913
X7.658 Y7.697
G2 X9.795 Y8.068 I1.743 J-3.697
G3 X10.005 Y8.209 I0.019 J0.199
G1 X12.614 Y16.77
G3 X12.565 Y16.97 I-0.191 J0.058
G1 X8.817 Y20.718 Z-2.985 F300.
G3 X8.592 Y20.493 I-0.112 J-0.112
G1 X19.593 Y9.492 Z-3.528
G3 X19.818 Y9.717 I0.112 J0.112
G1 X14.317 Y15.217 Z-3.8
G2 X14.251 Y15.312 I0.233 J0.233
G1 X13.906 Y16.057
G2 X14.504 Y16.333 I0.299 J0.138
X14.205 Y15.866 I-0.299 J-0.138
G1 X13.656 F1500.
G3 X13.341 Y15.55 I0. J-0.315
G1 Y15.314
G3 X13.371 Y15.157 I0.422 J0.
G2 X13.62 Y14.468 I-10.175 J-4.067
G3 X14.078 Y14.134 I0.458 J0.148
G1 X14.696
G3 X14.985 Y14.444 I0. J0.29
G2 X14.965 Y14.996 I8.422 J0.577
X14.966 Y15.549 I61.875 J0.184
G3 X14.651 Y15.866 I-0.315 J0.002
G1 X14.205
G2 X13.066 Y16.537 I0. J1.302
G3 X11.786 Y16.206 I-0.597 J-0.331
G1 Y15.279
G3 X11.917 Y14.605 I1.795 J0.
G2 X12.418 Y12.905 I-8.418 J-3.406
G3 X12.812 Y12.58 I0.394 J0.076
G1 X16.216
G3 X16.531 Y12.877 I0. J0.315
G2 X16.61 Y13.584 I6.569 J-0.377
G3 Y13.916 I-0.994 J0.166
G2 X16.502 Y15.153 I7.823 J1.307
X16.581 Y16.392 I8.582 J0.075
G3 X16.573 Y16.59 I-0.559 J0.077
G2 X16.554 Y16.682 I6.427 J1.41
G3 X16.137 Y17.103 I-0.53 J-0.108
G2 X15.239 Y17.35 I1.658 J7.778
G3 X14.808 Y17.42 I-0.431 J-1.274
G1 X12.101
G3 X11.786 Y17.105 I0. J-0.315
G1 Y16.206
G2 X10.756 Y14.394 I-2.109 J0.
G3 X9.91 Y12.489 I0.923 J-1.55
G2 X10.027 Y10.828 I-6.364 J-1.281
G3 X10.317 Y10.473 I0.339 J-0.019
G2 X11.557 Y10.171 I-0.958 J-6.646
G3 X12.348 Y10.037 I0.79 J2.261
G1 X16.454
G3 X17.245 Y10.172 I0. J2.395
G2 X18.929 Y10.52 I2.152 J-6.151
G3 X19.21 Y10.919 I-0.022 J0.315
G2 X19.036 Y12.098 I4.617 J1.283
X19.14 Y13.285 I5.49 J0.12
G3 Y14.215 I-2.349 J0.465
G2 X19.042 Y15.17 I5.064 J1.003
X19.112 Y16.126 I5.811 J0.055
G3 X19.074 Y17.057 I-2.366 J0.372
G2 X18.957 Y18.097 I4.136 J0.993
G3 X18.963 Y19.143 I-95.693 J1.046
X18.643 Y19.463 I-0.319 J0.
X18.248 Y19.45 I0. J-6.337
G2 X17.852 Y19.438 I-0.396 J6.329
X16.857 Y19.539 I0. J4.948
X15.895 Y19.814 I1.326 J6.459
G3 X15.064 Y19.963 I-0.831 J-2.246
G1 X9.559
G3 X9.244 Y19.647 I0. J-0.315
G1 Y15.212
G3 X9.546 Y13.686 I3.999 J0.
G2 X9.91 Y12.489 I-6. J-2.478
X9.123 Y10.298 I-2.206 J-0.444
G3 X9.795 Y8.068 I0.793 J-0.977
G2 X11.36 Y7.588 I-0.394 J-4.068
G1 X17.442
G2 X21.154 Y7.692 I1.959 J-3.588
G1 X21.969 Y7.886
G2 X21.513 Y9. I1.131 J1.114
G1 Y9.5
G2 X22.121 Y10.75 I1.587 J0.
X21.513 Y12. I0.979 J1.25
G1 Y12.5
G2 X22.121 Y13.75 I1.587 J0.
X21.513 Y15. I0.979 J1.25
G1 Y15.5
G2 X22.073 Y16.711 I1.587 J0.
X21.413 Y18. I0.927 J1.289
G1 Y21.984
G2 X20.831 Y21.913 I-0.581 J2.309
G1 X17.852
G2 X16.51 Y22.21 I0. J3.175
G1 X16.076 Y22.412
X6.794 Y22.413
Y13.62
G2 Y8.78 I-3.294 J-2.421
G1 Y7.913
X7.658 Y7.697
G2 X9.795 Y8.068 I1.743 J-3.697
G3 X10.005 Y8.209 I0.019 J0.199
G1 X12.614 Y16.77
G3 X12.565 Y16.97 I-0.191 J0.058
G1 X8.817 Y20.718 Z-3.985 F300.
G3 X8.592 Y20.493 I-0.112 J-0.112
G1 X19.593 Y9.492 Z-4.528
G3 X19.818 Y9.717 I0.112 J0.112
G1 X14.317 Y15.217 Z-4.8
G2 X14.251 Y15.312 I0.233 J0.233
G1 X13.906 Y16.057
G2 X14.504 Y16.333 I0.299 J0.138
X14.205 Y15.866 I-0.299 J-0.138
G1 X13.656 F1500.
G3 X13.341 Y15.55 I0. J-0.315
G1 Y15.314
G3 X13.371 Y15.157 I0.422 J0.
G2 X13.62 Y14.468 I-10.175 J-4.067
G3 X14.078 Y14.134 I0.458 J0.148
G1 X14.696
G3 X14.985 Y14.444 I0. J0.29
G2 X14.965 Y14.996 I8.422 J0.577
X14.966 Y15.549 I61.875 J0.184
G3 X14.651 Y15.866 I-0.315 J0.002
G1 X14.205
G2 X13.066 Y16.537 I0. J1.302
G3 X11.786 Y16.206 I-0.597 J-0.331
G1 Y15.279
G3 X11.917 Y14.605 I1.795 J0.
G2 X12.418 Y12.905 I-8.418 J-3.406
G3 X12.812 Y12.58 I0.394 J0.076
G1 X16.216
G3 X16.531 Y12.877 I0. J0.315
G2 X16.61 Y13.584 I6.569 J-0.377
G3 Y13.916 I-0.994 J0.166
G2 X16.502 Y15.153 I7.823 J1.307
X16.581 Y16.392 I8.582 J0.075
G3 X16.573 Y16.59 I-0.559 J0.077
G2 X16.554 Y16.682 I6.427 J1.41
G3 X16.137 Y17.103 I-0.53 J-0.108
G2 X15.239 Y17.35 I1.658 J7.778
G3 X14.808 Y17.42 I-0.431 J-1.274
G1 X12.101
G3 X11.786 Y17.105 I0. J-0.315
G1 Y16.206
G2 X10.756 Y14.394 I-2.109 J0.
G3 X9.91 Y12.489 I0.923 J-1.55
G2 X10.027 Y10.828 I-6.364 J-1.281
G3 X10.317 Y10.473 I0.339 J-0.019
G2 X11.557 Y10.171 I-0.958 J-6.646
G3 X12.348 Y10.037 I0.79 J2.261
G1 X16.454
G3 X17.245 Y10.172 I0. J2.395
G2 X18.929 Y10.52 I2.152 J-6.151
G3 X19.21 Y10.919 I-0.022 J0.315
G2 X19.036 Y12.098 I4.617 J1.283
X19.14 Y13.285 I5.49 J0.12
G3 Y14.215 I-2.349 J0.465
G2 X19.042 Y15.17 I5.064 J1.003
X19.112 Y16.126 I5.811 J0.055
G3 X19.074 Y17.057 I-2.366 J0.372
G2 X18.957 Y18.097 I4.136 J0.993
G3 X18.963 Y19.143 I-95.693 J1.046
X18.643 Y19.463 I-0.319 J0.
X18.248 Y19.45 I0. J-6.337
G2 X17.852 Y19.438 I-0.396 J6.329
X16.857 Y19.539 I0. J4.948
X15.895 Y19.814 I1.326 J6.459
G3 X15.064 Y19.963 I-0.831 J-2.246
G1 X9.559
G3 X9.244 Y19.647 I0. J-0.315
G1 Y15.212
G3 X9.546 Y13.686 I3.999 J0.
G2 X9.91 Y12.489 I-6. J-2.478
X9.123 Y10.298 I-2.206 J-0.444
G3 X9.795 Y8.068 I0.793 J-0.977
G2 X11.36 Y7.588 I-0.394 J-4.068
G1 X17.442
G2 X21.154 Y7.692 I1.959 J-3.588
G1 X21.969 Y7.886
G2 X21.513 Y9. I1.131 J1.114
G1 Y9.5
G2 X22.121 Y10.75 I1.587 J0.
X21.513 Y12. I0.979 J1.25
G1 Y12.5
G2 X22.121 Y13.75 I1.587 J0.
X21.513 Y15. I0.979 J1.25
G1 Y15.5
G2 X22.073 Y16.711 I1.587 J0.
X21.413 Y18. I0.927 J1.289
G1 Y21.984
G2 X20.831 Y21.913 I-0.581 J2.309
G1 X17.852
G2 X16.51 Y22.21 I0. J3.175
G1 X16.076 Y22.412
X6.794 Y22.413
Y13.62
G2 Y8.78 I-3.294 J-2.421
G1 Y7.913
X7.658 Y7.697
G2 X9.795 Y8.068 I1.743 J-3.697
G3 X9.971 Y8.144 I0.019 J0.199
G1 X14.671 Y14.099
G2 X14.969 Y14.116 I0.157 J-0.124
G1 X19.593 Y9.492 Z-5.028 F300.
G3 X19.818 Y9.717 I0.112 J0.112
G1 X14.317 Y15.217 Z-5.3
G2 X14.251 Y15.312 I0.233 J0.233
G1 X13.906 Y16.057
G2 X14.504 Y16.333 I0.299 J0.138
X14.205 Y15.866 I-0.299 J-0.138
G1 X13.656 F1500.
G3 X13.341 Y15.55 I0. J-0.315
G1 Y15.314
G3 X13.371 Y15.157 I0.422 J0.
G2 X13.62 Y14.468 I-10.175 J-4.067
G3 X14.078 Y14.134 I0.458 J0.148
G1 X14.696
G3 X14.985 Y14.444 I0. J0.29
G2 X14.965 Y14.996 I8.422 J0.577
X14.966 Y15.549 I61.875 J0.184
G3 X14.651 Y15.866 I-0.315 J0.002
G1 X14.205
G2 X13.066 Y16.537 I0. J1.302
G3 X11.786 Y16.206 I-0.597 J-0.331
G1 Y15.279
G3 X11.917 Y14.605 I1.795 J0.
G2 X12.418 Y12.905 I-8.418 J-3.406
G3 X12.812 Y12.58 I0.394 J0.076
G1 X16.216
G3 X16.531 Y12.877 I0. J0.315
G2 X16.61 Y13.584 I6.569 J-0.377
G3 Y13.916 I-0.994 J0.166
G2 X16.502 Y15.153 I7.823 J1.307
X16.581 Y16.392 I8.582 J0.075
G3 X16.573 Y16.59 I-0.559 J0.077
G2 X16.554 Y16.682 I6.427 J1.41
G3 X16.137 Y17.103 I-0.53 J-0.108
G2 X15.239 Y17.35 I1.658 J7.778
G3 X14.808 Y17.42 I-0.431 J-1.274
G1 X12.101
G3 X11.786 Y17.105 I0. J-0.315
G1 Y16.206
G2 X10.756 Y14.394 I-2.109 J0.
G3 X9.91 Y12.489 I0.923 J-1.55
G2 X10.027 Y10.828 I-6.364 J-1.281
G3 X10.317 Y10.473 I0.339 J-0.019
G2 X11.557 Y10.171 I-0.958 J-6.646
G3 X12.348 Y10.037 I0.79 J2.261
G1 X16.454
G3 X17.245 Y10.172 I0. J2.395
G2 X18.929 Y10.52 I2.152 J-6.151
G3 X19.21 Y10.919 I-0.022 J0.315
G2 X19.036 Y12.098 I4.617 J1.283
X19.14 Y13.285 I5.49 J0.12
G3 Y14.215 I-2.349 J0.465
G2 X19.042 Y15.17 I5.064 J1.003
X19.112 Y16.126 I5.811 J0.055
G3 X19.074 Y17.057 I-2.366 J0.372
G2 X18.957 Y18.097 I4.136 J0.993
G3 X18.963 Y19.143 I-95.693 J1.046
X18.643 Y19.463 I-0.319 J0.
X18.248 Y19.45 I0. J-6.337
G2 X17.852 Y19.438 I-0.396 J6.329
X16.857 Y19.539 I0. J4.948
X15.895 Y19.814 I1.326 J6.459
G3 X15.064 Y19.963 I-0.831 J-2.246
G1 X9.559
G3 X9.244 Y19.647 I0. J-0.315
G1 Y15.212
G3 X9.546 Y13.686 I3.999 J0.
G2 X9.91 Y12.489 I-6. J-2.478
X9.123 Y10.298 I-2.206 J-0.444
G3 X9.795 Y8.068 I0.793 J-0.977
G2 X11.36 Y7.588 I-0.394 J-4.068
G1 X17.442
G2 X21.154 Y7.692 I1.959 J-3.588
G1 X21.969 Y7.886
G2 X21.513 Y9. I1.131 J1.114
G1 Y9.5
G2 X22.121 Y10.75 I1.587 J0.
X21.513 Y12. I0.979 J1.25
G1 Y12.5
G2 X22.121 Y13.75 I1.587 J0.
X21.513 Y15. I0.979 J1.25
G1 Y15.5
G2 X22.073 Y16.711 I1.587 J0.
X21.413 Y18. I0.927 J1.289
G1 Y21.984
G2 X20.831 Y21.913 I-0.581 J2.309
G1 X17.852
G2 X16.51 Y22.21 I0. J3.175
G1 X16.076 Y22.412
X6.794 Y22.413
Y13.62
G2 Y8.78 I-3.294 J-2.421
G1 Y7.913
X7.658 Y7.697
G2 X9.795 Y8.068 I1.743 J-3.697
G3 X9.915 Y8.08 Z-5.276 I0.031 J0.316
X10.007 Y8.124 Z-5.207 I-0.09 J0.305
X10.059 Y8.17 Z-5.104 I-0.182 J0.26
X10.075 Y8.188 Z-4.983 I-0.234 J0.215
G0 Z15.

(2D CONTOUR CUT UNTIL THE FLAT)
G55
M9
G0 X2.682 Y28.04
Z15.
Z5.
G1 Z2. F1500.
Z-0.683 F40.
G19 G2 Y27.722 Z-1. J-0.318 K0.
G1 Y27.405 F1500.
G17 G3 X3. Y27.087 I0.318 J0.
G1 X37.
G2 X40.588 Y23.5 I0. J-3.587
G1 Y6.5
G2 X37. Y2.912 I-3.588 J0.
G1 X3.
G2 X-0.587 Y6.5 I0. J3.588
G1 Y23.5
G2 X3. Y27.087 I3.587 J0.
G3 X3.318 Y27.405 I0. J0.318
G1 Y27.722
G19 G3 Y28.04 Z-0.683 J0. K0.317
G1 X2.682
Z-1.683 F40.
G2 Y27.722 Z-2. J-0.318 K0.
G1 Y27.405 F1500.
G17 G3 X3. Y27.087 I0.318 J0.
G1 X37.
G2 X40.588 Y23.5 I0. J-3.587
G1 Y6.5
G2 X37. Y2.912 I-3.588 J0.
G1 X3.
G2 X-0.587 Y6.5 I0. J3.588
G1 Y23.5
G2 X3. Y27.087 I3.587 J0.
G3 X3.318 Y27.405 I0. J0.318
G1 Y27.722
G19 G3 Y28.04 Z-1.683 J0. K0.317
G1 X2.682
Z-2.683 F40.
G2 Y27.722 Z-3. J-0.318 K0.
G1 Y27.405 F1500.
G17 G3 X3. Y27.087 I0.318 J0.
G1 X37.
G2 X40.588 Y23.5 I0. J-3.587
G1 Y6.5
G2 X37. Y2.912 I-3.588 J0.
G1 X3.
G2 X-0.587 Y6.5 I0. J3.588
G1 Y23.5
G2 X3. Y27.087 I3.587 J0.
G3 X3.318 Y27.405 I0. J0.318
G1 Y27.722
G19 G3 Y28.04 Z-2.683 J0. K0.318
G1 X2.682
Z-3.683 F40.
G2 Y27.722 Z-4. J-0.318 K0.
G1 Y27.405 F1500.
G17 G3 X3. Y27.087 I0.318 J0.
G1 X37.
G2 X40.588 Y23.5 I0. J-3.587
G1 Y6.5
G2 X37. Y2.912 I-3.588 J0.
G1 X3.
G2 X-0.587 Y6.5 I0. J3.588
G1 Y23.5
G2 X3. Y27.087 I3.587 J0.
G3 X3.318 Y27.405 I0. J0.318
G1 Y27.722
G19 G3 Y28.04 Z-3.683 J0. K0.318
G1 X2.682
Z-4.683 F40.
G2 Y27.722 Z-5. J-0.318 K0.
G1 Y27.405 F1500.
G17 G3 X3. Y27.087 I0.318 J0.
G1 X37.
G2 X40.588 Y23.5 I0. J-3.587
G1 Y6.5
G2 X37. Y2.912 I-3.588 J0.
G1 X3.
G2 X-0.587 Y6.5 I0. J3.588
G1 Y23.5
G2 X3. Y27.087 I3.587 J0.
G3 X3.318 Y27.405 I0. J0.318
G1 Y27.722
G19 G3 Y28.04 Z-4.683 J0. K0.318
G1 X2.682
Z-4.983 F40.
G2 Y27.722 Z-5.3 J-0.318 K0.
G1 Y27.405 F1500.
G17 G3 X3. Y27.087 I0.318 J0.
G1 X37.
G2 X40.588 Y23.5 I0. J-3.587
G1 Y6.5
G2 X37. Y2.912 I-3.588 J0.
G1 X3.
G2 X-0.587 Y6.5 I0. J3.588
G1 Y23.5
G2 X3. Y27.087 I3.587 J0.
G3 X3.318 Y27.405 I0. J0.318
G1 Y27.722
G19 G3 Y28.04 Z-4.983 J0. K0.318
G0 Z15.
G17

(2D POCKET9)
G55
M9
G0 X5.907 Y1.997
Z15.
Z5.
G1 Z-0.683 F40.
X5.9 Y1.999 Z-0.753 F1500.
X5.877 Y2.007 Z-0.82
X5.841 Y2.018 Z-0.88
X5.794 Y2.033 Z-0.931
X5.736 Y2.052 Z-0.969
X5.672 Y2.072 Z-0.992
X5.605 Y2.094 Z-1.
X2.509 Y3.083
G2 X0.013 Y6.5 I1.091 J3.417
G1 Y23.5
G2 X2.505 Y26.916 I3.587 J0.
G3 X2.422 Y27.222 I-0.048 J0.151
G1 X-0.571 Y26.549
G3 X-0.695 Y26.392 I0.035 J-0.155
G1 X-0.349 Y3.398
G3 X-0.222 Y3.245 I0.159 J0.002
G1 X3.057 Y2.575
G3 X3.137 Y2.882 I0.032 J0.156
G1 X3.07 Y2.903 Z-1.008
X3.006 Y2.924 Z-1.031
X2.948 Y2.942 Z-1.069
X2.901 Y2.957 Z-1.12
X2.865 Y2.969 Z-1.18
X2.842 Y2.976 Z-1.247
X2.835 Y2.978 Z-1.317
Z-1.683
X2.827 Y2.981 Z-1.753
X2.805 Y2.988 Z-1.82
X2.769 Y2.999 Z-1.88
X2.721 Y3.015 Z-1.931
X2.663 Y3.033 Z-1.969
X2.599 Y3.054 Z-1.992
X2.532 Y3.075 Z-2.
X2.509 Y3.083
G2 X0.013 Y6.5 I1.091 J3.417
G1 Y23.5
G2 X2.505 Y26.916 I3.587 J0.
G3 X2.422 Y27.222 I-0.048 J0.151
G1 X-0.571 Y26.549
G3 X-0.695 Y26.392 I0.035 J-0.155
G1 X-0.349 Y3.398
G3 X-0.222 Y3.245 I0.159 J0.002
G1 X3.057 Y2.575
G3 X3.137 Y2.882 I0.032 J0.156
G1 X3.07 Y2.903 Z-2.008
X3.006 Y2.924 Z-2.031
X2.948 Y2.942 Z-2.069
X2.901 Y2.957 Z-2.12
X2.865 Y2.969 Z-2.18
X2.842 Y2.976 Z-2.247
X2.835 Y2.978 Z-2.318
Z-2.682
X2.827 Y2.981 Z-2.753
X2.805 Y2.988 Z-2.82
X2.769 Y2.999 Z-2.88
X2.721 Y3.015 Z-2.931
X2.663 Y3.033 Z-2.969
X2.599 Y3.054 Z-2.992
X2.532 Y3.075 Z-3.
X2.509 Y3.083
G2 X0.013 Y6.5 I1.091 J3.417
G1 Y23.5
G2 X2.505 Y26.916 I3.587 J0.
G3 X2.422 Y27.222 I-0.048 J0.151
G1 X-0.571 Y26.549
G3 X-0.695 Y26.392 I0.035 J-0.155
G1 X-0.349 Y3.398
G3 X-0.222 Y3.245 I0.159 J0.002
G1 X3.057 Y2.575
G3 X3.137 Y2.882 I0.032 J0.156
G1 X3.07 Y2.903 Z-3.008
X3.006 Y2.924 Z-3.031
X2.948 Y2.942 Z-3.069
X2.901 Y2.957 Z-3.12
X2.865 Y2.969 Z-3.18
X2.842 Y2.976 Z-3.247
X2.835 Y2.978 Z-3.318
Z-3.682
X2.827 Y2.981 Z-3.753
X2.805 Y2.988 Z-3.82
X2.769 Y2.999 Z-3.88
X2.721 Y3.015 Z-3.931
X2.663 Y3.033 Z-3.969
X2.599 Y3.054 Z-3.992
X2.532 Y3.075 Z-4.
X2.509 Y3.083
G2 X0.013 Y6.5 I1.091 J3.417
G1 Y23.5
G2 X2.505 Y26.916 I3.587 J0.
G3 X2.422 Y27.222 I-0.048 J0.151
G1 X-0.571 Y26.549
G3 X-0.695 Y26.392 I0.035 J-0.155
G1 X-0.349 Y3.398
G3 X-0.222 Y3.245 I0.159 J0.002
G1 X3.057 Y2.575
G3 X3.137 Y2.882 I0.032 J0.156
G1 X3.07 Y2.903 Z-4.008
X3.006 Y2.924 Z-4.031
X2.948 Y2.942 Z-4.069
X2.901 Y2.957 Z-4.12
X2.865 Y2.969 Z-4.18
X2.842 Y2.976 Z-4.247
X2.835 Y2.978 Z-4.318
Z-4.682
X2.827 Y2.981 Z-4.753
X2.805 Y2.988 Z-4.82
X2.769 Y2.999 Z-4.88
X2.721 Y3.015 Z-4.931
X2.663 Y3.033 Z-4.969
X2.599 Y3.054 Z-4.992
X2.532 Y3.075 Z-5.
X2.509 Y3.083
G2 X0.013 Y6.5 I1.091 J3.417
G1 Y23.5
G2 X2.505 Y26.916 I3.587 J0.
G3 X2.422 Y27.223 I-0.048 J0.151
G1 X-0.594 Y26.548
G3 X-0.718 Y26.391 I0.035 J-0.155
G1 X-0.422 Y3.428
G3 X-0.295 Y3.275 I0.159 J0.002
G1 X2.966 Y2.604
G3 X3.046 Y2.911 I0.032 J0.155
G1 X2.985 Y2.93 Z-5.007
X2.927 Y2.949 Z-5.026
X2.873 Y2.966 Z-5.057
X2.827 Y2.981 Z-5.099
X2.789 Y2.993 Z-5.15
X2.752 Y3.005 Z-5.201
X2.705 Y3.02 Z-5.243
X2.652 Y3.037 Z-5.274
X2.593 Y3.056 Z-5.293
X2.532 Y3.075 Z-5.3
X2.509 Y3.083
G2 X0.013 Y6.5 I1.091 J3.417
G1 Y23.5
G2 X2.505 Y26.916 I3.587 J0.
G1 X4.017 Y27.401
X4.084 Y27.422 Z-5.292
X4.148 Y27.443 Z-5.269
X4.206 Y27.461 Z-5.231
X4.254 Y27.477 Z-5.18
X4.29 Y27.488 Z-5.12
X4.312 Y27.495 Z-5.053
X4.32 Y27.498 Z-4.983
G0 Z15.

(2D CONTOUR CUT UNTIL THE FLAT 2)
G55
M9
G0 X2.682 Y28.04
Z15.
Z-0.3
G1 Z-3.3 F1500.
Z-5.983 F40.
G19 G2 Y27.722 Z-6.3 J-0.318 K0.
G1 Y27.405 F1500.
G17 G3 X3. Y27.087 I0.318 J0.
G1 X16.825
Z-5.506
X23.175
Z-6.3
X37.
G2 X40.588 Y23.5 I0. J-3.587
G1 Y6.5
G2 X37. Y2.912 I-3.588 J0.
G1 X23.175
Z-5.506
X16.825
Z-6.3
X3.
G2 X-0.587 Y6.5 I0. J3.588
G1 Y23.5
G2 X3. Y27.087 I3.587 J0.
G3 X3.318 Y27.405 I0. J0.318
G1 Y27.722
G19 G3 Y28.04 Z-5.983 J0. K0.318
G0 Z15.
G17

M9
G53 Z0.
M30
