(1001)
(T1  D=1.587 CR=0. - ZMIN=-6.3 - FLAT END MILL)
G0 G90 G94 G17
G21
G53 Z0.

(FACE1)
M5
M9
T1
S16500 M3
G55
M9
G0 X8.408 Y0.803
Z15.
Z5.
G1 Z-0.141 F1250.
G18 G3 X8.25 Z-0.3 I-0.159 K0.
G1 X7.809
X2.191
X1.384
G17 G2 Y2.174 I0. J0.686
G1 X8.616
X8.955
G3 Y3.545 I0. J0.686
G1 X1.045
X1.002
G2 Y4.917 I0. J0.686
G1 X8.998
G3 Y6.288 I0. J0.686
G1 X8.971
X1.029
G2 Y7.659 I0. J0.686
G1 X1.319
X8.681
G3 Y9.031 I0. J0.686
G1 X7.942
X2.058
G18 G3 X1.899 Z-0.141 I0. K0.159
G0 Z5.
X1.592 Y0.803
G1 Z-1.141 F1250.
G2 X1.75 Z-1.3 I0.159 K0.
G1 X2.191
X7.809
X8.616
G17 G3 Y2.174 I0. J0.686
G1 X1.384
X1.045
G2 Y3.545 I0. J0.686
G1 X8.955
X8.998
G3 Y4.917 I0. J0.686
G1 X1.002
G2 Y6.288 I0. J0.686
G1 X1.029
X8.971
G3 Y7.659 I0. J0.686
G1 X8.681
X1.319
G2 Y9.031 I0. J0.686
G1 X2.058
X7.942
G18 G2 X8.101 Z-1.141 I0. K0.159
G0 Z15.
G17

(DRILL1)
G55
M9
G0 X5. Y5.
Z15.
Z5.
Z3.7
Z0.7
G1 Z-1.697 F51.
G0 Z-1.597
G1 Z-2.094 F51.
G0 Z-1.994
G1 Z-2.491 F51.
G0 Z-2.391
G1 Z-2.887 F51.
G0 Z-2.787
G1 Z-3.284 F51.
G0 Z-3.184
G1 Z-3.681 F51.
G0 Z-3.581
G1 Z-4.078 F51.
G0 Z5.
Z-2.078
G1 Z-4.475 F51.
G0 Z-4.375
G1 Z-4.872 F51.
G0 Z-4.772
G1 Z-5.269 F51.
G0 Z-5.169
G1 Z-5.666 F51.
G0 Z-5.566
G1 Z-6.062 F51.
G0 Z-5.962
G1 Z-6.3 F51.
G0 Z5.
Z15.

(2D CONTOUR1)
G55
M9
G0 X5.159 Y-1.06
Z15.
Z5.
G1 Z2. F1250.
Z-0.841 F40.
G19 G3 Y-0.901 Z-1. J0.159 K0.
G1 Y-0.743 F1250.
G17 G3 X5. Y-0.584 I-0.159 J0.
G1 X4.744
G2 X4.622 Y-0.575 I0. J0.794
G1 X4.114 Y-0.496
G2 X3.997 Y-0.469 I0.121 J0.784
G1 X3.501 Y-0.313
G2 X3.393 Y-0.269 I0.238 J0.757
G1 X2.918 Y-0.039
G2 X2.82 Y0.018 I0.347 J0.714
G1 X2.373 Y0.32
G2 X2.288 Y0.386 I0.444 J0.658
G1 X1.878 Y0.754
G2 X1.805 Y0.827 I0.53 J0.591
G1 X1.437 Y1.255
G2 X1.378 Y1.334 I0.602 J0.518
G1 X1.058 Y1.815
G2 X1.011 Y1.896 I0.661 J0.439
G1 X0.745 Y2.422
G2 X0.709 Y2.505 I0.708 J0.358
G1 X0.501 Y3.068
G2 X0.476 Y3.152 I0.745 J0.275
G1 X0.33 Y3.741
G2 X0.314 Y3.826 I0.771 J0.191
G1 X0.232 Y4.433
G2 X0.225 Y4.518 I0.787 J0.106
G1 X0.209 Y5.133
G2 X0.211 Y5.217 I0.793 J0.021
G1 X0.26 Y5.83
G2 X0.272 Y5.914 I0.791 J-0.064
G1 X0.386 Y6.514
G2 X0.406 Y6.598 I0.78 J-0.148
G1 X0.583 Y7.176
G2 X0.614 Y7.259 I0.759 J-0.233
G1 X0.851 Y7.805
G2 X0.893 Y7.887 I0.728 J-0.316
G1 X1.186 Y8.392
G2 X1.24 Y8.472 I0.686 J-0.399
G1 X1.584 Y8.927
G2 X1.65 Y9.003 I0.633 J-0.479
G1 X2.04 Y9.402
G2 X2.119 Y9.472 I0.567 J-0.555
G1 X2.549 Y9.808
G2 X2.64 Y9.87 I0.489 J-0.626
G1 X3.102 Y10.136
G2 X3.205 Y10.187 I0.397 J-0.687
G1 X3.692 Y10.38
G2 X3.805 Y10.416 I0.294 J-0.737
G1 X4.308 Y10.534
G2 X4.428 Y10.552 I0.181 J-0.773
G1 X4.939 Y10.591
G2 X5.061 I0.061 J-0.791
G1 X5.572 Y10.552
G2 X5.692 Y10.534 I-0.061 J-0.791
G1 X6.195 Y10.416
G2 X6.308 Y10.38 I-0.181 J-0.773
G1 X6.795 Y10.187
G2 X6.898 Y10.136 I-0.294 J-0.737
G1 X7.36 Y9.87
G2 X7.451 Y9.808 I-0.397 J-0.687
G1 X7.881 Y9.472
G2 X7.96 Y9.402 I-0.489 J-0.626
G1 X8.35 Y9.003
G2 X8.416 Y8.927 I-0.567 J-0.555
G1 X8.76 Y8.472
G2 X8.814 Y8.392 I-0.633 J-0.479
G1 X9.107 Y7.887
G2 X9.149 Y7.805 I-0.686 J-0.399
G1 X9.386 Y7.259
G2 X9.417 Y7.176 I-0.728 J-0.316
G1 X9.594 Y6.598
G2 X9.614 Y6.514 I-0.759 J-0.233
G1 X9.728 Y5.914
G2 X9.74 Y5.83 I-0.78 J-0.148
G1 X9.789 Y5.217
G2 X9.791 Y5.133 I-0.791 J-0.064
G1 X9.775 Y4.518
G2 X9.768 Y4.433 I-0.793 J0.021
G1 X9.686 Y3.826
G2 X9.67 Y3.741 I-0.787 J0.106
G1 X9.524 Y3.152
G2 X9.499 Y3.068 I-0.771 J0.191
G1 X9.291 Y2.505
G2 X9.255 Y2.422 I-0.745 J0.275
G1 X8.989 Y1.896
G2 X8.942 Y1.815 I-0.708 J0.358
G1 X8.622 Y1.334
G2 X8.563 Y1.255 I-0.661 J0.439
G1 X8.195 Y0.827
G2 X8.122 Y0.754 I-0.602 J0.518
G1 X7.712 Y0.386
G2 X7.627 Y0.32 I-0.53 J0.591
G1 X7.18 Y0.018
G2 X7.082 Y-0.039 I-0.444 J0.658
G1 X6.607 Y-0.269
G2 X6.499 Y-0.313 I-0.347 J0.714
G1 X6.003 Y-0.469
G2 X5.886 Y-0.496 I-0.238 J0.757
G1 X5.378 Y-0.575
G2 X5.256 Y-0.584 I-0.121 J0.784
G1 X5.
G3 X4.841 Y-0.743 I0. J-0.159
G1 Y-0.901
G19 G2 Y-1.06 Z-0.841 J0. K0.159
G1 X5.159
Z-1.841 F40.
G3 Y-0.901 Z-2. J0.159 K0.
G1 Y-0.743 F1250.
G17 G3 X5. Y-0.584 I-0.159 J0.
G1 X4.744
G2 X4.622 Y-0.575 I0. J0.794
G1 X4.114 Y-0.496
G2 X3.997 Y-0.469 I0.121 J0.784
G1 X3.501 Y-0.313
G2 X3.393 Y-0.269 I0.238 J0.757
G1 X2.918 Y-0.039
G2 X2.82 Y0.018 I0.347 J0.714
G1 X2.373 Y0.32
G2 X2.288 Y0.386 I0.444 J0.658
G1 X1.878 Y0.754
G2 X1.805 Y0.827 I0.53 J0.591
G1 X1.437 Y1.255
G2 X1.378 Y1.334 I0.602 J0.518
G1 X1.058 Y1.815
G2 X1.011 Y1.896 I0.661 J0.439
G1 X0.745 Y2.422
G2 X0.709 Y2.505 I0.708 J0.358
G1 X0.501 Y3.068
G2 X0.476 Y3.152 I0.745 J0.275
G1 X0.33 Y3.741
G2 X0.314 Y3.826 I0.771 J0.191
G1 X0.232 Y4.433
G2 X0.225 Y4.518 I0.787 J0.106
G1 X0.209 Y5.133
G2 X0.211 Y5.217 I0.793 J0.021
G1 X0.26 Y5.83
G2 X0.272 Y5.914 I0.791 J-0.064
G1 X0.386 Y6.514
G2 X0.406 Y6.598 I0.78 J-0.148
G1 X0.583 Y7.176
G2 X0.614 Y7.259 I0.759 J-0.233
G1 X0.851 Y7.805
G2 X0.893 Y7.887 I0.728 J-0.316
G1 X1.186 Y8.392
G2 X1.24 Y8.472 I0.686 J-0.399
G1 X1.584 Y8.927
G2 X1.65 Y9.003 I0.633 J-0.479
G1 X2.04 Y9.402
G2 X2.119 Y9.472 I0.567 J-0.555
G1 X2.549 Y9.808
G2 X2.64 Y9.87 I0.489 J-0.626
G1 X3.102 Y10.136
G2 X3.205 Y10.187 I0.397 J-0.687
G1 X3.692 Y10.38
G2 X3.805 Y10.416 I0.294 J-0.737
G1 X4.308 Y10.534
G2 X4.428 Y10.552 I0.181 J-0.773
G1 X4.939 Y10.591
G2 X5.061 I0.061 J-0.791
G1 X5.572 Y10.552
G2 X5.692 Y10.534 I-0.061 J-0.791
G1 X6.195 Y10.416
G2 X6.308 Y10.38 I-0.181 J-0.773
G1 X6.795 Y10.187
G2 X6.898 Y10.136 I-0.294 J-0.737
G1 X7.36 Y9.87
G2 X7.451 Y9.808 I-0.397 J-0.687
G1 X7.881 Y9.472
G2 X7.96 Y9.402 I-0.489 J-0.626
G1 X8.35 Y9.003
G2 X8.416 Y8.927 I-0.567 J-0.555
G1 X8.76 Y8.472
G2 X8.814 Y8.392 I-0.633 J-0.479
G1 X9.107 Y7.887
G2 X9.149 Y7.805 I-0.686 J-0.399
G1 X9.386 Y7.259
G2 X9.417 Y7.176 I-0.728 J-0.316
G1 X9.594 Y6.598
G2 X9.614 Y6.514 I-0.759 J-0.233
G1 X9.728 Y5.914
G2 X9.74 Y5.83 I-0.78 J-0.148
G1 X9.789 Y5.217
G2 X9.791 Y5.133 I-0.791 J-0.064
G1 X9.775 Y4.518
G2 X9.768 Y4.433 I-0.793 J0.021
G1 X9.686 Y3.826
G2 X9.67 Y3.741 I-0.787 J0.106
G1 X9.524 Y3.152
G2 X9.499 Y3.068 I-0.771 J0.191
G1 X9.291 Y2.505
G2 X9.255 Y2.422 I-0.745 J0.275
G1 X8.989 Y1.896
G2 X8.942 Y1.815 I-0.708 J0.358
G1 X8.622 Y1.334
G2 X8.563 Y1.255 I-0.661 J0.439
G1 X8.195 Y0.827
G2 X8.122 Y0.754 I-0.602 J0.518
G1 X7.712 Y0.386
G2 X7.627 Y0.32 I-0.53 J0.591
G1 X7.18 Y0.018
G2 X7.082 Y-0.039 I-0.444 J0.658
G1 X6.607 Y-0.269
G2 X6.499 Y-0.313 I-0.347 J0.714
G1 X6.003 Y-0.469
G2 X5.886 Y-0.496 I-0.238 J0.757
G1 X5.378 Y-0.575
G2 X5.256 Y-0.584 I-0.121 J0.784
G1 X5.
G3 X4.841 Y-0.743 I0. J-0.159
G1 Y-0.901
G19 G2 Y-1.06 Z-1.841 J0. K0.159
G1 X5.159
Z-2.841 F40.
G3 Y-0.901 Z-3. J0.159 K0.
G1 Y-0.743 F1250.
G17 G3 X5. Y-0.584 I-0.159 J0.
G1 X4.744
G2 X4.622 Y-0.575 I0. J0.794
G1 X4.114 Y-0.496
G2 X3.997 Y-0.469 I0.121 J0.784
G1 X3.501 Y-0.313
G2 X3.393 Y-0.269 I0.238 J0.757
G1 X2.918 Y-0.039
G2 X2.82 Y0.018 I0.347 J0.714
G1 X2.373 Y0.32
G2 X2.288 Y0.386 I0.444 J0.658
G1 X1.878 Y0.754
G2 X1.805 Y0.827 I0.53 J0.591
G1 X1.437 Y1.255
G2 X1.378 Y1.334 I0.602 J0.518
G1 X1.058 Y1.815
G2 X1.011 Y1.896 I0.661 J0.439
G1 X0.745 Y2.422
G2 X0.709 Y2.505 I0.708 J0.358
G1 X0.501 Y3.068
G2 X0.476 Y3.152 I0.745 J0.275
G1 X0.33 Y3.741
G2 X0.314 Y3.826 I0.771 J0.191
G1 X0.232 Y4.433
G2 X0.225 Y4.518 I0.787 J0.106
G1 X0.209 Y5.133
G2 X0.211 Y5.217 I0.793 J0.021
G1 X0.26 Y5.83
G2 X0.272 Y5.914 I0.791 J-0.064
G1 X0.386 Y6.514
G2 X0.406 Y6.598 I0.78 J-0.148
G1 X0.583 Y7.176
G2 X0.614 Y7.259 I0.759 J-0.233
G1 X0.851 Y7.805
G2 X0.893 Y7.887 I0.728 J-0.316
G1 X1.186 Y8.392
G2 X1.24 Y8.472 I0.686 J-0.399
G1 X1.584 Y8.927
G2 X1.65 Y9.003 I0.633 J-0.479
G1 X2.04 Y9.402
G2 X2.119 Y9.472 I0.567 J-0.555
G1 X2.549 Y9.808
G2 X2.64 Y9.87 I0.489 J-0.626
G1 X3.102 Y10.136
G2 X3.205 Y10.187 I0.397 J-0.687
G1 X3.692 Y10.38
G2 X3.805 Y10.416 I0.294 J-0.737
G1 X4.308 Y10.534
G2 X4.428 Y10.552 I0.181 J-0.773
G1 X4.939 Y10.591
G2 X5.061 I0.061 J-0.791
G1 X5.572 Y10.552
G2 X5.692 Y10.534 I-0.061 J-0.791
G1 X6.195 Y10.416
G2 X6.308 Y10.38 I-0.181 J-0.773
G1 X6.795 Y10.187
G2 X6.898 Y10.136 I-0.294 J-0.737
G1 X7.36 Y9.87
G2 X7.451 Y9.808 I-0.397 J-0.687
G1 X7.881 Y9.472
G2 X7.96 Y9.402 I-0.489 J-0.626
G1 X8.35 Y9.003
G2 X8.416 Y8.927 I-0.567 J-0.555
G1 X8.76 Y8.472
G2 X8.814 Y8.392 I-0.633 J-0.479
G1 X9.107 Y7.887
G2 X9.149 Y7.805 I-0.686 J-0.399
G1 X9.386 Y7.259
G2 X9.417 Y7.176 I-0.728 J-0.316
G1 X9.594 Y6.598
G2 X9.614 Y6.514 I-0.759 J-0.233
G1 X9.728 Y5.914
G2 X9.74 Y5.83 I-0.78 J-0.148
G1 X9.789 Y5.217
G2 X9.791 Y5.133 I-0.791 J-0.064
G1 X9.775 Y4.518
G2 X9.768 Y4.433 I-0.793 J0.021
G1 X9.686 Y3.826
G2 X9.67 Y3.741 I-0.787 J0.106
G1 X9.524 Y3.152
G2 X9.499 Y3.068 I-0.771 J0.191
G1 X9.291 Y2.505
G2 X9.255 Y2.422 I-0.745 J0.275
G1 X8.989 Y1.896
G2 X8.942 Y1.815 I-0.708 J0.358
G1 X8.622 Y1.334
G2 X8.563 Y1.255 I-0.661 J0.439
G1 X8.195 Y0.827
G2 X8.122 Y0.754 I-0.602 J0.518
G1 X7.712 Y0.386
G2 X7.627 Y0.32 I-0.53 J0.591
G1 X7.18 Y0.018
G2 X7.082 Y-0.039 I-0.444 J0.658
G1 X6.607 Y-0.269
G2 X6.499 Y-0.313 I-0.347 J0.714
G1 X6.003 Y-0.469
G2 X5.886 Y-0.496 I-0.238 J0.757
G1 X5.378 Y-0.575
G2 X5.256 Y-0.584 I-0.121 J0.784
G1 X5.
G3 X4.841 Y-0.743 I0. J-0.159
G1 Y-0.901
G19 G2 Y-1.06 Z-2.841 J0. K0.159
G1 X5.159
Z-3.841 F40.
G3 Y-0.901 Z-4. J0.159 K0.
G1 Y-0.743 F1250.
G17 G3 X5. Y-0.584 I-0.159 J0.
G1 X4.744
G2 X4.622 Y-0.575 I0. J0.794
G1 X4.114 Y-0.496
G2 X3.997 Y-0.469 I0.121 J0.784
G1 X3.501 Y-0.313
G2 X3.393 Y-0.269 I0.238 J0.757
G1 X2.918 Y-0.039
G2 X2.82 Y0.018 I0.347 J0.714
G1 X2.373 Y0.32
G2 X2.288 Y0.386 I0.444 J0.658
G1 X1.878 Y0.754
G2 X1.805 Y0.827 I0.53 J0.591
G1 X1.437 Y1.255
G2 X1.378 Y1.334 I0.602 J0.518
G1 X1.058 Y1.815
G2 X1.011 Y1.896 I0.661 J0.439
G1 X0.745 Y2.422
G2 X0.709 Y2.505 I0.708 J0.358
G1 X0.501 Y3.068
G2 X0.476 Y3.152 I0.745 J0.275
G1 X0.33 Y3.741
G2 X0.314 Y3.826 I0.771 J0.191
G1 X0.232 Y4.433
G2 X0.225 Y4.518 I0.787 J0.106
G1 X0.209 Y5.133
G2 X0.211 Y5.217 I0.793 J0.021
G1 X0.26 Y5.83
G2 X0.272 Y5.914 I0.791 J-0.064
G1 X0.386 Y6.514
G2 X0.406 Y6.598 I0.78 J-0.148
G1 X0.583 Y7.176
G2 X0.614 Y7.259 I0.759 J-0.233
G1 X0.851 Y7.805
G2 X0.893 Y7.887 I0.728 J-0.316
G1 X1.186 Y8.392
G2 X1.24 Y8.472 I0.686 J-0.399
G1 X1.584 Y8.927
G2 X1.65 Y9.003 I0.633 J-0.479
G1 X2.04 Y9.402
G2 X2.119 Y9.472 I0.567 J-0.555
G1 X2.549 Y9.808
G2 X2.64 Y9.87 I0.489 J-0.626
G1 X3.102 Y10.136
G2 X3.205 Y10.187 I0.397 J-0.687
G1 X3.692 Y10.38
G2 X3.805 Y10.416 I0.294 J-0.737
G1 X4.308 Y10.534
G2 X4.428 Y10.552 I0.181 J-0.773
G1 X4.939 Y10.591
G2 X5.061 I0.061 J-0.791
G1 X5.572 Y10.552
G2 X5.692 Y10.534 I-0.061 J-0.791
G1 X6.195 Y10.416
G2 X6.308 Y10.38 I-0.181 J-0.773
G1 X6.795 Y10.187
G2 X6.898 Y10.136 I-0.294 J-0.737
G1 X7.36 Y9.87
G2 X7.451 Y9.808 I-0.397 J-0.687
G1 X7.881 Y9.472
G2 X7.96 Y9.402 I-0.489 J-0.626
G1 X8.35 Y9.003
G2 X8.416 Y8.927 I-0.567 J-0.555
G1 X8.76 Y8.472
G2 X8.814 Y8.392 I-0.633 J-0.479
G1 X9.107 Y7.887
G2 X9.149 Y7.805 I-0.686 J-0.399
G1 X9.386 Y7.259
G2 X9.417 Y7.176 I-0.728 J-0.316
G1 X9.594 Y6.598
G2 X9.614 Y6.514 I-0.759 J-0.233
G1 X9.728 Y5.914
G2 X9.74 Y5.83 I-0.78 J-0.148
G1 X9.789 Y5.217
G2 X9.791 Y5.133 I-0.791 J-0.064
G1 X9.775 Y4.518
G2 X9.768 Y4.433 I-0.793 J0.021
G1 X9.686 Y3.826
G2 X9.67 Y3.741 I-0.787 J0.106
G1 X9.524 Y3.152
G2 X9.499 Y3.068 I-0.771 J0.191
G1 X9.291 Y2.505
G2 X9.255 Y2.422 I-0.745 J0.275
G1 X8.989 Y1.896
G2 X8.942 Y1.815 I-0.708 J0.358
G1 X8.622 Y1.334
G2 X8.563 Y1.255 I-0.661 J0.439
G1 X8.195 Y0.827
G2 X8.122 Y0.754 I-0.602 J0.518
G1 X7.712 Y0.386
G2 X7.627 Y0.32 I-0.53 J0.591
G1 X7.18 Y0.018
G2 X7.082 Y-0.039 I-0.444 J0.658
G1 X6.607 Y-0.269
G2 X6.499 Y-0.313 I-0.347 J0.714
G1 X6.003 Y-0.469
G2 X5.886 Y-0.496 I-0.238 J0.757
G1 X5.378 Y-0.575
G2 X5.256 Y-0.584 I-0.121 J0.784
G1 X5.
G3 X4.841 Y-0.743 I0. J-0.159
G1 Y-0.901
G19 G2 Y-1.06 Z-3.841 J0. K0.159
G1 X5.159
Z-4.841 F40.
G3 Y-0.901 Z-5. J0.159 K0.
G1 Y-0.743 F1250.
G17 G3 X5. Y-0.584 I-0.159 J0.
G1 X4.744
G2 X4.622 Y-0.575 I0. J0.794
G1 X4.114 Y-0.496
G2 X3.997 Y-0.469 I0.121 J0.784
G1 X3.501 Y-0.313
G2 X3.393 Y-0.269 I0.238 J0.757
G1 X2.918 Y-0.039
G2 X2.82 Y0.018 I0.347 J0.714
G1 X2.373 Y0.32
G2 X2.288 Y0.386 I0.444 J0.658
G1 X1.878 Y0.754
G2 X1.805 Y0.827 I0.53 J0.591
G1 X1.437 Y1.255
G2 X1.378 Y1.334 I0.602 J0.518
G1 X1.058 Y1.815
G2 X1.011 Y1.896 I0.661 J0.439
G1 X0.745 Y2.422
G2 X0.709 Y2.505 I0.708 J0.358
G1 X0.501 Y3.068
G2 X0.476 Y3.152 I0.745 J0.275
G1 X0.33 Y3.741
G2 X0.314 Y3.826 I0.771 J0.191
G1 X0.232 Y4.433
G2 X0.225 Y4.518 I0.787 J0.106
G1 X0.209 Y5.133
G2 X0.211 Y5.217 I0.793 J0.021
G1 X0.26 Y5.83
G2 X0.272 Y5.914 I0.791 J-0.064
G1 X0.386 Y6.514
G2 X0.406 Y6.598 I0.78 J-0.148
G1 X0.583 Y7.176
G2 X0.614 Y7.259 I0.759 J-0.233
G1 X0.851 Y7.805
G2 X0.893 Y7.887 I0.728 J-0.316
G1 X1.186 Y8.392
G2 X1.24 Y8.472 I0.686 J-0.399
G1 X1.584 Y8.927
G2 X1.65 Y9.003 I0.633 J-0.479
G1 X2.04 Y9.402
G2 X2.119 Y9.472 I0.567 J-0.555
G1 X2.549 Y9.808
G2 X2.64 Y9.87 I0.489 J-0.626
G1 X3.102 Y10.136
G2 X3.205 Y10.187 I0.397 J-0.687
G1 X3.692 Y10.38
G2 X3.805 Y10.416 I0.294 J-0.737
G1 X4.308 Y10.534
G2 X4.428 Y10.552 I0.181 J-0.773
G1 X4.939 Y10.591
G2 X5.061 I0.061 J-0.791
G1 X5.572 Y10.552
G2 X5.692 Y10.534 I-0.061 J-0.791
G1 X6.195 Y10.416
G2 X6.308 Y10.38 I-0.181 J-0.773
G1 X6.795 Y10.187
G2 X6.898 Y10.136 I-0.294 J-0.737
G1 X7.36 Y9.87
G2 X7.451 Y9.808 I-0.397 J-0.687
G1 X7.881 Y9.472
G2 X7.96 Y9.402 I-0.489 J-0.626
G1 X8.35 Y9.003
G2 X8.416 Y8.927 I-0.567 J-0.555
G1 X8.76 Y8.472
G2 X8.814 Y8.392 I-0.633 J-0.479
G1 X9.107 Y7.887
G2 X9.149 Y7.805 I-0.686 J-0.399
G1 X9.386 Y7.259
G2 X9.417 Y7.176 I-0.728 J-0.316
G1 X9.594 Y6.598
G2 X9.614 Y6.514 I-0.759 J-0.233
G1 X9.728 Y5.914
G2 X9.74 Y5.83 I-0.78 J-0.148
G1 X9.789 Y5.217
G2 X9.791 Y5.133 I-0.791 J-0.064
G1 X9.775 Y4.518
G2 X9.768 Y4.433 I-0.793 J0.021
G1 X9.686 Y3.826
G2 X9.67 Y3.741 I-0.787 J0.106
G1 X9.524 Y3.152
G2 X9.499 Y3.068 I-0.771 J0.191
G1 X9.291 Y2.505
G2 X9.255 Y2.422 I-0.745 J0.275
G1 X8.989 Y1.896
G2 X8.942 Y1.815 I-0.708 J0.358
G1 X8.622 Y1.334
G2 X8.563 Y1.255 I-0.661 J0.439
G1 X8.195 Y0.827
G2 X8.122 Y0.754 I-0.602 J0.518
G1 X7.712 Y0.386
G2 X7.627 Y0.32 I-0.53 J0.591
G1 X7.18 Y0.018
G2 X7.082 Y-0.039 I-0.444 J0.658
G1 X6.607 Y-0.269
G2 X6.499 Y-0.313 I-0.347 J0.714
G1 X6.003 Y-0.469
G2 X5.886 Y-0.496 I-0.238 J0.757
G1 X5.378 Y-0.575
G2 X5.256 Y-0.584 I-0.121 J0.784
G1 X5.
G3 X4.841 Y-0.743 I0. J-0.159
G1 Y-0.901
G19 G2 Y-1.06 Z-4.841 J0. K0.159
G1 X5.159
Z-5.841 F40.
G3 Y-0.901 Z-6. J0.159 K0.
G1 Y-0.743 F1250.
G17 G3 X5. Y-0.584 I-0.159 J0.
G1 X4.744
G2 X4.622 Y-0.575 I0. J0.794
G1 X4.114 Y-0.496
G2 X3.997 Y-0.469 I0.121 J0.784
G1 X3.501 Y-0.313
G2 X3.393 Y-0.269 I0.238 J0.757
G1 X2.918 Y-0.039
G2 X2.82 Y0.018 I0.347 J0.714
G1 X2.373 Y0.32
G2 X2.288 Y0.386 I0.444 J0.658
G1 X1.878 Y0.754
G2 X1.805 Y0.827 I0.53 J0.591
G1 X1.437 Y1.255
G2 X1.378 Y1.334 I0.602 J0.518
G1 X1.058 Y1.815
G2 X1.011 Y1.896 I0.661 J0.439
G1 X0.745 Y2.422
G2 X0.709 Y2.505 I0.708 J0.358
G1 X0.501 Y3.068
G2 X0.476 Y3.152 I0.745 J0.275
G1 X0.33 Y3.741
G2 X0.314 Y3.826 I0.771 J0.191
G1 X0.232 Y4.433
G2 X0.225 Y4.518 I0.787 J0.106
G1 X0.209 Y5.133
G2 X0.211 Y5.217 I0.793 J0.021
G1 X0.26 Y5.83
G2 X0.272 Y5.914 I0.791 J-0.064
G1 X0.386 Y6.514
G2 X0.406 Y6.598 I0.78 J-0.148
G1 X0.583 Y7.176
G2 X0.614 Y7.259 I0.759 J-0.233
G1 X0.851 Y7.805
G2 X0.893 Y7.887 I0.728 J-0.316
G1 X1.186 Y8.392
G2 X1.24 Y8.472 I0.686 J-0.399
G1 X1.584 Y8.927
G2 X1.65 Y9.003 I0.633 J-0.479
G1 X2.04 Y9.402
G2 X2.119 Y9.472 I0.567 J-0.555
G1 X2.549 Y9.808
G2 X2.64 Y9.87 I0.489 J-0.626
G1 X3.102 Y10.136
G2 X3.205 Y10.187 I0.397 J-0.687
G1 X3.692 Y10.38
G2 X3.805 Y10.416 I0.294 J-0.737
G1 X4.308 Y10.534
G2 X4.428 Y10.552 I0.181 J-0.773
G1 X4.939 Y10.591
G2 X5.061 I0.061 J-0.791
G1 X5.572 Y10.552
G2 X5.692 Y10.534 I-0.061 J-0.791
G1 X6.195 Y10.416
G2 X6.308 Y10.38 I-0.181 J-0.773
G1 X6.795 Y10.187
G2 X6.898 Y10.136 I-0.294 J-0.737
G1 X7.36 Y9.87
G2 X7.451 Y9.808 I-0.397 J-0.687
G1 X7.881 Y9.472
G2 X7.96 Y9.402 I-0.489 J-0.626
G1 X8.35 Y9.003
G2 X8.416 Y8.927 I-0.567 J-0.555
G1 X8.76 Y8.472
G2 X8.814 Y8.392 I-0.633 J-0.479
G1 X9.107 Y7.887
G2 X9.149 Y7.805 I-0.686 J-0.399
G1 X9.386 Y7.259
G2 X9.417 Y7.176 I-0.728 J-0.316
G1 X9.594 Y6.598
G2 X9.614 Y6.514 I-0.759 J-0.233
G1 X9.728 Y5.914
G2 X9.74 Y5.83 I-0.78 J-0.148
G1 X9.789 Y5.217
G2 X9.791 Y5.133 I-0.791 J-0.064
G1 X9.775 Y4.518
G2 X9.768 Y4.433 I-0.793 J0.021
G1 X9.686 Y3.826
G2 X9.67 Y3.741 I-0.787 J0.106
G1 X9.524 Y3.152
G2 X9.499 Y3.068 I-0.771 J0.191
G1 X9.291 Y2.505
G2 X9.255 Y2.422 I-0.745 J0.275
G1 X8.989 Y1.896
G2 X8.942 Y1.815 I-0.708 J0.358
G1 X8.622 Y1.334
G2 X8.563 Y1.255 I-0.661 J0.439
G1 X8.195 Y0.827
G2 X8.122 Y0.754 I-0.602 J0.518
G1 X7.712 Y0.386
G2 X7.627 Y0.32 I-0.53 J0.591
G1 X7.18 Y0.018
G2 X7.082 Y-0.039 I-0.444 J0.658
G1 X6.607 Y-0.269
G2 X6.499 Y-0.313 I-0.347 J0.714
G1 X6.003 Y-0.469
G2 X5.886 Y-0.496 I-0.238 J0.757
G1 X5.378 Y-0.575
G2 X5.256 Y-0.584 I-0.121 J0.784
G1 X5.
G3 X4.841 Y-0.743 I0. J-0.159
G1 Y-0.901
G19 G2 Y-1.06 Z-5.841 J0. K0.159
G1 X5.159
Z-6.141 F40.
G3 Y-0.901 Z-6.3 J0.159 K0.
G1 Y-0.743 F1250.
G17 G3 X5. Y-0.584 I-0.159 J0.
G1 X4.744
G2 X4.622 Y-0.575 I0. J0.794
G1 X4.114 Y-0.496
G2 X3.997 Y-0.469 I0.121 J0.784
G1 X3.501 Y-0.313
G2 X3.393 Y-0.269 I0.238 J0.757
G1 X2.918 Y-0.039
G2 X2.82 Y0.018 I0.347 J0.714
G1 X2.373 Y0.32
G2 X2.288 Y0.386 I0.444 J0.658
G1 X1.878 Y0.754
G2 X1.805 Y0.827 I0.53 J0.591
G1 X1.437 Y1.255
G2 X1.378 Y1.334 I0.602 J0.518
G1 X1.058 Y1.815
G2 X1.011 Y1.896 I0.661 J0.439
G1 X0.745 Y2.422
G2 X0.709 Y2.505 I0.708 J0.358
G1 X0.501 Y3.068
G2 X0.476 Y3.152 I0.745 J0.275
G1 X0.33 Y3.741
G2 X0.314 Y3.826 I0.771 J0.191
G1 X0.232 Y4.433
G2 X0.225 Y4.518 I0.787 J0.106
G1 X0.209 Y5.133
G2 X0.211 Y5.217 I0.793 J0.021
G1 X0.26 Y5.83
G2 X0.272 Y5.914 I0.791 J-0.064
G1 X0.386 Y6.514
G2 X0.406 Y6.598 I0.78 J-0.148
G1 X0.583 Y7.176
G2 X0.614 Y7.259 I0.759 J-0.233
G1 X0.851 Y7.805
G2 X0.893 Y7.887 I0.728 J-0.316
G1 X1.186 Y8.392
G2 X1.24 Y8.472 I0.686 J-0.399
G1 X1.584 Y8.927
G2 X1.65 Y9.003 I0.633 J-0.479
G1 X2.04 Y9.402
G2 X2.119 Y9.472 I0.567 J-0.555
G1 X2.549 Y9.808
G2 X2.64 Y9.87 I0.489 J-0.626
G1 X3.102 Y10.136
G2 X3.205 Y10.187 I0.397 J-0.687
G1 X3.692 Y10.38
G2 X3.805 Y10.416 I0.294 J-0.737
G1 X4.308 Y10.534
G2 X4.428 Y10.552 I0.181 J-0.773
G1 X4.939 Y10.591
G2 X5.061 I0.061 J-0.791
G1 X5.572 Y10.552
G2 X5.692 Y10.534 I-0.061 J-0.791
G1 X6.195 Y10.416
G2 X6.308 Y10.38 I-0.181 J-0.773
G1 X6.795 Y10.187
G2 X6.898 Y10.136 I-0.294 J-0.737
G1 X7.36 Y9.87
G2 X7.451 Y9.808 I-0.397 J-0.687
G1 X7.881 Y9.472
G2 X7.96 Y9.402 I-0.489 J-0.626
G1 X8.35 Y9.003
G2 X8.416 Y8.927 I-0.567 J-0.555
G1 X8.76 Y8.472
G2 X8.814 Y8.392 I-0.633 J-0.479
G1 X9.107 Y7.887
G2 X9.149 Y7.805 I-0.686 J-0.399
G1 X9.386 Y7.259
G2 X9.417 Y7.176 I-0.728 J-0.316
G1 X9.594 Y6.598
G2 X9.614 Y6.514 I-0.759 J-0.233
G1 X9.728 Y5.914
G2 X9.74 Y5.83 I-0.78 J-0.148
G1 X9.789 Y5.217
G2 X9.791 Y5.133 I-0.791 J-0.064
G1 X9.775 Y4.518
G2 X9.768 Y4.433 I-0.793 J0.021
G1 X9.686 Y3.826
G2 X9.67 Y3.741 I-0.787 J0.106
G1 X9.524 Y3.152
G2 X9.499 Y3.068 I-0.771 J0.191
G1 X9.291 Y2.505
G2 X9.255 Y2.422 I-0.745 J0.275
G1 X8.989 Y1.896
G2 X8.942 Y1.815 I-0.708 J0.358
G1 X8.622 Y1.334
G2 X8.563 Y1.255 I-0.661 J0.439
G1 X8.195 Y0.827
G2 X8.122 Y0.754 I-0.602 J0.518
G1 X7.712 Y0.386
G2 X7.627 Y0.32 I-0.53 J0.591
G1 X7.18 Y0.018
G2 X7.082 Y-0.039 I-0.444 J0.658
G1 X6.607 Y-0.269
G2 X6.499 Y-0.313 I-0.347 J0.714
G1 X6.003 Y-0.469
G2 X5.886 Y-0.496 I-0.238 J0.757
G1 X5.378 Y-0.575
G2 X5.256 Y-0.584 I-0.121 J0.784
G1 X5.
G3 X4.841 Y-0.743 I0. J-0.159
G1 Y-0.901
G19 G2 Y-1.06 Z-6.141 J0. K0.159
G0 Z15.
G17

M9
G53 Z0.
M30
