(1001)
(T1  D=1.587 CR=0. - ZMIN=-6.3 - FLAT END MILL)
G0 G90 G94 G17
G21
G53 Z0.

(FACE7)
M5
M9
T1
S16500 M3
G55
M9
G0 X31.032 Y0.419
Z15.
Z5.
G1 Z-0.141 F1270.
G18 G3 X30.873 Z-0.3 I-0.159 K0.
G1 X30.
X0.
G17 G2 Y1.62 I0. J0.6
G1 X30.
G3 Y2.821 I0. J0.6
G1 X0.
G2 Y4.021 I0. J0.6
G1 X30.
G3 Y5.222 I0. J0.6
G1 X0.
G2 Y6.422 I0. J0.6
G1 X30.
G3 Y7.623 I0. J0.6
G1 X0.
G2 Y8.823 I0. J0.6
G1 X30.
G3 Y10.024 I0. J0.6
G1 X0.
G2 Y11.225 I0. J0.6
G1 X30.
G3 Y12.425 I0. J0.6
G1 X0.
G2 Y13.626 I0. J0.6
G1 X30.
G3 Y14.826 I0. J0.6
G1 X0.
G2 Y16.027 I0. J0.6
G1 X30.
G3 Y17.228 I0. J0.6
G1 X0.
G2 Y18.428 I0. J0.6
G1 X30.
G3 Y19.629 I0. J0.6
G1 X0.
G2 Y20.829 I0. J0.6
G1 X30.
G3 Y22.03 I0. J0.6
G1 X0.
G2 Y23.23 I0. J0.6
G1 X30.
G3 Y24.431 I0. J0.6
G1 X0.
G2 Y25.632 I0. J0.6
G1 X30.
G3 Y26.832 I0. J0.6
G1 X0.
G2 Y28.033 I0. J0.6
G1 X30.
G3 Y29.233 I0. J0.6
G1 X0.
G18 G3 X-0.159 Z-0.141 I0. K0.159
G0 Z15.
G17

(2D POCKET8)
G55
M9
G0 X14.737 Y17.773
Z15.
Z5.
G1 Z-0.841 F40.
X14.745 Z-0.89 F1270.
X14.767 Z-0.935
X14.802 Z-0.97
X14.846 Y17.774 Z-0.992
X14.895 Z-1.
X16.755 Y17.786
G2 X18.938 Y17.794 I2.183 J-324.652
G1 X19.625 Y17.789
G3 X19.827 Y17.993 I0.001 J0.2
G1 X19.823 Y18.174
G3 X19.623 Y18.37 I-0.2 J-0.004
G1 X16.754
G3 X16.554 Y18.17 I0. J-0.2
G1 X16.552 Y17.304
G3 X16.752 Y17.103 I0.2 J0.
G1 X19.625
G3 X19.825 Y17.303 I0. J0.2
G1 X19.824 Y18.816
G3 X19.624 Y19.016 I-0.2 J0.
G1 X16.751
G3 X16.565 Y18.889 I0. J-0.2
G1 X16.238 Y18.058
G3 X16.425 Y17.784 I0.186 J-0.073
G1 X16.474 Y17.785 Z-1.008
X16.518 Z-1.03
X16.554 Z-1.065
X16.576 Z-1.11
X16.584 Z-1.159
Z-1.841
X16.592 Z-1.89
X16.614 Y17.786 Z-1.935
X16.649 Z-1.97
X16.694 Z-1.992
X16.743 Z-2.
X16.755
G2 X18.938 Y17.794 I2.183 J-324.652
G1 X19.625 Y17.789
G3 X19.827 Y17.993 I0.001 J0.2
G1 X19.823 Y18.174
G3 X19.623 Y18.37 I-0.2 J-0.004
G1 X16.754
G3 X16.554 Y18.17 I0. J-0.2
G1 X16.552 Y17.304
G3 X16.752 Y17.103 I0.2 J0.
G1 X19.625
G3 X19.825 Y17.303 I0. J0.2
G1 X19.824 Y18.816
G3 X19.624 Y19.016 I-0.2 J0.
G1 X16.751
G3 X16.565 Y18.889 I0. J-0.2
G1 X16.238 Y18.058
G3 X16.425 Y17.784 I0.186 J-0.073
G1 X16.474 Y17.785 Z-2.008
X16.518 Z-2.03
X16.554 Z-2.065
X16.576 Z-2.11
X16.584 Z-2.159
Z-2.841
X16.592 Z-2.89
X16.614 Y17.786 Z-2.935
X16.649 Z-2.97
X16.694 Z-2.992
X16.743 Z-3.
X16.755
G2 X18.938 Y17.794 I2.183 J-324.652
G1 X19.625 Y17.789
G3 X19.827 Y17.993 I0.001 J0.2
G1 X19.823 Y18.174
G3 X19.623 Y18.37 I-0.2 J-0.004
G1 X16.754
G3 X16.554 Y18.17 I0. J-0.2
G1 X16.552 Y17.304
G3 X16.752 Y17.103 I0.2 J0.
G1 X19.625
G3 X19.825 Y17.303 I0. J0.2
G1 X19.824 Y18.816
G3 X19.624 Y19.016 I-0.2 J0.
G1 X16.751
G3 X16.565 Y18.889 I0. J-0.2
G1 X16.238 Y18.058
G3 X16.425 Y17.784 I0.186 J-0.073
G1 X16.474 Y17.785 Z-3.008
X16.518 Z-3.03
X16.554 Z-3.065
X16.576 Z-3.11
X16.584 Z-3.159
Z-3.841
X16.592 Z-3.89
X16.614 Y17.786 Z-3.935
X16.649 Z-3.97
X16.694 Z-3.992
X16.743 Z-4.
X16.755
G2 X18.938 Y17.794 I2.183 J-324.652
G1 X19.625 Y17.789
G3 X19.827 Y17.993 I0.001 J0.2
G1 X19.823 Y18.174
G3 X19.623 Y18.37 I-0.2 J-0.004
G1 X16.754
G3 X16.554 Y18.17 I0. J-0.2
G1 X16.552 Y17.304
G3 X16.752 Y17.103 I0.2 J0.
G1 X19.625
G3 X19.825 Y17.303 I0. J0.2
G1 X19.824 Y18.816
G3 X19.624 Y19.016 I-0.2 J0.
G1 X16.751
G3 X16.565 Y18.889 I0. J-0.2
G1 X16.238 Y18.058
G3 X16.425 Y17.784 I0.186 J-0.073
G1 X16.474 Y17.785 Z-4.008
X16.518 Z-4.03
X16.554 Z-4.065
X16.576 Z-4.11
X16.584 Z-4.159
Z-4.366
X16.592 Z-4.415
X16.614 Y17.786 Z-4.46
X16.649 Z-4.495
X16.694 Z-4.517
X16.743 Z-4.525
X16.755
G2 X18.938 Y17.794 I2.183 J-324.652
G1 X19.625 Y17.789
G3 X19.827 Y17.993 I0.001 J0.2
G1 X19.823 Y18.174
G3 X19.623 Y18.37 I-0.2 J-0.004
G1 X16.754
G3 X16.554 Y18.17 I0. J-0.2
G1 X16.552 Y17.304
G3 X16.752 Y17.103 I0.2 J0.
G1 X19.625
G3 X19.825 Y17.303 I0. J0.2
G1 X19.824 Y18.816
G3 X19.624 Y19.016 I-0.2 J0.
G1 X16.751
G3 X16.565 Y18.889 I0. J-0.2
G1 X16.238 Y18.058
G3 X16.425 Y17.784 I0.186 J-0.073
G1 X16.474 Y17.785 Z-4.533
X16.518 Z-4.555
X16.554 Z-4.59
X16.576 Z-4.635
X16.584 Z-4.684
Z-4.891
X16.592 Z-4.94
X16.614 Y17.786 Z-4.985
X16.649 Z-5.02
X16.694 Z-5.042
X16.743 Z-5.05
X16.755
G2 X18.938 Y17.794 I2.183 J-324.652
G1 X19.625 Y17.789
G3 X19.827 Y17.993 I0.001 J0.2
G1 X19.823 Y18.174
G3 X19.623 Y18.37 I-0.2 J-0.004
G1 X16.754
G3 X16.554 Y18.17 I0. J-0.2
G1 X16.552 Y17.304
G3 X16.752 Y17.103 I0.2 J0.
G1 X19.625
G3 X19.825 Y17.303 I0. J0.2
G1 X19.824 Y18.816
G3 X19.624 Y19.016 I-0.2 J0.
G1 X16.751
G3 X16.726 Y19.014 I0. J-0.159
G1 X15.942 Y18.89
X15.894 Y18.882 Z-5.042
X15.85 Y18.875 Z-5.02
X15.816 Y18.869 Z-4.985
X15.793 Y18.866 Z-4.94
X15.786 Y18.865 Z-4.891
G0 Z15.
X20.243 Y17.82
Z5.
G1 Z-0.857 F40.
X20.25 Y17.818 Z-0.901 F1270.
X20.27 Y17.815 Z-0.941
X20.301 Y17.81 Z-0.973
X20.34 Y17.804 Z-0.993
X20.384 Y17.797 Z-1.
X22.228 Y17.505
G3 X22.253 Y17.503 I0.025 J0.157
G1 X25.125
G3 X25.325 Y17.704 I0. J0.2
G1 X25.323 Y18.416
G3 X25.123 Y18.616 I-0.2 J0.
G1 X22.251
G3 X22.069 Y18.498 I0. J-0.2
G1 X21.758 Y17.81
G3 X21.924 Y17.529 I0.182 J-0.083
G1 X21.973 Y17.525 Z-1.008
X22.017 Y17.521 Z-1.03
X22.052 Y17.518 Z-1.065
X22.075 Y17.517 Z-1.11
X22.082 Y17.516 Z-1.159
Z-1.841
X22.09 Y17.515 Z-1.89
X22.113 Y17.514 Z-1.935
X22.148 Y17.511 Z-1.97
X22.192 Y17.507 Z-1.992
X22.241 Y17.504 Z-2.
G3 X22.253 Y17.503 I0.012 J0.157
G1 X25.125
G3 X25.325 Y17.704 I0. J0.2
G1 X25.323 Y18.416
G3 X25.123 Y18.616 I-0.2 J0.
G1 X22.251
G3 X22.069 Y18.498 I0. J-0.2
G1 X21.758 Y17.81
G3 X21.924 Y17.529 I0.182 J-0.083
G1 X21.973 Y17.525 Z-2.008
X22.017 Y17.521 Z-2.03
X22.052 Y17.518 Z-2.065
X22.075 Y17.517 Z-2.11
X22.082 Y17.516 Z-2.159
Z-2.841
X22.09 Y17.515 Z-2.89
X22.113 Y17.514 Z-2.935
X22.148 Y17.511 Z-2.97
X22.192 Y17.507 Z-2.992
X22.241 Y17.504 Z-3.
G3 X22.253 Y17.503 I0.012 J0.157
G1 X25.125
G3 X25.325 Y17.704 I0. J0.2
G1 X25.323 Y18.416
G3 X25.123 Y18.616 I-0.2 J0.
G1 X22.251
G3 X22.069 Y18.498 I0. J-0.2
G1 X21.758 Y17.81
G3 X21.924 Y17.529 I0.182 J-0.083
G1 X21.973 Y17.525 Z-3.008
X22.017 Y17.521 Z-3.03
X22.052 Y17.518 Z-3.065
X22.075 Y17.517 Z-3.11
X22.082 Y17.516 Z-3.159
Z-3.841
X22.09 Y17.515 Z-3.89
X22.113 Y17.514 Z-3.935
X22.148 Y17.511 Z-3.97
X22.192 Y17.507 Z-3.992
X22.241 Y17.504 Z-4.
G3 X22.253 Y17.503 I0.012 J0.157
G1 X25.125
G3 X25.325 Y17.704 I0. J0.2
G1 X25.323 Y18.416
G3 X25.123 Y18.616 I-0.2 J0.
G1 X22.251
G3 X22.069 Y18.498 I0. J-0.2
G1 X21.758 Y17.81
G3 X21.924 Y17.529 I0.182 J-0.083
G1 X21.973 Y17.525 Z-4.008
X22.017 Y17.521 Z-4.03
X22.052 Y17.518 Z-4.065
X22.075 Y17.517 Z-4.11
X22.082 Y17.516 Z-4.159
Z-4.491
X22.09 Y17.515 Z-4.54
X22.113 Y17.514 Z-4.585
X22.148 Y17.511 Z-4.62
X22.192 Y17.507 Z-4.642
X22.241 Y17.504 Z-4.65
G3 X22.253 Y17.503 I0.012 J0.157
G1 X25.125
G3 X25.325 Y17.704 I0. J0.2
G1 X25.323 Y18.416
G3 X25.123 Y18.616 I-0.2 J0.
G1 X22.251
G3 X22.226 Y18.614 I0. J-0.159
G1 X21.442 Y18.49
X21.394 Y18.482 Z-4.642
X21.35 Y18.475 Z-4.62
X21.316 Y18.469 Z-4.585
X21.293 Y18.466 Z-4.54
X21.286 Y18.465 Z-4.491
G0 Z15.
X31.61 Y17.998
Z5.
G1 Z-0.857 F40.
X31.603 Y17.999 Z-0.901 F1270.
X31.583 Y18.002 Z-0.941
X31.552 Y18.007 Z-0.973
X31.512 Y18.013 Z-0.993
X31.469 Y18.02 Z-1.
X29.655 Y18.307
G3 X29.63 Y18.309 I-0.025 J-0.157
G1 X27.438
X26.751
G3 X26.551 Y18.12 I0. J-0.2
G1 X26.546 Y18.02
G3 X26.746 Y17.809 I0.2 J-0.01
G1 X28.938
X29.625
X29.984 Y17.891
G3 X29.953 Y18.284 I-0.047 J0.194
G1 X29.904 Y18.288 Z-1.008
X29.86 Y18.292 Z-1.03
X29.825 Y18.294 Z-1.065
X29.803 Y18.296 Z-1.11
X29.795 Y18.297 Z-1.159
Z-1.841
X29.787 Z-1.89
X29.765 Y18.299 Z-1.935
X29.73 Y18.302 Z-1.97
X29.686 Y18.305 Z-1.992
X29.637 Y18.309 Z-2.
X29.63
X27.438
X26.751
G3 X26.551 Y18.12 I0. J-0.2
G1 X26.546 Y18.02
G3 X26.746 Y17.809 I0.2 J-0.01
G1 X28.938
X29.625
X29.984 Y17.891
G3 X29.953 Y18.284 I-0.047 J0.194
G1 X29.904 Y18.288 Z-2.008
X29.86 Y18.292 Z-2.03
X29.825 Y18.294 Z-2.065
X29.803 Y18.296 Z-2.11
X29.795 Y18.297 Z-2.159
Z-2.841
X29.787 Z-2.89
X29.765 Y18.299 Z-2.935
X29.73 Y18.302 Z-2.97
X29.686 Y18.305 Z-2.992
X29.637 Y18.309 Z-3.
X29.63
X27.438
X26.751
G3 X26.551 Y18.12 I0. J-0.2
G1 X26.546 Y18.02
G3 X26.746 Y17.809 I0.2 J-0.01
G1 X28.938
X29.625
X29.984 Y17.891
G3 X29.953 Y18.284 I-0.047 J0.194
G1 X29.904 Y18.288 Z-3.008
X29.86 Y18.292 Z-3.03
X29.825 Y18.294 Z-3.065
X29.803 Y18.296 Z-3.11
X29.795 Y18.297 Z-3.159
Z-3.841
X29.787 Z-3.89
X29.765 Y18.299 Z-3.935
X29.73 Y18.302 Z-3.97
X29.686 Y18.305 Z-3.992
X29.637 Y18.309 Z-4.
X29.63
X27.438
X26.751
G3 X26.551 Y18.12 I0. J-0.2
G1 X26.546 Y18.02
G3 X26.746 Y17.809 I0.2 J-0.01
G1 X28.938
X29.625
X29.984 Y17.891
G3 X29.953 Y18.284 I-0.047 J0.194
G1 X29.904 Y18.288 Z-4.008
X29.86 Y18.292 Z-4.03
X29.825 Y18.294 Z-4.065
X29.803 Y18.296 Z-4.11
X29.795 Y18.297 Z-4.159
Z-4.181
X29.787 Z-4.23
X29.765 Y18.299 Z-4.275
X29.73 Y18.302 Z-4.31
X29.686 Y18.305 Z-4.332
X29.637 Y18.309 Z-4.34
X29.63
X27.438
X26.751
G3 X26.551 Y18.12 I0. J-0.2
G1 X26.546 Y18.02
G3 X26.746 Y17.809 I0.2 J-0.01
G1 X28.938
X29.625
G3 X29.65 Y17.811 I0. J0.159
G1 X30.434 Y17.936
X30.482 Y17.943 Z-4.332
X30.526 Y17.95 Z-4.31
X30.561 Y17.956 Z-4.275
X30.583 Y17.959 Z-4.23
X30.591 Y17.96 Z-4.181
G0 Z15.
X21.258 Y18.926
Z5.
G1 Z2.5 F40.
Z-0.841
G3 X21.275 Y18.938 Z-0.921 I-0.086 J0.134
X21.312 Y18.983 Z-0.979 I-0.103 J0.121
X21.331 Y19.059 Z-1. I-0.139 J0.076
G1 Y19.133 F1270.
G3 X21.012 Y19.452 I-0.319 J0.
G1 X20.86
G3 X20.545 Y19.137 I0. J-0.315
G1 Y16.986
G3 X20.864 Y16.666 I0.319 J0.
G1 X21.012
G3 X21.331 Y16.986 I0. J0.319
G1 Y19.059
G2 X21.676 Y19.623 I0.633 J0.
G3 X21.521 Y20.266 I-0.155 J0.303
G1 X19.732
Y15.853
X22.144
Y20.266
X21.521
G3 X21.334 Y20.137 I0. J-0.2
G1 X20.963 Y19.165
G3 X21.258 Y18.926 I0.187 J-0.071
G1 Z-1.841 F40.
G3 X21.275 Y18.938 Z-1.921 I-0.086 J0.134
X21.312 Y18.983 Z-1.979 I-0.103 J0.121
X21.331 Y19.059 Z-2. I-0.139 J0.076
G1 Y19.133 F1270.
G3 X21.012 Y19.452 I-0.319 J0.
G1 X20.86
G3 X20.545 Y19.137 I0. J-0.315
G1 Y16.986
G3 X20.864 Y16.666 I0.319 J0.
G1 X21.012
G3 X21.331 Y16.986 I0. J0.319
G1 Y19.059
G2 X21.676 Y19.623 I0.633 J0.
G3 X21.521 Y20.266 I-0.155 J0.303
G1 X19.732
Y15.853
X22.144
Y20.266
X21.521
G3 X21.334 Y20.137 I0. J-0.2
G1 X20.963 Y19.165
G3 X21.258 Y18.926 I0.187 J-0.071
G1 Z-2.841 F40.
G3 X21.275 Y18.938 Z-2.921 I-0.086 J0.134
X21.312 Y18.983 Z-2.979 I-0.103 J0.121
X21.331 Y19.059 Z-3. I-0.139 J0.076
G1 Y19.133 F1270.
G3 X21.012 Y19.452 I-0.319 J0.
G1 X20.86
G3 X20.545 Y19.137 I0. J-0.315
G1 Y16.986
G3 X20.864 Y16.666 I0.319 J0.
G1 X21.012
G3 X21.331 Y16.986 I0. J0.319
G1 Y19.059
G2 X21.676 Y19.623 I0.633 J0.
G3 X21.521 Y20.266 I-0.155 J0.303
G1 X19.732
Y15.853
X22.144
Y20.266
X21.521
G3 X21.334 Y20.137 I0. J-0.2
G1 X20.963 Y19.165
G3 X21.258 Y18.926 I0.187 J-0.071
G1 Z-3.841 F40.
G3 X21.275 Y18.938 Z-3.921 I-0.086 J0.134
X21.312 Y18.983 Z-3.979 I-0.103 J0.121
X21.331 Y19.059 Z-4. I-0.139 J0.076
G1 Y19.133 F1270.
G3 X21.012 Y19.452 I-0.319 J0.
G1 X20.86
G3 X20.545 Y19.137 I0. J-0.315
G1 Y16.986
G3 X20.864 Y16.666 I0.319 J0.
G1 X21.012
G3 X21.331 Y16.986 I0. J0.319
G1 Y19.059
G2 X21.676 Y19.623 I0.633 J0.
G3 X21.521 Y20.266 I-0.155 J0.303
G1 X19.732
Y15.853
X22.144
Y20.266
X21.521
G3 X21.334 Y20.137 I0. J-0.2
G1 X20.963 Y19.165
G3 X21.258 Y18.926 I0.187 J-0.071
G1 Z-4.841 F40.
G3 X21.275 Y18.938 Z-4.921 I-0.086 J0.134
X21.312 Y18.983 Z-4.979 I-0.103 J0.121
X21.331 Y19.059 Z-5. I-0.139 J0.076
G1 Y19.133 F1270.
G3 X21.012 Y19.452 I-0.319 J0.
G1 X20.86
G3 X20.545 Y19.137 I0. J-0.315
G1 Y16.986
G3 X20.864 Y16.666 I0.319 J0.
G1 X21.012
G3 X21.331 Y16.986 I0. J0.319
G1 Y19.059
G2 X21.676 Y19.623 I0.633 J0.
G3 X21.521 Y20.266 I-0.155 J0.303
G1 X19.732
Y15.853
X22.144
Y20.266
X21.521
G3 X21.334 Y20.137 I0. J-0.2
G1 X20.963 Y19.165
G3 X21.258 Y18.926 I0.187 J-0.071
G1 Z-5.841 F40.
G3 X21.275 Y18.938 Z-5.921 I-0.086 J0.134
X21.312 Y18.983 Z-5.979 I-0.103 J0.121
X21.331 Y19.059 Z-6. I-0.139 J0.076
G1 Y19.133 F1270.
G3 X21.012 Y19.452 I-0.319 J0.
G1 X20.86
G3 X20.545 Y19.137 I0. J-0.315
G1 Y16.986
G3 X20.864 Y16.666 I0.319 J0.
G1 X21.012
G3 X21.331 Y16.986 I0. J0.319
G1 Y19.059
G2 X21.676 Y19.623 I0.633 J0.
G3 X21.521 Y20.266 I-0.155 J0.303
G1 X19.732
Y15.853
X22.144
Y20.266
X21.521
G3 X21.334 Y20.137 I0. J-0.2
G1 X20.963 Y19.165
G3 X21.258 Y18.926 I0.187 J-0.071
G1 Z-6.141 F40.
G3 X21.275 Y18.938 Z-6.221 I-0.086 J0.134
X21.312 Y18.983 Z-6.279 I-0.103 J0.121
X21.331 Y19.059 Z-6.3 I-0.139 J0.076
G1 Y19.133 F1270.
G3 X21.012 Y19.452 I-0.319 J0.
G1 X20.86
G3 X20.545 Y19.137 I0. J-0.315
G1 Y16.986
G3 X20.864 Y16.666 I0.319 J0.
G1 X21.012
G3 X21.331 Y16.986 I0. J0.319
G1 Y19.059
G2 X21.676 Y19.623 I0.633 J0.
G3 X21.521 Y20.266 I-0.155 J0.303
G1 X19.732
Y15.853
X22.144
Y20.266
X21.521
G3 X21.445 Y20.246 Z-6.279 I0. J-0.159
X21.4 Y20.21 Z-6.221 I0.076 J-0.139
X21.387 Y20.193 Z-6.141 I0.121 J-0.103
G0 Z5.
X26.571 Y19.426
G1 Z2.5 F40.
Z-0.841
G3 X26.589 Y19.438 Z-0.921 I-0.086 J0.134
X26.625 Y19.483 Z-0.979 I-0.103 J0.121
X26.644 Y19.559 Z-1. I-0.139 J0.076
G1 Y20.266 F1270.
X25.232
Y15.853
X26.644
Y19.559
G3 X26.573 Y19.578 I-0.038 J0.
G1 X26.518 Y19.476
G3 X26.571 Y19.426 I0.033 J-0.018
G1 Z-1.841 F40.
G3 X26.589 Y19.438 Z-1.921 I-0.086 J0.134
X26.625 Y19.483 Z-1.979 I-0.103 J0.121
X26.644 Y19.559 Z-2. I-0.139 J0.076
G1 Y20.266 F1270.
X25.232
Y15.853
X26.644
Y19.559
G3 X26.573 Y19.578 I-0.038 J0.
G1 X26.518 Y19.476
G3 X26.571 Y19.426 I0.033 J-0.018
G1 Z-2.841 F40.
G3 X26.589 Y19.438 Z-2.921 I-0.086 J0.134
X26.625 Y19.483 Z-2.979 I-0.103 J0.121
X26.644 Y19.559 Z-3. I-0.139 J0.076
G1 Y20.266 F1270.
X25.232
Y15.853
X26.644
Y19.559
G3 X26.573 Y19.578 I-0.038 J0.
G1 X26.518 Y19.476
G3 X26.571 Y19.426 I0.033 J-0.018
G1 Z-3.841 F40.
G3 X26.589 Y19.438 Z-3.921 I-0.086 J0.134
X26.625 Y19.483 Z-3.979 I-0.103 J0.121
X26.644 Y19.559 Z-4. I-0.139 J0.076
G1 Y20.266 F1270.
X25.232
Y15.853
X26.644
Y19.559
G3 X26.573 Y19.578 I-0.038 J0.
G1 X26.518 Y19.476
G3 X26.571 Y19.426 I0.033 J-0.018
G1 Z-4.841 F40.
G3 X26.589 Y19.438 Z-4.921 I-0.086 J0.134
X26.625 Y19.483 Z-4.979 I-0.103 J0.121
X26.644 Y19.559 Z-5. I-0.139 J0.076
G1 Y20.266 F1270.
X25.232
Y15.853
X26.644
Y19.559
G3 X26.573 Y19.578 I-0.038 J0.
G1 X26.518 Y19.476
G3 X26.571 Y19.426 I0.033 J-0.018
G1 Z-5.841 F40.
G3 X26.589 Y19.438 Z-5.921 I-0.086 J0.134
X26.625 Y19.483 Z-5.979 I-0.103 J0.121
X26.644 Y19.559 Z-6. I-0.139 J0.076
G1 Y20.266 F1270.
X25.232
Y15.853
X26.644
Y19.559
G3 X26.573 Y19.578 I-0.038 J0.
G1 X26.518 Y19.476
G3 X26.571 Y19.426 I0.033 J-0.018
G1 Z-6.141 F40.
G3 X26.589 Y19.438 Z-6.221 I-0.086 J0.134
X26.625 Y19.483 Z-6.279 I-0.103 J0.121
X26.644 Y19.559 Z-6.3 I-0.139 J0.076
G1 Y20.266 F1270.
X25.232
Y15.853
X26.644
Y19.559
G3 X26.625 Y19.635 Z-6.279 I-0.159 J0.
X26.589 Y19.68 Z-6.221 I-0.139 J-0.076
X26.571 Y19.693 Z-6.141 I-0.103 J-0.121
G0 Z15.

(DRILL1)
G55
M9
G0 X23.938 Y25.559
Z15.
Z5.
Z4.7
Z1.7
G1 Z-0.697 F40.
G0 Z-0.597
G1 Z-1.094 F40.
G0 Z-0.994
G1 Z-1.491 F40.
G0 Z-1.391
G1 Z-1.887 F40.
G0 Z-1.787
G1 Z-2.284 F40.
G0 Z-2.184
G1 Z-2.681 F40.
G0 Z-2.581
G1 Z-3.078 F40.
G0 Z5.
Z-1.078
G1 Z-3.475 F40.
G0 Z-3.375
G1 Z-3.872 F40.
G0 Z-3.772
G1 Z-4.269 F40.
G0 Z-4.169
G1 Z-4.666 F40.
G0 Z-4.566
G1 Z-5.062 F40.
G0 Z-4.962
G1 Z-5.459 F40.
G0 Z-5.359
G1 Z-5.856 F40.
G0 Z5.
Z-3.856
G1 Z-6.253 F40.
G0 Z-6.153
G1 Z-6.3 F40.
G0 Z5.
X6.388 Y12.309
Z4.7
Z1.7
G1 Z-0.697 F40.
G0 Z-0.597
G1 Z-1.094 F40.
G0 Z-0.994
G1 Z-1.491 F40.
G0 Z-1.391
G1 Z-1.887 F40.
G0 Z-1.787
G1 Z-2.284 F40.
G0 Z-2.184
G1 Z-2.681 F40.
G0 Z-2.581
G1 Z-3.078 F40.
G0 Z5.
Z-1.078
G1 Z-3.475 F40.
G0 Z-3.375
G1 Z-3.872 F40.
G0 Z-3.772
G1 Z-4.269 F40.
G0 Z-4.169
G1 Z-4.666 F40.
G0 Z-4.566
G1 Z-5.062 F40.
G0 Z-4.962
G1 Z-5.459 F40.
G0 Z-5.359
G1 Z-5.856 F40.
G0 Z5.
Z-3.856
G1 Z-6.253 F40.
G0 Z-6.153
G1 Z-6.3 F40.
G0 Z5.
X12.638
Z4.7
Z1.7
G1 Z-0.697 F40.
G0 Z-0.597
G1 Z-1.094 F40.
G0 Z-0.994
G1 Z-1.491 F40.
G0 Z-1.391
G1 Z-1.887 F40.
G0 Z-1.787
G1 Z-2.284 F40.
G0 Z-2.184
G1 Z-2.681 F40.
G0 Z-2.581
G1 Z-3.078 F40.
G0 Z5.
Z-1.078
G1 Z-3.475 F40.
G0 Z-3.375
G1 Z-3.872 F40.
G0 Z-3.772
G1 Z-4.269 F40.
G0 Z-4.169
G1 Z-4.666 F40.
G0 Z-4.566
G1 Z-5.062 F40.
G0 Z-4.962
G1 Z-5.459 F40.
G0 Z-5.359
G1 Z-5.856 F40.
G0 Z5.
Z-3.856
G1 Z-6.253 F40.
G0 Z-6.153
G1 Z-6.3 F40.
G0 Z5.
X16.011 Y4.291
Z4.7
Z1.7
G1 Z-0.697 F40.
G0 Z-0.597
G1 Z-1.094 F40.
G0 Z-0.994
G1 Z-1.491 F40.
G0 Z-1.391
G1 Z-1.887 F40.
G0 Z-1.787
G1 Z-2.284 F40.
G0 Z-2.184
G1 Z-2.681 F40.
G0 Z-2.581
G1 Z-3.078 F40.
G0 Z5.
Z-1.078
G1 Z-3.475 F40.
G0 Z-3.375
G1 Z-3.872 F40.
G0 Z-3.772
G1 Z-4.269 F40.
G0 Z-4.169
G1 Z-4.666 F40.
G0 Z-4.566
G1 Z-5.062 F40.
G0 Z-4.962
G1 Z-5.459 F40.
G0 Z-5.359
G1 Z-5.856 F40.
G0 Z5.
Z-3.856
G1 Z-6.253 F40.
G0 Z-6.153
G1 Z-6.3 F40.
G0 Z5.
Z15.

(2D CONTOUR5 - FINAL CUTOUT)
G55
M9
G0 X29.36 Y13.835
Z15.
Z5.
G1 Z2. F1270.
Z-0.841 F40.
X29.356 Y13.842 Z-0.89
X29.344 Y13.861 Z-0.935
X29.327 Y13.892 Z-0.97
X29.304 Y13.93 Z-0.992
X29.28 Y13.972 Z-1.
X29.2 Y14.11 F1270.
G3 X28.983 Y14.167 I-0.137 J-0.08
G1 X24.409 Y11.505
G3 X24.143 Y11.253 I0.399 J-0.686
G1 X20.764 Y6.069
G2 X18.629 Y5.568 I-1.33 J0.867
G1 X18.47 Y5.376
G2 X14.291 Y2.226 I-2.459 J-1.086
X16.636 Y6.905 I1.721 J2.065
G1 X16.795 Y7.096
X14.792 Y8.766
X6.551
G2 X5.534 Y9.134 I0. J1.588
G1 X0.839 Y13.046
G2 X1.856 Y15.853 I1.016 J1.22
G1 X15.851
G2 X16.644 Y15.059 I0. J-0.794
G1 Y22.559
G2 X17.438 Y23.353 I0.794 J0.
G1 X21.101
Y25.559
G2 X26.776 I2.837 J0.
G1 Y23.353
X28.938
G2 X29.732 Y22.559 I0. J-0.794
G1 Y15.059
G2 X29.337 Y14.373 I-0.794 J0.
G1 X28.983 Y14.167
G3 X28.925 Y13.95 I0.08 J-0.137
G1 X29.005 Y13.813
X29.03 Y13.77 Z-0.992
X29.052 Y13.732 Z-0.97
X29.07 Y13.702 Z-0.935
X29.081 Y13.682 Z-0.89
X29.085 Y13.676 Z-0.841
X29.36 Y13.835
Z-1.841 F40.
X29.356 Y13.842 Z-1.89
X29.344 Y13.861 Z-1.935
X29.327 Y13.892 Z-1.97
X29.304 Y13.93 Z-1.992
X29.28 Y13.972 Z-2.
X29.2 Y14.11 F1270.
G3 X28.983 Y14.167 I-0.137 J-0.08
G1 X24.409 Y11.505
G3 X24.143 Y11.253 I0.399 J-0.686
G1 X20.764 Y6.069
G2 X18.629 Y5.568 I-1.33 J0.867
G1 X18.47 Y5.376
G2 X14.291 Y2.226 I-2.459 J-1.086
X16.636 Y6.905 I1.721 J2.065
G1 X16.795 Y7.096
X14.792 Y8.766
X6.551
G2 X5.534 Y9.134 I0. J1.588
G1 X0.839 Y13.046
G2 X1.856 Y15.853 I1.016 J1.22
G1 X15.851
G2 X16.644 Y15.059 I0. J-0.794
G1 Y22.559
G2 X17.438 Y23.353 I0.794 J0.
G1 X21.101
Y25.559
G2 X26.776 I2.837 J0.
G1 Y23.353
X28.938
G2 X29.732 Y22.559 I0. J-0.794
G1 Y15.059
G2 X29.337 Y14.373 I-0.794 J0.
G1 X28.983 Y14.167
G3 X28.925 Y13.95 I0.08 J-0.137
G1 X29.005 Y13.813
X29.03 Y13.77 Z-1.992
X29.052 Y13.732 Z-1.97
X29.07 Y13.702 Z-1.935
X29.081 Y13.682 Z-1.89
X29.085 Y13.676 Z-1.841
X29.36 Y13.835
Z-2.841 F40.
X29.356 Y13.842 Z-2.89
X29.344 Y13.861 Z-2.935
X29.327 Y13.892 Z-2.97
X29.304 Y13.93 Z-2.992
X29.28 Y13.972 Z-3.
X29.2 Y14.11 F1270.
G3 X28.983 Y14.167 I-0.137 J-0.08
G1 X24.409 Y11.505
G3 X24.143 Y11.253 I0.399 J-0.686
G1 X20.764 Y6.069
G2 X18.629 Y5.568 I-1.33 J0.867
G1 X18.47 Y5.376
G2 X14.291 Y2.226 I-2.459 J-1.086
X16.636 Y6.905 I1.721 J2.065
G1 X16.795 Y7.096
X14.792 Y8.766
X6.551
G2 X5.534 Y9.134 I0. J1.588
G1 X0.839 Y13.046
G2 X1.856 Y15.853 I1.016 J1.22
G1 X15.851
G2 X16.644 Y15.059 I0. J-0.794
G1 Y22.559
G2 X17.438 Y23.353 I0.794 J0.
G1 X21.101
Y25.559
G2 X26.776 I2.837 J0.
G1 Y23.353
X28.938
G2 X29.732 Y22.559 I0. J-0.794
G1 Y15.059
G2 X29.337 Y14.373 I-0.794 J0.
G1 X28.983 Y14.167
G3 X28.925 Y13.95 I0.08 J-0.137
G1 X29.005 Y13.813
X29.03 Y13.77 Z-2.992
X29.052 Y13.732 Z-2.97
X29.07 Y13.702 Z-2.935
X29.081 Y13.682 Z-2.89
X29.085 Y13.676 Z-2.841
X29.36 Y13.835
Z-3.841 F40.
X29.356 Y13.842 Z-3.89
X29.344 Y13.861 Z-3.935
X29.327 Y13.892 Z-3.97
X29.304 Y13.93 Z-3.992
X29.28 Y13.972 Z-4.
X29.2 Y14.11 F1270.
G3 X28.983 Y14.167 I-0.137 J-0.08
G1 X24.409 Y11.505
G3 X24.143 Y11.253 I0.399 J-0.686
G1 X20.764 Y6.069
G2 X18.629 Y5.568 I-1.33 J0.867
G1 X18.47 Y5.376
G2 X14.291 Y2.226 I-2.459 J-1.086
X16.636 Y6.905 I1.721 J2.065
G1 X16.795 Y7.096
X14.792 Y8.766
X6.551
G2 X5.534 Y9.134 I0. J1.588
G1 X0.839 Y13.046
G2 X1.856 Y15.853 I1.016 J1.22
G1 X15.851
G2 X16.644 Y15.059 I0. J-0.794
G1 Y22.559
G2 X17.438 Y23.353 I0.794 J0.
G1 X21.101
Y25.559
G2 X26.776 I2.837 J0.
G1 Y23.353
X28.938
G2 X29.732 Y22.559 I0. J-0.794
G1 Y15.059
G2 X29.337 Y14.373 I-0.794 J0.
G1 X28.983 Y14.167
G3 X28.925 Y13.95 I0.08 J-0.137
G1 X29.005 Y13.813
X29.03 Y13.77 Z-3.992
X29.052 Y13.732 Z-3.97
X29.07 Y13.702 Z-3.935
X29.081 Y13.682 Z-3.89
X29.085 Y13.676 Z-3.841
X29.36 Y13.835
Z-4.841 F40.
X29.356 Y13.842 Z-4.89
X29.344 Y13.861 Z-4.935
X29.327 Y13.892 Z-4.97
X29.304 Y13.93 Z-4.992
X29.28 Y13.972 Z-5.
X29.2 Y14.11 F1270.
G3 X28.983 Y14.167 I-0.137 J-0.08
G1 X24.409 Y11.505
G3 X24.143 Y11.253 I0.399 J-0.686
G1 X20.764 Y6.069
G2 X18.629 Y5.568 I-1.33 J0.867
G1 X18.47 Y5.376
G2 X14.291 Y2.226 I-2.459 J-1.086
X16.636 Y6.905 I1.721 J2.065
G1 X16.795 Y7.096
X14.792 Y8.766
X6.551
G2 X5.534 Y9.134 I0. J1.588
G1 X0.839 Y13.046
G2 X1.856 Y15.853 I1.016 J1.22
G1 X15.851
G2 X16.644 Y15.059 I0. J-0.794
G1 Y22.559
G2 X17.438 Y23.353 I0.794 J0.
G1 X21.101
Y25.559
G2 X26.776 I2.837 J0.
G1 Y23.353
X28.938
G2 X29.732 Y22.559 I0. J-0.794
G1 Y15.059
G2 X29.337 Y14.373 I-0.794 J0.
G1 X28.983 Y14.167
G3 X28.925 Y13.95 I0.08 J-0.137
G1 X29.005 Y13.813
X29.03 Y13.77 Z-4.992
X29.052 Y13.732 Z-4.97
X29.07 Y13.702 Z-4.935
X29.081 Y13.682 Z-4.89
X29.085 Y13.676 Z-4.841
X29.36 Y13.835
Z-5.841 F40.
X29.356 Y13.842 Z-5.89
X29.344 Y13.861 Z-5.935
X29.327 Y13.892 Z-5.97
X29.304 Y13.93 Z-5.992
X29.28 Y13.972 Z-6.
X29.2 Y14.11 F1270.
G3 X28.983 Y14.167 I-0.137 J-0.08
G1 X24.409 Y11.505
G3 X24.143 Y11.253 I0.399 J-0.686
G1 X20.764 Y6.069
G2 X18.629 Y5.568 I-1.33 J0.867
G1 X18.47 Y5.376
G2 X14.291 Y2.226 I-2.459 J-1.086
X16.636 Y6.905 I1.721 J2.065
G1 X16.795 Y7.096
X14.792 Y8.766
X13.041
Z-5.903
X9.866
Z-6.
X6.551
G2 X5.534 Y9.134 I0. J1.588
G1 X0.839 Y13.046
G2 X1.856 Y15.853 I1.016 J1.22
G1 X15.851
G2 X16.644 Y15.059 I0. J-0.794
G1 Y22.559
G2 X17.393 Y23.352 I0.794 J0.
G1 Z-5.903
G2 X17.438 Y23.353 I0.045 J-0.792
G1 X20.568
Z-6. F40.
X21.101 F1270.
Y25.559
G2 X26.776 I2.837 J0.
G1 Y23.353
X28.938
G2 X29.732 Y22.559 I0. J-0.794
G1 Y19.613
Z-5.903
Y16.438
Z-6. F40.
Y15.059 F1270.
G2 X29.337 Y14.373 I-0.794 J0.
G1 X28.983 Y14.167
G3 X28.925 Y13.95 I0.08 J-0.137
G1 X29.005 Y13.813
X29.03 Y13.77 Z-5.992
X29.052 Y13.732 Z-5.97
X29.07 Y13.702 Z-5.935
X29.081 Y13.682 Z-5.89
X29.085 Y13.676 Z-5.841
X29.36 Y13.835
Z-6.141 F40.
X29.356 Y13.842 Z-6.19
X29.344 Y13.861 Z-6.235
X29.327 Y13.892 Z-6.27
X29.304 Y13.93 Z-6.292
X29.28 Y13.972 Z-6.3
X29.2 Y14.11 F1270.
G3 X28.983 Y14.167 I-0.137 J-0.08
G1 X24.409 Y11.505
G3 X24.143 Y11.253 I0.399 J-0.686
G1 X20.764 Y6.069
G2 X18.629 Y5.568 I-1.33 J0.867
G1 X18.47 Y5.376
G2 X14.291 Y2.226 I-2.459 J-1.086
X16.636 Y6.905 I1.721 J2.065
G1 X16.795 Y7.096
X14.792 Y8.766
X13.041
Z-5.903
X9.866
Z-6.3
X6.551
G2 X5.534 Y9.134 I0. J1.588
G1 X0.839 Y13.046
G2 X1.856 Y15.853 I1.016 J1.22
G1 X15.851
G2 X16.644 Y15.059 I0. J-0.794
G1 Y22.559
G2 X17.393 Y23.352 I0.794 J0.
G1 Z-5.903
G2 X17.438 Y23.353 I0.045 J-0.792
G1 X20.568
Z-6.3 F40.
X21.101 F1270.
Y25.559
G2 X26.776 I2.837 J0.
G1 Y23.353
X28.938
G2 X29.732 Y22.559 I0. J-0.794
G1 Y19.613
Z-5.903
Y16.438
Z-6.3 F40.
Y15.059 F1270.
G2 X29.337 Y14.373 I-0.794 J0.
G1 X28.983 Y14.167
G3 X28.925 Y13.95 I0.08 J-0.137
G1 X29.005 Y13.813
X29.03 Y13.77 Z-6.292
X29.052 Y13.732 Z-6.27
X29.07 Y13.702 Z-6.235
X29.081 Y13.682 Z-6.19
X29.085 Y13.676 Z-6.141
G0 Z15.

M9
G53 Z0.
M30
