 (1001)
(T1  D=3.175 CR=0. - ZMIN=-6.36 - FLAT END MILL)
G0 G90 G94 G17
G21
G53 Z0.

(2D POCKET1)
M5
M9
T1
S16500 M3
G55
M9
G0 X28.431 Y22.557
Z15.
Z5.
G1 Z2.817 F1500.
G3 X28.436 Y22.534 Z2.698 I1.469 J0.34 F150.
X28.453 Y22.471 Z2.597 I1.464 J0.362
X28.484 Y22.377 Z2.527 I1.447 J0.426
X28.529 Y22.267 Z2.5 I1.416 J0.52
X31.271 Y23.526 Z2.335 I1.371 J0.629
X28.529 Y22.267 Z2.169 I-1.371 J-0.629
X31.271 Y23.526 Z2.004 I1.371 J0.629
X28.529 Y22.267 Z1.838 I-1.371 J-0.629
X31.271 Y23.526 Z1.673 I1.371 J0.629
X28.529 Y22.267 Z1.507 I-1.371 J-0.629
X31.271 Y23.526 Z1.342 I1.371 J0.629
X28.529 Y22.267 Z1.176 I-1.371 J-0.629
X31.271 Y23.526 Z1.011 I1.371 J0.629
X28.529 Y22.267 Z0.845 I-1.371 J-0.629
X31.271 Y23.526 Z0.68 I1.371 J0.629
X28.529 Y22.267 Z0.515 I-1.371 J-0.629
X31.271 Y23.526 Z0.349 I1.371 J0.629
X28.529 Y22.267 Z0.184 I-1.371 J-0.629
X31.271 Y23.526 Z0.018 I1.371 J0.629
X28.529 Y22.267 Z-0.147 I-1.371 J-0.629
X31.271 Y23.526 Z-0.313 I1.371 J0.629
X28.529 Y22.267 Z-0.478 I-1.371 J-0.629
X31.271 Y23.526 Z-0.644 I1.371 J0.629
X28.529 Y22.267 Z-0.809 I-1.371 J-0.629
X31.271 Y23.526 Z-0.974 I1.371 J0.629
X28.529 Y22.267 Z-1.14 I-1.371 J-0.629
X29.9 Y21.388 Z-1.2 I1.371 J0.629
G1 X31.092 F1500.
G3 X31.412 Y21.708 I0. J0.319
G1 Y24.092
G3 X31.092 Y24.412 I-0.319 J0.
G1 X21.708
G3 X21.388 Y24.092 I0. J-0.319
G1 Y21.708
G3 X21.708 Y21.388 I0.319 J0.
G1 X29.9
G2 X31.774 Y20.179 I0. J-2.057
G3 X33.954 Y20.65 I1.039 J0.47
G1 Y26.634
G3 X33.634 Y26.954 I-0.319 J0.
G1 X19.166
G3 X18.846 Y26.634 I0. J-0.319
G1 Y19.166
G3 X19.166 Y18.846 I0.319 J0.
G1 X33.634
G3 X33.954 Y19.166 I0. J0.319
G1 Y20.65
G2 X35.225 Y22.556 I2.066 J0.
G3 X36.496 Y24.463 I-0.794 J1.907
G1 Y29.177
G3 X36.177 Y29.496 I-0.319 J0.
G1 X16.623
G3 X16.304 Y29.177 I0. J-0.319
G1 Y16.623
G3 X16.623 Y16.304 I0.319 J0.
G1 X36.177
G3 X36.496 Y16.623 I0. J0.319
G1 Y24.463
G2 X37.767 Y26.37 I2.066 J0.
G3 X39.038 Y28.276 I-0.794 J1.907
G1 Y31.719
G3 X38.719 Y32.038 I-0.319 J0.
G1 X14.081
G3 X13.762 Y31.719 I0. J-0.319
G1 Y14.081
G3 X14.081 Y13.762 I0.319 J0.
G1 X38.719
G3 X39.038 Y14.081 I0. J0.319
G1 Y28.276
G2 X40.31 Y30.183 I2.066 J0.
G3 X41.581 Y32.09 I-0.794 J1.907
G1 Y34.261
G3 X41.261 Y34.581 I-0.319 J0.
G1 X11.539
G3 X11.219 Y34.261 I0. J-0.319
G1 Y11.539
G3 X11.539 Y11.219 I0.319 J0.
G1 X41.261
G3 X41.581 Y11.539 I0. J0.319
G1 Y32.09
G2 X42.852 Y33.996 I2.066 J0.
G3 X44.123 Y35.903 I-0.794 J1.907
G1 Y36.804
G3 X43.804 Y37.123 I-0.319 J0.
G1 X8.996
G3 X8.677 Y36.804 I0. J-0.319
G1 Y8.996
G3 X8.996 Y8.677 I0.319 J0.
G1 X43.804
G3 X44.123 Y8.996 I0. J0.319
G1 Y35.903
G2 X45.126 Y37.692 I2.096 J0.
G3 X44.57 Y39.665 I-0.556 J0.909
G1 X6.454
G3 X6.135 Y39.346 I0. J-0.319
G1 Y6.454
G3 X6.454 Y6.135 I0.319 J0.
G1 X46.346
G3 X46.665 Y6.454 I0. J0.319
G1 Y39.346
G3 X46.346 Y39.665 I-0.319 J0.
G1 X44.57
G2 X42.66 Y40.939 I0. J2.07
G3 X40.749 Y42.213 I-1.91 J-0.796
G1 X3.588
Y3.588
X49.213
Y42.213
X40.749
G3 X40.571 Y42.104 I0. J-0.2
G1 X31.297 Y24.002
G2 X30.976 Y23.953 I-0.178 J0.091
G3 X28.824 Y21.84 Z-1.365 I-1.076 J-1.057 F150.
X30.976 Y23.953 Z-1.531 I1.076 J1.057
X28.824 Y21.84 Z-1.696 I-1.076 J-1.057
X30.976 Y23.953 Z-1.862 I1.076 J1.057
X28.824 Y21.84 Z-2.027 I-1.076 J-1.057
X30.976 Y23.953 Z-2.193 I1.076 J1.057
X28.824 Y21.84 Z-2.358 I-1.076 J-1.057
X29.9 Y21.388 Z-2.4 I1.076 J1.057
G1 X31.092 F1500.
G3 X31.412 Y21.708 I0. J0.319
G1 Y24.092
G3 X31.092 Y24.412 I-0.319 J0.
G1 X21.708
G3 X21.388 Y24.092 I0. J-0.319
G1 Y21.708
G3 X21.708 Y21.388 I0.319 J0.
G1 X29.9
G2 X31.774 Y20.179 I0. J-2.057
G3 X33.954 Y20.65 I1.039 J0.47
G1 Y26.634
G3 X33.634 Y26.954 I-0.319 J0.
G1 X19.166
G3 X18.846 Y26.634 I0. J-0.319
G1 Y19.166
G3 X19.166 Y18.846 I0.319 J0.
G1 X33.634
G3 X33.954 Y19.166 I0. J0.319
G1 Y20.65
G2 X35.225 Y22.556 I2.066 J0.
G3 X36.496 Y24.463 I-0.794 J1.907
G1 Y29.177
G3 X36.177 Y29.496 I-0.319 J0.
G1 X16.623
G3 X16.304 Y29.177 I0. J-0.319
G1 Y16.623
G3 X16.623 Y16.304 I0.319 J0.
G1 X36.177
G3 X36.496 Y16.623 I0. J0.319
G1 Y24.463
G2 X37.767 Y26.37 I2.066 J0.
G3 X39.038 Y28.276 I-0.794 J1.907
G1 Y31.719
G3 X38.719 Y32.038 I-0.319 J0.
G1 X14.081
G3 X13.762 Y31.719 I0. J-0.319
G1 Y14.081
G3 X14.081 Y13.762 I0.319 J0.
G1 X38.719
G3 X39.038 Y14.081 I0. J0.319
G1 Y28.276
G2 X40.31 Y30.183 I2.066 J0.
G3 X41.581 Y32.09 I-0.794 J1.907
G1 Y34.261
G3 X41.261 Y34.581 I-0.319 J0.
G1 X11.539
G3 X11.219 Y34.261 I0. J-0.319
G1 Y11.539
G3 X11.539 Y11.219 I0.319 J0.
G1 X41.261
G3 X41.581 Y11.539 I0. J0.319
G1 Y32.09
G2 X42.852 Y33.996 I2.066 J0.
G3 X44.123 Y35.903 I-0.794 J1.907
G1 Y36.804
G3 X43.804 Y37.123 I-0.319 J0.
G1 X8.996
G3 X8.677 Y36.804 I0. J-0.319
G1 Y8.996
G3 X8.996 Y8.677 I0.319 J0.
G1 X43.804
G3 X44.123 Y8.996 I0. J0.319
G1 Y35.903
G2 X45.126 Y37.692 I2.096 J0.
G3 X44.57 Y39.665 I-0.556 J0.909
G1 X6.454
G3 X6.135 Y39.346 I0. J-0.319
G1 Y6.454
G3 X6.454 Y6.135 I0.319 J0.
G1 X46.346
G3 X46.665 Y6.454 I0. J0.319
G1 Y39.346
G3 X46.346 Y39.665 I-0.319 J0.
G1 X44.57
G2 X42.66 Y40.939 I0. J2.07
G3 X40.749 Y42.213 I-1.91 J-0.796
G1 X3.588
Y3.588
X49.213
Y42.213
X40.749
G3 X40.571 Y42.104 I0. J-0.2
G1 X31.297 Y24.002
G2 X30.976 Y23.953 I-0.178 J0.091
G3 X28.824 Y21.84 Z-2.565 I-1.076 J-1.057 F150.
X30.976 Y23.953 Z-2.731 I1.076 J1.057
X28.824 Y21.84 Z-2.896 I-1.076 J-1.057
X30.976 Y23.953 Z-3.062 I1.076 J1.057
X28.824 Y21.84 Z-3.227 I-1.076 J-1.057
X30.976 Y23.953 Z-3.393 I1.076 J1.057
X28.824 Y21.84 Z-3.558 I-1.076 J-1.057
X29.9 Y21.388 Z-3.6 I1.076 J1.057
G1 X31.092 F1500.
G3 X31.412 Y21.708 I0. J0.319
G1 Y24.092
G3 X31.092 Y24.412 I-0.319 J0.
G1 X21.708
G3 X21.388 Y24.092 I0. J-0.319
G1 Y21.708
G3 X21.708 Y21.388 I0.319 J0.
G1 X29.9
G2 X31.774 Y20.179 I0. J-2.057
G3 X33.954 Y20.65 I1.039 J0.47
G1 Y26.634
G3 X33.634 Y26.954 I-0.319 J0.
G1 X19.166
G3 X18.846 Y26.634 I0. J-0.319
G1 Y19.166
G3 X19.166 Y18.846 I0.319 J0.
G1 X33.634
G3 X33.954 Y19.166 I0. J0.319
G1 Y20.65
G2 X35.225 Y22.556 I2.066 J0.
G3 X36.496 Y24.463 I-0.794 J1.907
G1 Y29.177
G3 X36.177 Y29.496 I-0.319 J0.
G1 X16.623
G3 X16.304 Y29.177 I0. J-0.319
G1 Y16.623
G3 X16.623 Y16.304 I0.319 J0.
G1 X36.177
G3 X36.496 Y16.623 I0. J0.319
G1 Y24.463
G2 X37.767 Y26.37 I2.066 J0.
G3 X39.038 Y28.276 I-0.794 J1.907
G1 Y31.719
G3 X38.719 Y32.038 I-0.319 J0.
G1 X14.081
G3 X13.762 Y31.719 I0. J-0.319
G1 Y14.081
G3 X14.081 Y13.762 I0.319 J0.
G1 X38.719
G3 X39.038 Y14.081 I0. J0.319
G1 Y28.276
G2 X40.31 Y30.183 I2.066 J0.
G3 X41.581 Y32.09 I-0.794 J1.907
G1 Y34.261
G3 X41.261 Y34.581 I-0.319 J0.
G1 X11.539
G3 X11.219 Y34.261 I0. J-0.319
G1 Y11.539
G3 X11.539 Y11.219 I0.319 J0.
G1 X41.261
G3 X41.581 Y11.539 I0. J0.319
G1 Y32.09
G2 X42.852 Y33.996 I2.066 J0.
G3 X44.123 Y35.903 I-0.794 J1.907
G1 Y36.804
G3 X43.804 Y37.123 I-0.319 J0.
G1 X8.996
G3 X8.677 Y36.804 I0. J-0.319
G1 Y8.996
G3 X8.996 Y8.677 I0.319 J0.
G1 X43.804
G3 X44.123 Y8.996 I0. J0.319
G1 Y35.903
G2 X45.126 Y37.692 I2.096 J0.
G3 X44.57 Y39.665 I-0.556 J0.909
G1 X6.454
G3 X6.135 Y39.346 I0. J-0.319
G1 Y6.454
G3 X6.454 Y6.135 I0.319 J0.
G1 X46.346
G3 X46.665 Y6.454 I0. J0.319
G1 Y39.346
G3 X46.346 Y39.665 I-0.319 J0.
G1 X44.57
G2 X42.66 Y40.939 I0. J2.07
G3 X40.749 Y42.213 I-1.91 J-0.796
G1 X3.588
Y3.588
X49.213
Y42.213
X40.749
G3 X39.461 Y41.489 Z-3.624 I0. J-1.508 F150.
G1 X28.612 Y23.681 Z-3.95
G3 X29.9 Y21.388 Z-4. I1.288 J-0.785
G1 X31.092 F1500.
G3 X31.412 Y21.708 I0. J0.319
G1 Y24.092
G3 X31.092 Y24.412 I-0.319 J0.
G1 X21.708
G3 X21.388 Y24.092 I0. J-0.319
G1 Y21.708
G3 X21.708 Y21.388 I0.319 J0.
G1 X29.9
G2 X31.774 Y20.179 I0. J-2.057
G3 X33.954 Y20.65 I1.039 J0.47
G1 Y26.634
G3 X33.634 Y26.954 I-0.319 J0.
G1 X19.166
G3 X18.846 Y26.634 I0. J-0.319
G1 Y19.166
G3 X19.166 Y18.846 I0.319 J0.
G1 X33.634
G3 X33.954 Y19.166 I0. J0.319
G1 Y20.65
G2 X35.225 Y22.556 I2.066 J0.
G3 X36.496 Y24.463 I-0.794 J1.907
G1 Y29.177
G3 X36.177 Y29.496 I-0.319 J0.
G1 X16.623
G3 X16.304 Y29.177 I0. J-0.319
G1 Y16.623
G3 X16.623 Y16.304 I0.319 J0.
G1 X36.177
G3 X36.496 Y16.623 I0. J0.319
G1 Y24.463
G2 X37.767 Y26.37 I2.066 J0.
G3 X39.038 Y28.276 I-0.794 J1.907
G1 Y31.719
G3 X38.719 Y32.038 I-0.319 J0.
G1 X14.081
G3 X13.762 Y31.719 I0. J-0.319
G1 Y14.081
G3 X14.081 Y13.762 I0.319 J0.
G1 X38.719
G3 X39.038 Y14.081 I0. J0.319
G1 Y28.276
G2 X40.31 Y30.183 I2.066 J0.
G3 X41.581 Y32.09 I-0.794 J1.907
G1 Y34.261
G3 X41.261 Y34.581 I-0.319 J0.
G1 X11.539
G3 X11.219 Y34.261 I0. J-0.319
G1 Y11.539
G3 X11.539 Y11.219 I0.319 J0.
G1 X41.261
G3 X41.581 Y11.539 I0. J0.319
G1 Y32.09
G2 X42.852 Y33.996 I2.066 J0.
G3 X44.123 Y35.903 I-0.794 J1.907
G1 Y36.804
G3 X43.804 Y37.123 I-0.319 J0.
G1 X8.996
G3 X8.677 Y36.804 I0. J-0.319
G1 Y8.996
G3 X8.996 Y8.677 I0.319 J0.
G1 X43.804
G3 X44.123 Y8.996 I0. J0.319
G1 Y35.903
G2 X45.126 Y37.692 I2.096 J0.
G3 X44.57 Y39.665 I-0.556 J0.909
G1 X6.454
G3 X6.135 Y39.346 I0. J-0.319
G1 Y6.454
G3 X6.454 Y6.135 I0.319 J0.
G1 X46.346
G3 X46.665 Y6.454 I0. J0.319
G1 Y39.346
G3 X46.346 Y39.665 I-0.319 J0.
G1 X44.57
G2 X42.66 Y40.939 I0. J2.07
G3 X40.749 Y42.213 I-1.91 J-0.796
G1 X3.588
Y3.588
X49.213
Y42.213
X40.749
G3 X40.631 Y42.19 Z-3.976 I0. J-0.318
X40.543 Y42.136 Z-3.907 I0.119 J-0.295
X40.496 Y42.086 Z-3.804 I0.206 J-0.241
X40.482 Y42.067 Z-3.683 I0.253 J-0.191
G0 Z15.

(DRILL1)
G55
M9
G0 X17.11 Y28.79
Z15.
Z5.
Z1.
Z-2.
G1 Z-4.794 F40.
G0 Z-4.694
G1 Z-5.587 F40.
G0 Z-5.487
G1 Z-6.16 F40.
G0 Z5.
Z15.

(2D CONTOUR1)
G55
M9
G0 X55.34 Y23.218
Z15.
Z5.
G1 Z2.25 F1500.
Z-0.933 F40.
G18 G3 X55.022 Z-1.25 I-0.318 K0.
G1 X54.705 F1500.
G17 G3 X54.388 Y22.9 I0. J-0.318
G1 Y2.
G2 X50.8 Y-1.587 I-3.588 J0.
G1 X2.
G2 X-1.587 Y2. I0. J3.587
G1 Y43.8
G2 X2. Y47.388 I3.587 J0.
G1 X50.8
G2 X54.388 Y43.8 I0. J-3.588
G1 Y22.9
G3 X54.705 Y22.583 I0.318 J0.
G1 X55.022
G18 G2 X55.34 Z-0.933 I0. K0.317
G1 Y23.218
Z-2.183 F40.
G3 X55.022 Z-2.5 I-0.318 K0.
G1 X54.705 F1500.
G17 G3 X54.388 Y22.9 I0. J-0.318
G1 Y2.
G2 X50.8 Y-1.587 I-3.588 J0.
G1 X2.
G2 X-1.587 Y2. I0. J3.587
G1 Y43.8
G2 X2. Y47.388 I3.587 J0.
G1 X50.8
G2 X54.388 Y43.8 I0. J-3.588
G1 Y22.9
G3 X54.705 Y22.583 I0.318 J0.
G1 X55.022
G18 G2 X55.34 Z-2.183 I0. K0.318
G1 Y23.218
Z-3.433 F40.
G3 X55.022 Z-3.75 I-0.318 K0.
G1 X54.705 F1500.
G17 G3 X54.388 Y22.9 I0. J-0.318
G1 Y2.
G2 X50.8 Y-1.587 I-3.588 J0.
G1 X2.
G2 X-1.587 Y2. I0. J3.587
G1 Y43.8
G2 X2. Y47.388 I3.587 J0.
G1 X50.8
G2 X54.388 Y43.8 I0. J-3.588
G1 Y22.9
G3 X54.705 Y22.583 I0.318 J0.
G1 X55.022
G18 G2 X55.34 Z-3.433 I0. K0.318
G1 Y23.218
Z-4.683 F40.
G3 X55.022 Z-5. I-0.318 K0.
G1 X54.705 F1500.
G17 G3 X54.388 Y22.9 I0. J-0.318
G1 Y2.
G2 X50.8 Y-1.587 I-3.588 J0.
G1 X2.
G2 X-1.587 Y2. I0. J3.587
G1 Y43.8
G2 X2. Y47.388 I3.587 J0.
G1 X50.8
G2 X54.388 Y43.8 I0. J-3.588
G1 Y22.9
G3 X54.705 Y22.583 I0.318 J0.
G1 X55.022
G18 G2 X55.34 Z-4.683 I0. K0.318
G1 Y23.218
Z-5.363 F40.
G3 X55.266 Z-5.566 I-0.318 K0.
G1 X55.022
X54.705 F1500.
G17 G3 X54.388 Y22.9 I0. J-0.318
G1 Y19.725
Z-5.68 F40.
Y2. F1500.
G2 X50.8 Y-1.587 I-3.588 J0.
G1 X29.575
Z-5.566
X23.225
Z-5.68
X2.
G2 X-1.587 Y2. I0. J3.587
G1 Y19.725
Z-5.566
Y26.075
Z-5.68
Y43.8
G2 X2. Y47.388 I3.587 J0.
G1 X23.225
Z-5.566
X29.575
Z-5.68
X50.8
G2 X54.388 Y43.8 I0. J-3.588
G1 Y26.075
Z-5.566
Y22.9
G3 X54.705 Y22.583 I0.318 J0.
G1 X55.022
X55.266 F40.
G18 G2 X55.34 Z-5.363 I-0.243 K0.204 F1500.
G1 Y23.218
Z-5.566 F40.
X55.022
X54.705 F1500.
G17 G3 X54.388 Y22.9 I0. J-0.318
G1 Y19.725
Z-6.36 F40.
Y2. F1500.
G2 X50.8 Y-1.587 I-3.588 J0.
G1 X29.575
Z-5.566
X23.225
Z-6.36
X2.
G2 X-1.587 Y2. I0. J3.587
G1 Y19.725
Z-5.566
Y26.075
Z-6.36
Y43.8
G2 X2. Y47.388 I3.587 J0.
G1 X23.225
Z-5.566
X29.575
Z-6.36
X50.8
G2 X54.388 Y43.8 I0. J-3.588
G1 Y26.075
Z-5.566
Y22.9
G3 X54.705 Y22.583 I0.318 J0.
G1 X55.34
G0 Z15.

M9
G53 Z0.
M30
