(1001)
(T1  D=1.587 CR=0. - ZMIN=-9.53 - FLAT END MILL)
G0 G90 G94 G17
G21
G53 Z0.

(2D POCKET5)
M5
M9
T1
S16500 M3
G55
M9
G0 X3.423 Y5.751
Z15.
Z2.57
G1 Z-0.43 F40.
Z-3.382 F1270.
X3.417 Y5.748 Z-3.406
X3.402 Y5.74 Z-3.424
X3.38 Y5.729 Z-3.43
G3 X3.294 Y5.588 I0.072 J-0.141
G1 Y5.
G3 X3.5 Y4.794 I0.206 J0.
G1 X4.088
G3 X4.28 Y5.05 I0. J0.2
G1 X3.834 Y6.577
G3 X3.447 Y6.568 I-0.192 J-0.056
G1 X3.436 Y6.52 Z-3.438
X3.426 Y6.477 Z-3.46
X3.417 Y6.443 Z-3.495
X3.412 Y6.421 Z-3.54
X3.41 Y6.413 Z-3.589
Z-4.271
X3.408 Y6.406 Z-4.32
X3.403 Y6.384 Z-4.365
X3.395 Y6.35 Z-4.4
X3.385 Y6.307 Z-4.422
X3.373 Y6.259 Z-4.43
G3 X3.294 Y5.588 I2.796 J-0.671
G1 Y5.
G3 X3.5 Y4.794 I0.206 J0.
G1 X4.088
G3 X4.28 Y5.05 I0. J0.2
G1 X3.834 Y6.577
G3 X3.447 Y6.568 I-0.192 J-0.056
G1 X3.436 Y6.52 Z-4.438
X3.426 Y6.477 Z-4.46
X3.417 Y6.443 Z-4.495
X3.412 Y6.421 Z-4.54
X3.41 Y6.413 Z-4.589
Z-5.271
X3.408 Y6.406 Z-5.32
X3.403 Y6.384 Z-5.365
X3.395 Y6.35 Z-5.4
X3.385 Y6.307 Z-5.422
X3.373 Y6.259 Z-5.43
G3 X3.294 Y5.588 I2.796 J-0.671
G1 Y5.
G3 X3.5 Y4.794 I0.206 J0.
G1 X4.088
G3 X4.28 Y5.05 I0. J0.2
G1 X3.834 Y6.577
G3 X3.447 Y6.568 I-0.192 J-0.056
G1 X3.436 Y6.52 Z-5.438
X3.426 Y6.477 Z-5.46
X3.417 Y6.443 Z-5.495
X3.412 Y6.421 Z-5.54
X3.41 Y6.413 Z-5.589
Z-6.271
X3.408 Y6.406 Z-6.32
X3.403 Y6.384 Z-6.365
X3.395 Y6.35 Z-6.4
X3.385 Y6.307 Z-6.422
X3.373 Y6.259 Z-6.43
G3 X3.294 Y5.588 I2.796 J-0.671
G1 Y5.
G3 X3.5 Y4.794 I0.206 J0.
G1 X4.088
G3 X4.28 Y5.05 I0. J0.2
G1 X3.834 Y6.577
G3 X3.447 Y6.568 I-0.192 J-0.056
G1 X3.436 Y6.52 Z-6.438
X3.426 Y6.477 Z-6.46
X3.417 Y6.443 Z-6.495
X3.412 Y6.421 Z-6.54
X3.41 Y6.413 Z-6.589
Z-7.271
X3.408 Y6.406 Z-7.32
X3.403 Y6.384 Z-7.365
X3.395 Y6.35 Z-7.4
X3.385 Y6.307 Z-7.422
X3.373 Y6.259 Z-7.43
G3 X3.294 Y5.588 I2.796 J-0.671
G1 Y5.
G3 X3.5 Y4.794 I0.206 J0.
G1 X4.088
G3 X4.28 Y5.05 I0. J0.2
G1 X3.834 Y6.577
G3 X3.447 Y6.568 I-0.192 J-0.056
G1 X3.436 Y6.52 Z-7.438
X3.426 Y6.477 Z-7.46
X3.417 Y6.443 Z-7.495
X3.412 Y6.421 Z-7.54
X3.41 Y6.413 Z-7.589
Z-7.821
X3.408 Y6.406 Z-7.87
X3.403 Y6.384 Z-7.915
X3.395 Y6.35 Z-7.95
X3.385 Y6.307 Z-7.972
X3.373 Y6.259 Z-7.98
G3 X3.294 Y5.588 I2.796 J-0.671
G1 Y5.
G3 X3.5 Y4.794 I0.206 J0.
G1 X4.088
G3 X4.28 Y5.05 I0. J0.2
G1 X3.834 Y6.577
G3 X3.447 Y6.568 I-0.192 J-0.056
G1 X3.436 Y6.52 Z-7.988
X3.426 Y6.477 Z-8.01
X3.417 Y6.443 Z-8.045
X3.412 Y6.421 Z-8.09
X3.41 Y6.413 Z-8.139
Z-8.371
X3.408 Y6.406 Z-8.42
X3.403 Y6.384 Z-8.465
X3.395 Y6.35 Z-8.5
X3.385 Y6.307 Z-8.522
X3.373 Y6.259 Z-8.53
G3 X3.294 Y5.588 I2.796 J-0.671
G1 Y5.
G3 X3.5 Y4.794 I0.206 J0.
G1 X4.088
G3 X4.112 Y4.796 I0. J0.159
G1 X4.596 Y4.872
X4.645 Y4.88 Z-8.522
X4.688 Y4.887 Z-8.5
X4.723 Y4.892 Z-8.465
X4.745 Y4.896 Z-8.42
X4.753 Y4.897 Z-8.371
G0 Z5.
X9.175 Y-0.162
Z2.57
G1 Z-3.287 F40.
X9.18 Y-0.158 Z-3.331 F1270.
X9.196 Y-0.144 Z-3.371
X9.219 Y-0.124 Z-3.403
X9.249 Y-0.097 Z-3.423
X9.283 Y-0.068 Z-3.43
X10.882 Y1.331
G3 X10.899 Y1.349 I-0.105 J0.119
G1 X12.282 Y3.008
X14.815 Y6.049
G2 X19.074 Y8.044 I4.259 J-3.549
G1 X25.5
G3 X33.456 Y16. I0. J7.956
G1 Y17.274
G2 X33.783 Y17.916 I0.794 J0.
G1 X33.877 Y18.102
X35.104 Y18.112
X35.202 Y17.927
G2 X35.544 Y17.274 I-0.452 J-0.652
G1 Y16.
G2 X25.5 Y5.956 I-10.044 J0.
G1 X19.074
G3 X16.419 Y4.713 I0. J-3.456
G1 X14.152 Y1.992
X13.615 Y1.347
G3 X13.81 Y1.024 I0.154 J-0.128
G1 X15.018 Y1.282
G3 X15.129 Y1.349 I-0.042 J0.196
G1 X16.512 Y3.008
X17.312 Y3.968
G2 X19.074 Y4.794 I1.762 J-1.468
G1 X25.5
G3 X36.706 Y16. I0. J11.206
G1 Y17.759
Y18.357
G3 X36.52 Y18.556 I-0.2 J0.
G1 X34.768 Y18.68
G3 X34.64 Y18.316 I-0.014 J-0.2
G1 X34.681 Y18.288 Z-3.438
X34.717 Y18.263 Z-3.46
X34.746 Y18.243 Z-3.495
X34.765 Y18.23 Z-3.54
X34.771 Y18.226 Z-3.589
Z-4.271
X34.777 Y18.221 Z-4.32
X34.796 Y18.208 Z-4.365
X34.825 Y18.188 Z-4.4
X34.861 Y18.163 Z-4.422
X34.901 Y18.135 Z-4.43
X35.202 Y17.927
G2 X35.544 Y17.274 I-0.452 J-0.652
G1 Y16.
G2 X25.5 Y5.956 I-10.044 J0.
G1 X19.074
G3 X16.419 Y4.713 I0. J-3.456
G1 X14.152 Y1.992
X13.615 Y1.347
G3 X13.81 Y1.024 I0.154 J-0.128
G1 X15.018 Y1.282
G3 X15.129 Y1.349 I-0.042 J0.196
G1 X16.512 Y3.008
X17.312 Y3.968
G2 X19.074 Y4.794 I1.762 J-1.468
G1 X25.5
G3 X36.706 Y16. I0. J11.206
G1 Y17.759
Y18.357
G3 X36.559 Y18.397 I-0.079 J0.
G1 X36.096 Y17.584
G3 X35.734 Y15.193 I2.928 J-1.666
G2 X35.624 Y12.776 I-4.55 J-1.003
X25.549 Y5.375 I-10.122 J3.22
X21.482 Y5.726 I-0.098 J22.604
G3 X17.484 Y4.895 I-0.963 J-5.399
X16.066 Y3.511 I2.95 J-4.442
G2 X14.861 Y1.935 I-19.306 J13.509
G1 X14.768 Y1.181
G3 X14.904 Y1.117 I0.079 J-0.008
G1 X14.938 Y1.152 Z-4.438
X14.969 Y1.184 Z-4.46
X14.993 Y1.209 Z-4.495
X15.009 Y1.225 Z-4.54
X15.014 Y1.231 Z-4.589
Z-5.271
X15.02 Y1.236 Z-5.32
X15.036 Y1.253 Z-5.365
X15.06 Y1.278 Z-5.4
X15.091 Y1.309 Z-5.422
X15.125 Y1.345 Z-5.43
X15.129 Y1.349
X16.512 Y3.008
X17.312 Y3.968
G2 X19.074 Y4.794 I1.762 J-1.468
G1 X25.5
G3 X36.706 Y16. I0. J11.206
G1 Y17.759
Y18.357
G3 X36.704 Y18.382 I-0.159 J0.
G1 X36.58 Y19.165
X36.572 Y19.214 Z-5.422
X36.566 Y19.258 Z-5.4
X36.56 Y19.292 Z-5.365
X36.557 Y19.315 Z-5.32
X36.555 Y19.322 Z-5.271
Z-0.43
X32.395 Y18.482
Z-3.382
X32.39 Y18.479 Z-3.406
X32.374 Y18.471 Z-3.424
X32.353 Y18.46 Z-3.43
G3 X32.27 Y18.317 I0.075 J-0.14
G1 X32.278 Y17.946
G2 Y17.936 I-0.794 J-0.017
G1 X32.294 Y16.007
G2 X25.5 Y9.206 I-6.794 J-0.007
G1 X19.074
G3 X13.922 Y6.793 I0. J-6.706
G1 X9.921 Y1.992
X9.384 Y1.347
G3 X9.546 Y1.019 I0.154 J-0.128
G1 X10.538 Y1.057
G3 X10.673 Y1.117 I-0.008 J0.2
G1 X10.707 Y1.152 Z-3.438
X10.738 Y1.184 Z-3.46
X10.763 Y1.209 Z-3.495
X10.779 Y1.225 Z-3.54
X10.784 Y1.231 Z-3.589
Z-4.271
X10.789 Y1.236 Z-4.32
X10.805 Y1.253 Z-4.365
X10.83 Y1.278 Z-4.4
X10.861 Y1.309 Z-4.422
X10.895 Y1.344 Z-4.43
X10.899 Y1.349
X12.282 Y3.008
X14.815 Y6.049
G2 X19.074 Y8.044 I4.259 J-3.549
G1 X25.5
G3 X33.456 Y16. I0. J7.956
G1 Y17.274
G2 X33.783 Y17.916 I0.794 J0.
G3 X33.705 Y18.274 I-0.118 J0.162
G1 X32.509 Y18.517
G3 X32.27 Y18.317 I-0.04 J-0.196
G1 X32.278 Y17.946
G2 Y17.936 I-0.794 J-0.017
G1 X32.294 Y16.007
G2 X25.5 Y9.206 I-6.794 J-0.007
G1 X19.074
G3 X13.922 Y6.793 I0. J-6.706
G1 X9.921 Y1.992
X9.384 Y1.347
G3 X9.546 Y1.019 I0.154 J-0.128
G1 X10.538 Y1.057
G3 X10.673 Y1.117 I-0.008 J0.2
G1 X10.707 Y1.152 Z-4.438
X10.738 Y1.184 Z-4.46
X10.763 Y1.209 Z-4.495
X10.779 Y1.225 Z-4.54
X10.784 Y1.231 Z-4.589
Z-5.271
X10.789 Y1.236 Z-5.32
X10.805 Y1.253 Z-5.365
X10.83 Y1.278 Z-5.4
X10.861 Y1.309 Z-5.422
X10.895 Y1.344 Z-5.43
X10.899 Y1.349
X12.282 Y3.008
X14.815 Y6.049
G2 X19.074 Y8.044 I4.259 J-3.549
G1 X25.5
G3 X33.456 Y16. I0. J7.956
G1 Y17.274
G2 X33.783 Y17.916 I0.794 J0.
G1 X33.877 Y18.102
X35.104 Y18.112
X35.202 Y17.927
G2 X35.544 Y17.274 I-0.452 J-0.652
G1 Y16.
G2 X25.5 Y5.956 I-10.044 J0.
G1 X19.074
G3 X16.419 Y4.713 I0. J-3.456
G1 X14.152 Y1.992
X13.615 Y1.347
G3 X13.776 Y1.019 I0.154 J-0.128
G1 X14.768 Y1.057
G3 X14.904 Y1.117 I-0.008 J0.2
G1 X14.938 Y1.152 Z-5.438
X14.969 Y1.184 Z-5.46
X14.993 Y1.209 Z-5.495
X15.009 Y1.225 Z-5.54
X15.014 Y1.231 Z-5.589
Z-6.271
X15.02 Y1.236 Z-6.32
X15.036 Y1.253 Z-6.365
X15.06 Y1.278 Z-6.4
X15.091 Y1.309 Z-6.422
X15.125 Y1.345 Z-6.43
X15.129 Y1.349
X16.512 Y3.008
X17.312 Y3.968
G2 X19.074 Y4.794 I1.762 J-1.468
G1 X25.5
G3 X36.706 Y16. I0. J11.206
G1 Y17.759
Y18.357
G3 X36.463 Y18.552 I-0.2 J0.
G1 X35.272 Y18.286
G3 X35.202 Y17.927 I0.044 J-0.195
G2 X35.544 Y17.274 I-0.452 J-0.652
G1 Y16.
G2 X25.5 Y5.956 I-10.044 J0.
G1 X19.074
G3 X16.419 Y4.713 I0. J-3.456
G1 X14.152 Y1.992
X13.615 Y1.347
G3 X13.776 Y1.019 I0.154 J-0.128
G1 X14.768 Y1.057
G3 X14.904 Y1.117 I-0.008 J0.2
G1 X14.938 Y1.152 Z-6.438
X14.969 Y1.184 Z-6.46
X14.993 Y1.209 Z-6.495
X15.009 Y1.225 Z-6.54
X15.014 Y1.231 Z-6.589
Z-7.271
X15.02 Y1.236 Z-7.32
X15.036 Y1.253 Z-7.365
X15.06 Y1.278 Z-7.4
X15.091 Y1.309 Z-7.422
X15.125 Y1.345 Z-7.43
X15.129 Y1.349
X16.512 Y3.008
X17.312 Y3.968
G2 X19.074 Y4.794 I1.762 J-1.468
G1 X25.5
G3 X36.706 Y16. I0. J11.206
G1 Y17.759
Y18.357
G3 X36.704 Y18.382 I-0.159 J0.
G1 X36.58 Y19.165
X36.572 Y19.214 Z-7.422
X36.566 Y19.258 Z-7.4
X36.56 Y19.292 Z-7.365
X36.557 Y19.315 Z-7.32
X36.555 Y19.322 Z-7.271
Z-2.43
X32.395 Y18.482
Z-5.382
X32.39 Y18.479 Z-5.406
X32.374 Y18.471 Z-5.424
X32.353 Y18.46 Z-5.43
G3 X32.27 Y18.317 I0.075 J-0.14
G1 X32.278 Y17.946
G2 Y17.936 I-0.794 J-0.017
G1 X32.294 Y16.007
G2 X25.5 Y9.206 I-6.794 J-0.007
G1 X19.074
G3 X13.922 Y6.793 I0. J-6.706
G1 X9.921 Y1.992
X9.384 Y1.347
G3 X9.546 Y1.019 I0.154 J-0.128
G1 X10.538 Y1.057
G3 X10.673 Y1.117 I-0.008 J0.2
G1 X10.707 Y1.152 Z-5.438
X10.738 Y1.184 Z-5.46
X10.763 Y1.209 Z-5.495
X10.779 Y1.225 Z-5.54
X10.784 Y1.231 Z-5.589
Z-6.271
X10.789 Y1.236 Z-6.32
X10.805 Y1.253 Z-6.365
X10.83 Y1.278 Z-6.4
X10.861 Y1.309 Z-6.422
X10.895 Y1.344 Z-6.43
X10.899 Y1.349
X12.282 Y3.008
X14.815 Y6.049
G2 X19.074 Y8.044 I4.259 J-3.549
G1 X25.5
G3 X33.456 Y16. I0. J7.956
G1 Y17.274
G2 X33.783 Y17.916 I0.794 J0.
G3 X33.705 Y18.274 I-0.118 J0.162
G1 X32.509 Y18.517
G3 X32.27 Y18.317 I-0.04 J-0.196
G1 X32.278 Y17.946
G2 Y17.936 I-0.794 J-0.017
G1 X32.294 Y16.007
G2 X25.5 Y9.206 I-6.794 J-0.007
G1 X19.074
G3 X13.922 Y6.793 I0. J-6.706
G1 X9.921 Y1.992
X9.384 Y1.347
G3 X9.546 Y1.019 I0.154 J-0.128
G1 X10.538 Y1.057
G3 X10.673 Y1.117 I-0.008 J0.2
G1 X10.707 Y1.152 Z-6.438
X10.738 Y1.184 Z-6.46
X10.763 Y1.209 Z-6.495
X10.779 Y1.225 Z-6.54
X10.784 Y1.231 Z-6.589
Z-7.271
X10.789 Y1.236 Z-7.32
X10.805 Y1.253 Z-7.365
X10.83 Y1.278 Z-7.4
X10.861 Y1.309 Z-7.422
X10.895 Y1.344 Z-7.43
X10.899 Y1.349
X12.282 Y3.008
X14.815 Y6.049
G2 X19.074 Y8.044 I4.259 J-3.549
G1 X25.5
G3 X33.456 Y16. I0. J7.956
G1 Y17.274
G2 X33.783 Y17.916 I0.794 J0.
G1 X33.877 Y18.102
X35.104 Y18.112
X35.202 Y17.927
G2 X35.544 Y17.274 I-0.452 J-0.652
G1 Y16.
G2 X25.5 Y5.956 I-10.044 J0.
G1 X19.074
G3 X16.419 Y4.713 I0. J-3.456
G1 X14.152 Y1.992
X13.615 Y1.347
G3 X13.776 Y1.019 I0.154 J-0.128
G1 X14.768 Y1.057
G3 X14.904 Y1.117 I-0.008 J0.2
G1 X14.938 Y1.152 Z-7.438
X14.969 Y1.184 Z-7.46
X14.993 Y1.209 Z-7.495
X15.009 Y1.225 Z-7.54
X15.014 Y1.231 Z-7.589
Z-7.821
X15.02 Y1.236 Z-7.87
X15.036 Y1.253 Z-7.915
X15.06 Y1.278 Z-7.95
X15.091 Y1.309 Z-7.972
X15.125 Y1.345 Z-7.98
X15.129 Y1.349
X16.512 Y3.008
X17.312 Y3.968
G2 X19.074 Y4.794 I1.762 J-1.468
G1 X25.5
G3 X36.706 Y16. I0. J11.206
G1 Y17.759
Y18.357
G3 X36.463 Y18.552 I-0.2 J0.
G1 X35.272 Y18.286
G3 X35.202 Y17.927 I0.044 J-0.195
G2 X35.544 Y17.274 I-0.452 J-0.652
G1 Y16.
G2 X25.5 Y5.956 I-10.044 J0.
G1 X19.074
G3 X16.419 Y4.713 I0. J-3.456
G1 X14.152 Y1.992
X13.615 Y1.347
G3 X13.776 Y1.019 I0.154 J-0.128
G1 X14.768 Y1.057
G3 X14.904 Y1.117 I-0.008 J0.2
G1 X14.938 Y1.152 Z-7.988
X14.969 Y1.184 Z-8.01
X14.993 Y1.209 Z-8.045
X15.009 Y1.225 Z-8.09
X15.014 Y1.231 Z-8.139
Z-8.371
X15.02 Y1.236 Z-8.42
X15.036 Y1.253 Z-8.465
X15.06 Y1.278 Z-8.5
X15.091 Y1.309 Z-8.522
X15.125 Y1.345 Z-8.53
X15.129 Y1.349
X16.512 Y3.008
X17.312 Y3.968
G2 X19.074 Y4.794 I1.762 J-1.468
G1 X25.5
G3 X36.706 Y16. I0. J11.206
G1 Y17.759
Y18.357
G3 X36.704 Y18.382 I-0.159 J0.
G1 X36.58 Y19.165
X36.572 Y19.214 Z-8.522
X36.566 Y19.258 Z-8.5
X36.56 Y19.292 Z-8.465
X36.557 Y19.315 Z-8.42
X36.555 Y19.322 Z-8.371
Z-4.43
X32.395 Y18.482
Z-7.382
X32.39 Y18.479 Z-7.406
X32.374 Y18.471 Z-7.424
X32.353 Y18.46 Z-7.43
G3 X32.27 Y18.317 I0.075 J-0.14
G1 X32.278 Y17.946
G2 Y17.936 I-0.794 J-0.017
G1 X32.294 Y16.007
G2 X25.5 Y9.206 I-6.794 J-0.007
G1 X19.074
G3 X13.922 Y6.793 I0. J-6.706
G1 X9.921 Y1.992
X9.384 Y1.347
G3 X9.546 Y1.019 I0.154 J-0.128
G1 X10.538 Y1.057
G3 X10.673 Y1.117 I-0.008 J0.2
G1 X10.707 Y1.152 Z-7.438
X10.738 Y1.184 Z-7.46
X10.763 Y1.209 Z-7.495
X10.779 Y1.225 Z-7.54
X10.784 Y1.231 Z-7.589
Z-7.821
X10.789 Y1.236 Z-7.87
X10.805 Y1.253 Z-7.915
X10.83 Y1.278 Z-7.95
X10.861 Y1.309 Z-7.972
X10.895 Y1.344 Z-7.98
X10.899 Y1.349
X12.282 Y3.008
X14.815 Y6.049
G2 X19.074 Y8.044 I4.259 J-3.549
G1 X25.5
G3 X33.456 Y16. I0. J7.956
G1 Y17.274
G2 X33.783 Y17.916 I0.794 J0.
G3 X33.705 Y18.274 I-0.118 J0.162
G1 X32.509 Y18.517
G3 X32.27 Y18.317 I-0.04 J-0.196
G1 X32.278 Y17.946
G2 Y17.936 I-0.794 J-0.017
G1 X32.294 Y16.007
G2 X25.5 Y9.206 I-6.794 J-0.007
G1 X19.074
G3 X13.922 Y6.793 I0. J-6.706
G1 X9.921 Y1.992
X9.384 Y1.347
G3 X9.546 Y1.019 I0.154 J-0.128
G1 X10.538 Y1.057
G3 X10.673 Y1.117 I-0.008 J0.2
G1 X10.707 Y1.152 Z-7.988
X10.738 Y1.184 Z-8.01
X10.763 Y1.209 Z-8.045
X10.779 Y1.225 Z-8.09
X10.784 Y1.231 Z-8.139
Z-8.371
X10.789 Y1.236 Z-8.42
X10.805 Y1.253 Z-8.465
X10.83 Y1.278 Z-8.5
X10.861 Y1.309 Z-8.522
X10.895 Y1.344 Z-8.53
X10.899 Y1.349
X12.282 Y3.008
X14.815 Y6.049
G2 X19.074 Y8.044 I4.259 J-3.549
G1 X25.5
G3 X33.456 Y16. I0. J7.956
G1 Y17.274
G2 X33.783 Y17.916 I0.794 J0.
G1 X33.877 Y18.102
X35.104 Y18.112
X35.202 Y17.927
G2 X35.544 Y17.274 I-0.452 J-0.652
G1 Y16.
G2 X25.5 Y5.956 I-10.044 J0.
G1 X19.074
G3 X16.419 Y4.713 I0. J-3.456
G1 X14.152 Y1.992
X13.615 Y1.347
G3 X13.695 Y1.22 I0.061 J-0.051
G1 X14.433 Y1.422
G3 X16.348 Y3.316 I-0.725 J2.648
G2 X18.225 Y5.247 I2.735 J-0.781
X24.271 Y5.637 I3.814 J-12.057
G3 X30.268 Y6.505 I1.694 J9.45
X34.945 Y11.133 I-4.751 J9.478
X35.987 Y14.29 I-9.491 J4.882
G2 X36.66 Y17.726 I55.22 J-9.045
G3 X33.418 Y19.047 I-1.729 J0.396
G1 X32.309 Y18.387
G3 X32.27 Y18.317 I0.04 J-0.068
G1 X32.278 Y17.946
G2 Y17.936 I-0.794 J-0.017
G1 X32.294 Y16.007
G2 X25.5 Y9.206 I-6.794 J-0.007
G1 X19.074
G3 X13.922 Y6.793 I0. J-6.706
G1 X9.921 Y1.992
X9.384 Y1.347
G3 X9.37 Y1.327 I0.122 J-0.102
G1 X8.963 Y0.645
X8.938 Y0.603 Z-8.522
X8.916 Y0.565 Z-8.5
X8.898 Y0.535 Z-8.465
X8.886 Y0.516 Z-8.42
X8.882 Y0.509 Z-8.371
G0 Z5.
X16.226 Y12.007
Z2.57
G1 Z-0.43 F40.
Z-3.382 F1270.
X16.23 Y12.002 Z-3.406
X16.242 Y11.989 Z-3.424
X16.258 Y11.972 Z-3.43
G3 X16.418 Y11.927 I0.117 J0.108
G2 X17.173 Y12.107 I2.656 J-9.427
X17.012 Y12.848 I2.327 J0.893
G3 X16.707 Y13.006 I-0.2 J-0.012
G1 X15.292 Y12.122
G3 X15.421 Y11.754 I0.106 J-0.17
G1 X15.47 Y11.76 Z-3.438
X15.514 Y11.765 Z-3.46
X15.549 Y11.769 Z-3.495
X15.571 Y11.772 Z-3.54
X15.579 Y11.773 Z-3.589
Z-4.271
X15.587 Y11.774 Z-4.32
X15.609 Y11.776 Z-4.365
X15.644 Y11.78 Z-4.4
X15.688 Y11.786 Z-4.422
X15.737 Y11.791 Z-4.43
G3 X16.418 Y11.927 I-0.519 J4.396
G2 X17.173 Y12.107 I2.656 J-9.427
X17.012 Y12.848 I2.327 J0.893
G3 X16.707 Y13.006 I-0.2 J-0.012
G1 X15.292 Y12.122
G3 X15.421 Y11.754 I0.106 J-0.17
G1 X15.47 Y11.76 Z-4.438
X15.514 Y11.765 Z-4.46
X15.549 Y11.769 Z-4.495
X15.571 Y11.772 Z-4.54
X15.579 Y11.773 Z-4.589
Z-5.271
X15.587 Y11.774 Z-5.32
X15.609 Y11.776 Z-5.365
X15.644 Y11.78 Z-5.4
X15.688 Y11.786 Z-5.422
X15.737 Y11.791 Z-5.43
G3 X16.418 Y11.927 I-0.519 J4.396
G2 X17.173 Y12.107 I2.656 J-9.427
X17.012 Y12.848 I2.327 J0.893
G3 X16.707 Y13.006 I-0.2 J-0.012
G1 X15.292 Y12.122
G3 X15.421 Y11.754 I0.106 J-0.17
G1 X15.47 Y11.76 Z-5.438
X15.514 Y11.765 Z-5.46
X15.549 Y11.769 Z-5.495
X15.571 Y11.772 Z-5.54
X15.579 Y11.773 Z-5.589
Z-6.271
X15.587 Y11.774 Z-6.32
X15.609 Y11.776 Z-6.365
X15.644 Y11.78 Z-6.4
X15.688 Y11.786 Z-6.422
X15.737 Y11.791 Z-6.43
G3 X16.418 Y11.927 I-0.519 J4.396
G2 X17.173 Y12.107 I2.656 J-9.427
X17.012 Y12.848 I2.327 J0.893
G3 X16.707 Y13.006 I-0.2 J-0.012
G1 X15.292 Y12.122
G3 X15.421 Y11.754 I0.106 J-0.17
G1 X15.47 Y11.76 Z-6.438
X15.514 Y11.765 Z-6.46
X15.549 Y11.769 Z-6.495
X15.571 Y11.772 Z-6.54
X15.579 Y11.773 Z-6.589
Z-7.271
X15.587 Y11.774 Z-7.32
X15.609 Y11.776 Z-7.365
X15.644 Y11.78 Z-7.4
X15.688 Y11.786 Z-7.422
X15.737 Y11.791 Z-7.43
G3 X16.418 Y11.927 I-0.519 J4.396
G2 X17.173 Y12.107 I2.656 J-9.427
X17.012 Y12.848 I2.327 J0.893
G3 X16.707 Y13.006 I-0.2 J-0.012
G1 X15.292 Y12.122
G3 X15.421 Y11.754 I0.106 J-0.17
G1 X15.47 Y11.76 Z-7.438
X15.514 Y11.765 Z-7.46
X15.549 Y11.769 Z-7.495
X15.571 Y11.772 Z-7.54
X15.579 Y11.773 Z-7.589
Z-7.821
X15.587 Y11.774 Z-7.87
X15.609 Y11.776 Z-7.915
X15.644 Y11.78 Z-7.95
X15.688 Y11.786 Z-7.972
X15.737 Y11.791 Z-7.98
G3 X16.418 Y11.927 I-0.519 J4.396
G2 X17.173 Y12.107 I2.656 J-9.427
X17.012 Y12.848 I2.327 J0.893
G3 X16.707 Y13.006 I-0.2 J-0.012
G1 X15.292 Y12.122
G3 X15.421 Y11.754 I0.106 J-0.17
G1 X15.47 Y11.76 Z-7.988
X15.514 Y11.765 Z-8.01
X15.549 Y11.769 Z-8.045
X15.571 Y11.772 Z-8.09
X15.579 Y11.773 Z-8.139
Z-8.371
X15.587 Y11.774 Z-8.42
X15.609 Y11.776 Z-8.465
X15.644 Y11.78 Z-8.5
X15.688 Y11.786 Z-8.522
X15.737 Y11.791 Z-8.53
G3 X16.418 Y11.927 I-0.519 J4.396
G2 X17.173 Y12.107 I2.656 J-9.427
X17.012 Y12.848 I2.327 J0.893
G1 X16.974 Y13.48
X16.971 Y13.529 Z-8.522
X16.968 Y13.573 Z-8.5
X16.966 Y13.608 Z-8.465
X16.965 Y13.631 Z-8.42
X16.964 Y13.638 Z-8.371
G0 Z5.
X22.108 Y13.314
Z2.57
G1 Z-0.43 F40.
Z-3.382 F1270.
X22.102 Y13.311 Z-3.406
X22.087 Y13.302 Z-3.424
X22.066 Y13.29 Z-3.43
G3 X21.988 Y13.144 I0.08 J-0.137
G2 X21.89 Y12.294 I-2.488 J-0.144
G1 X22.786
G3 X22.972 Y12.569 I0. J0.2
G1 X22.318 Y14.179
G3 X21.933 Y14.093 I-0.185 J-0.075
G1 X21.936 Y14.044 Z-3.438
X21.939 Y13.999 Z-3.46
X21.941 Y13.964 Z-3.495
X21.942 Y13.942 Z-3.54
Y13.934 Z-3.589
Z-4.271
X21.943 Y13.926 Z-4.32
X21.944 Y13.904 Z-4.365
X21.946 Y13.869 Z-4.4
X21.949 Y13.825 Z-4.422
X21.951 Y13.776 Z-4.43
X21.988 Y13.144
G2 X21.89 Y12.294 I-2.488 J-0.144
G1 X22.786
G3 X22.972 Y12.569 I0. J0.2
G1 X22.318 Y14.179
G3 X21.933 Y14.093 I-0.185 J-0.075
G1 X21.936 Y14.044 Z-4.438
X21.939 Y13.999 Z-4.46
X21.941 Y13.964 Z-4.495
X21.942 Y13.942 Z-4.54
Y13.934 Z-4.589
Z-5.271
X21.943 Y13.926 Z-5.32
X21.944 Y13.904 Z-5.365
X21.946 Y13.869 Z-5.4
X21.949 Y13.825 Z-5.422
X21.951 Y13.776 Z-5.43
X21.988 Y13.144
G2 X21.89 Y12.294 I-2.488 J-0.144
G1 X22.786
G3 X22.972 Y12.569 I0. J0.2
G1 X22.318 Y14.179
G3 X21.933 Y14.093 I-0.185 J-0.075
G1 X21.936 Y14.044 Z-5.438
X21.939 Y13.999 Z-5.46
X21.941 Y13.964 Z-5.495
X21.942 Y13.942 Z-5.54
Y13.934 Z-5.589
Z-6.271
X21.943 Y13.926 Z-6.32
X21.944 Y13.904 Z-6.365
X21.946 Y13.869 Z-6.4
X21.949 Y13.825 Z-6.422
X21.951 Y13.776 Z-6.43
X21.988 Y13.144
G2 X21.89 Y12.294 I-2.488 J-0.144
G1 X22.786
G3 X22.972 Y12.569 I0. J0.2
G1 X22.318 Y14.179
G3 X21.933 Y14.093 I-0.185 J-0.075
G1 X21.936 Y14.044 Z-6.438
X21.939 Y13.999 Z-6.46
X21.941 Y13.964 Z-6.495
X21.942 Y13.942 Z-6.54
Y13.934 Z-6.589
Z-7.271
X21.943 Y13.926 Z-7.32
X21.944 Y13.904 Z-7.365
X21.946 Y13.869 Z-7.4
X21.949 Y13.825 Z-7.422
X21.951 Y13.776 Z-7.43
X21.988 Y13.144
G2 X21.89 Y12.294 I-2.488 J-0.144
G1 X22.786
G3 X22.972 Y12.569 I0. J0.2
G1 X22.318 Y14.179
G3 X21.933 Y14.093 I-0.185 J-0.075
G1 X21.936 Y14.044 Z-7.438
X21.939 Y13.999 Z-7.46
X21.941 Y13.964 Z-7.495
X21.942 Y13.942 Z-7.54
Y13.934 Z-7.589
Z-7.821
X21.943 Y13.926 Z-7.87
X21.944 Y13.904 Z-7.915
X21.946 Y13.869 Z-7.95
X21.949 Y13.825 Z-7.972
X21.951 Y13.776 Z-7.98
X21.988 Y13.144
G2 X21.89 Y12.294 I-2.488 J-0.144
G1 X22.786
G3 X22.972 Y12.569 I0. J0.2
G1 X22.318 Y14.179
G3 X21.933 Y14.093 I-0.185 J-0.075
G1 X21.936 Y14.044 Z-7.988
X21.939 Y13.999 Z-8.01
X21.941 Y13.964 Z-8.045
X21.942 Y13.942 Z-8.09
Y13.934 Z-8.139
Z-8.371
X21.943 Y13.926 Z-8.42
X21.944 Y13.904 Z-8.465
X21.946 Y13.869 Z-8.5
X21.949 Y13.825 Z-8.522
X21.951 Y13.776 Z-8.53
X21.988 Y13.144
G2 X21.89 Y12.294 I-2.488 J-0.144
G1 X22.786
G3 X22.811 Y12.296 I0. J0.159
G1 X23.295 Y12.372
X23.344 Y12.38 Z-8.522
X23.387 Y12.387 Z-8.5
X23.422 Y12.392 Z-8.465
X23.444 Y12.396 Z-8.42
X23.452 Y12.397 Z-8.371
G0 Z5.
X35.788 Y37.391
Z2.57
G1 Z-0.43 F40.
Z-3.382 F1270.
X35.792 Y37.386 Z-3.406
X35.802 Y37.372 Z-3.424
X35.817 Y37.353 Z-3.43
G3 X35.972 Y37.294 I0.126 J0.097
G2 X36.706 Y37.336 I0.528 J-2.794
G1 Y38.091
G3 X36.421 Y38.272 I-0.2 J0.
G1 X35.458 Y37.821
G3 X35.457 Y37.459 I0.085 J-0.181
G1 X35.502 Y37.438 Z-3.438
X35.542 Y37.419 Z-3.46
X35.573 Y37.404 Z-3.495
X35.594 Y37.395 Z-3.54
X35.601 Y37.391 Z-3.589
Z-4.271
X35.608 Y37.388 Z-4.32
X35.628 Y37.378 Z-4.365
X35.66 Y37.363 Z-4.4
X35.7 Y37.344 Z-4.422
X35.744 Y37.323 Z-4.43
G3 X35.972 Y37.294 I0.159 J0.336
G2 X36.706 Y37.336 I0.528 J-2.794
G1 Y38.091
G3 X36.421 Y38.272 I-0.2 J0.
G1 X35.458 Y37.821
G3 X35.457 Y37.459 I0.085 J-0.181
G1 X35.502 Y37.438 Z-4.438
X35.542 Y37.419 Z-4.46
X35.573 Y37.404 Z-4.495
X35.594 Y37.395 Z-4.54
X35.601 Y37.391 Z-4.589
Z-5.271
X35.608 Y37.388 Z-5.32
X35.628 Y37.378 Z-5.365
X35.66 Y37.363 Z-5.4
X35.7 Y37.344 Z-5.422
X35.744 Y37.323 Z-5.43
G3 X35.972 Y37.294 I0.159 J0.336
G2 X36.706 Y37.336 I0.528 J-2.794
G1 Y38.091
G3 X36.421 Y38.272 I-0.2 J0.
G1 X35.458 Y37.821
G3 X35.457 Y37.459 I0.085 J-0.181
G1 X35.502 Y37.438 Z-5.438
X35.542 Y37.419 Z-5.46
X35.573 Y37.404 Z-5.495
X35.594 Y37.395 Z-5.54
X35.601 Y37.391 Z-5.589
Z-6.271
X35.608 Y37.388 Z-6.32
X35.628 Y37.378 Z-6.365
X35.66 Y37.363 Z-6.4
X35.7 Y37.344 Z-6.422
X35.744 Y37.323 Z-6.43
G3 X35.972 Y37.294 I0.159 J0.336
G2 X36.706 Y37.336 I0.528 J-2.794
G1 Y38.091
G3 X36.421 Y38.272 I-0.2 J0.
G1 X35.458 Y37.821
G3 X35.457 Y37.459 I0.085 J-0.181
G1 X35.502 Y37.438 Z-6.438
X35.542 Y37.419 Z-6.46
X35.573 Y37.404 Z-6.495
X35.594 Y37.395 Z-6.54
X35.601 Y37.391 Z-6.589
Z-7.271
X35.608 Y37.388 Z-7.32
X35.628 Y37.378 Z-7.365
X35.66 Y37.363 Z-7.4
X35.7 Y37.344 Z-7.422
X35.744 Y37.323 Z-7.43
G3 X35.972 Y37.294 I0.159 J0.336
G2 X36.706 Y37.336 I0.528 J-2.794
G1 Y38.091
G3 X36.421 Y38.272 I-0.2 J0.
G1 X35.458 Y37.821
G3 X35.457 Y37.459 I0.085 J-0.181
G1 X35.502 Y37.438 Z-7.438
X35.542 Y37.419 Z-7.46
X35.573 Y37.404 Z-7.495
X35.594 Y37.395 Z-7.54
X35.601 Y37.391 Z-7.589
Z-7.821
X35.608 Y37.388 Z-7.87
X35.628 Y37.378 Z-7.915
X35.66 Y37.363 Z-7.95
X35.7 Y37.344 Z-7.972
X35.744 Y37.323 Z-7.98
G3 X35.972 Y37.294 I0.159 J0.336
G2 X36.706 Y37.336 I0.528 J-2.794
G1 Y38.091
G3 X36.421 Y38.272 I-0.2 J0.
G1 X35.458 Y37.821
G3 X35.457 Y37.459 I0.085 J-0.181
G1 X35.502 Y37.438 Z-7.988
X35.542 Y37.419 Z-8.01
X35.573 Y37.404 Z-8.045
X35.594 Y37.395 Z-8.09
X35.601 Y37.391 Z-8.139
Z-8.371
X35.608 Y37.388 Z-8.42
X35.628 Y37.378 Z-8.465
X35.66 Y37.363 Z-8.5
X35.7 Y37.344 Z-8.522
X35.744 Y37.323 Z-8.53
G3 X35.972 Y37.294 I0.159 J0.336
G2 X36.706 Y37.336 I0.528 J-2.794
G1 Y38.091
G3 X36.704 Y38.116 I-0.159 J0.
G1 X36.628 Y38.6
X36.62 Y38.648 Z-8.522
X36.613 Y38.692 Z-8.5
X36.608 Y38.727 Z-8.465
X36.604 Y38.749 Z-8.42
X36.603 Y38.757 Z-8.371
G0 Z5.
X35.048 Y45.077
Z2.57
G1 Z-0.43 F40.
Z-3.382 F1270.
X35.045 Y45.083 Z-3.406
X35.037 Y45.098 Z-3.424
X35.026 Y45.12 Z-3.43
G3 X34.885 Y45.206 I-0.141 J-0.072
G1 X29.19
Y45.075
X33.751 Y44.247
G2 X34.333 Y43.792 I-0.142 J-0.781
G3 X34.681 Y43.762 I0.182 J0.082
G1 X35.279 Y44.642
G3 X35.266 Y44.884 I-0.165 J0.112
G1 X35.234 Y44.922 Z-3.438
X35.205 Y44.955 Z-3.46
X35.182 Y44.982 Z-3.495
X35.168 Y44.999 Z-3.54
X35.163 Y45.005 Z-3.589
Z-4.271
X35.158 Y45.011 Z-4.32
X35.143 Y45.028 Z-4.365
X35.12 Y45.055 Z-4.4
X35.091 Y45.088 Z-4.422
X35.06 Y45.126 Z-4.43
G3 X34.885 Y45.206 I-0.175 J-0.149
G1 X29.19
Y45.075
X33.751 Y44.247
G2 X34.333 Y43.792 I-0.142 J-0.781
G3 X34.681 Y43.762 I0.182 J0.082
G1 X35.279 Y44.642
G3 X35.266 Y44.884 I-0.165 J0.112
G1 X35.234 Y44.922 Z-4.438
X35.205 Y44.955 Z-4.46
X35.182 Y44.982 Z-4.495
X35.168 Y44.999 Z-4.54
X35.163 Y45.005 Z-4.589
Z-5.271
X35.158 Y45.011 Z-5.32
X35.143 Y45.028 Z-5.365
X35.12 Y45.055 Z-5.4
X35.091 Y45.088 Z-5.422
X35.06 Y45.126 Z-5.43
G3 X34.885 Y45.206 I-0.175 J-0.149
G1 X29.19
Y45.075
X33.751 Y44.247
G2 X34.333 Y43.792 I-0.142 J-0.781
G3 X34.681 Y43.762 I0.182 J0.082
G1 X35.279 Y44.642
G3 X35.266 Y44.884 I-0.165 J0.112
G1 X35.234 Y44.922 Z-5.438
X35.205 Y44.955 Z-5.46
X35.182 Y44.982 Z-5.495
X35.168 Y44.999 Z-5.54
X35.163 Y45.005 Z-5.589
Z-6.271
X35.158 Y45.011 Z-6.32
X35.143 Y45.028 Z-6.365
X35.12 Y45.055 Z-6.4
X35.091 Y45.088 Z-6.422
X35.06 Y45.126 Z-6.43
G3 X34.885 Y45.206 I-0.175 J-0.149
G1 X29.19
Y45.075
X33.751 Y44.247
G2 X34.333 Y43.792 I-0.142 J-0.781
G3 X34.681 Y43.762 I0.182 J0.082
G1 X35.279 Y44.642
G3 X35.266 Y44.884 I-0.165 J0.112
G1 X35.234 Y44.922 Z-6.438
X35.205 Y44.955 Z-6.46
X35.182 Y44.982 Z-6.495
X35.168 Y44.999 Z-6.54
X35.163 Y45.005 Z-6.589
Z-7.271
X35.158 Y45.011 Z-7.32
X35.143 Y45.028 Z-7.365
X35.12 Y45.055 Z-7.4
X35.091 Y45.088 Z-7.422
X35.06 Y45.126 Z-7.43
G3 X34.885 Y45.206 I-0.175 J-0.149
G1 X29.19
Y45.075
X33.751 Y44.247
G2 X34.333 Y43.792 I-0.142 J-0.781
G3 X34.681 Y43.762 I0.182 J0.082
G1 X35.279 Y44.642
G3 X35.266 Y44.884 I-0.165 J0.112
G1 X35.234 Y44.922 Z-7.438
X35.205 Y44.955 Z-7.46
X35.182 Y44.982 Z-7.495
X35.168 Y44.999 Z-7.54
X35.163 Y45.005 Z-7.589
Z-7.821
X35.158 Y45.011 Z-7.87
X35.143 Y45.028 Z-7.915
X35.12 Y45.055 Z-7.95
X35.091 Y45.088 Z-7.972
X35.06 Y45.126 Z-7.98
G3 X34.885 Y45.206 I-0.175 J-0.149
G1 X29.19
Y45.075
X33.751 Y44.247
G2 X34.333 Y43.792 I-0.142 J-0.781
G3 X34.681 Y43.762 I0.182 J0.082
G1 X35.279 Y44.642
G3 X35.266 Y44.884 I-0.165 J0.112
G1 X35.234 Y44.922 Z-7.988
X35.205 Y44.955 Z-8.01
X35.182 Y44.982 Z-8.045
X35.168 Y44.999 Z-8.09
X35.163 Y45.005 Z-8.139
Z-8.371
X35.158 Y45.011 Z-8.42
X35.143 Y45.028 Z-8.465
X35.12 Y45.055 Z-8.5
X35.091 Y45.088 Z-8.522
X35.06 Y45.126 Z-8.53
G3 X34.885 Y45.206 I-0.175 J-0.149
G1 X29.19
Y45.075
X33.751 Y44.247
G2 X34.333 Y43.792 I-0.142 J-0.781
G1 X34.659 Y43.068
X34.679 Y43.023 Z-8.522
X34.697 Y42.983 Z-8.5
X34.711 Y42.951 Z-8.465
X34.721 Y42.93 Z-8.42
X34.724 Y42.923 Z-8.371
G0 Z15.

(BORE5)
G55
M9
G0 X36.512 Y34.668
Z15.
Z-0.43
G1 Z-2.271 F1270.
X36.505 Y34.664 Z-2.32
X36.487 Y34.65 Z-2.365
X36.459 Y34.629 Z-2.4
X36.424 Y34.603 Z-2.422
X36.384 Y34.574 Z-2.43
X36.321 Y34.526
G3 X36.295 Y34.347 I0.077 J-0.103
X36.705 Y34.653 Z-2.93 I0.205 J0.153
X36.295 Y34.347 Z-3.43 I-0.205 J-0.153
X36.705 Y34.653 Z-3.93 I0.205 J0.153
X36.295 Y34.347 Z-4.43 I-0.205 J-0.153
X36.705 Y34.653 Z-4.93 I0.205 J0.153
X36.295 Y34.347 Z-5.43 I-0.205 J-0.153
X36.705 Y34.653 Z-5.93 I0.205 J0.153
X36.295 Y34.347 Z-6.43 I-0.205 J-0.153
X36.705 Y34.653 Z-6.93 I0.205 J0.153
X36.295 Y34.347 Z-7.43 I-0.205 J-0.153
X36.705 Y34.653 Z-7.93 I0.205 J0.153
X36.295 Y34.347 Z-8.43 I-0.205 J-0.153
X36.705 Y34.653 Z-8.93 I0.205 J0.153
X36.295 Y34.347 Z-9.43 I-0.205 J-0.153
X36.424 Y34.255 Z-9.53 I0.205 J0.153
X36.576 Y34.745 I0.076 J0.245
X36.424 Y34.255 I-0.076 J-0.245
X36.584 Y34.34 I0.038 J0.122
G1 X36.608 Y34.415
X36.622 Y34.462 Z-9.522
X36.636 Y34.505 Z-9.5
X36.646 Y34.538 Z-9.465
X36.653 Y34.56 Z-9.42
X36.655 Y34.567 Z-9.371
G0 Z5.
X3.503 Y33.369
Z-0.43
G1 Z-2.271 F1270.
X3.497 Y33.364 Z-2.32
X3.479 Y33.349 Z-2.365
X3.452 Y33.327 Z-2.4
X3.418 Y33.299 Z-2.422
X3.381 Y33.267 Z-2.43
X3.32 Y33.217
G3 X3.303 Y33.036 I0.082 J-0.098
X3.697 Y33.364 Z-2.93 I0.197 J0.164
X3.303 Y33.036 Z-3.43 I-0.197 J-0.164
X3.697 Y33.364 Z-3.93 I0.197 J0.164
X3.303 Y33.036 Z-4.43 I-0.197 J-0.164
X3.697 Y33.364 Z-4.93 I0.197 J0.164
X3.303 Y33.036 Z-5.43 I-0.197 J-0.164
X3.697 Y33.364 Z-5.93 I0.197 J0.164
X3.303 Y33.036 Z-6.43 I-0.197 J-0.164
X3.697 Y33.364 Z-6.93 I0.197 J0.164
X3.303 Y33.036 Z-7.43 I-0.197 J-0.164
X3.697 Y33.364 Z-7.93 I0.197 J0.164
X3.303 Y33.036 Z-8.43 I-0.197 J-0.164
X3.697 Y33.364 Z-8.93 I0.197 J0.164
X3.303 Y33.036 Z-9.43 I-0.197 J-0.164
X3.437 Y32.952 Z-9.53 I0.197 J0.164
X3.563 Y33.448 I0.063 J0.248
X3.437 Y32.952 I-0.063 J-0.248
X3.593 Y33.044 I0.032 J0.124
G1 X3.612 Y33.121
X3.624 Y33.169 Z-9.522
X3.635 Y33.212 Z-9.5
X3.644 Y33.246 Z-9.465
X3.649 Y33.268 Z-9.42
X3.651 Y33.275 Z-9.371
G0 Z15.

(DRILL4)
G55
M9
G0 X19.5 Y13.
Z15.
Z5.
Z2.57
Z-0.43
G1 Z-2.827 F51.
G0 Z-2.727
G1 Z-3.224 F51.
G0 Z-3.124
G1 Z-3.621 F51.
G0 Z-3.521
G1 Z-4.018 F51.
G0 Z-3.918
G1 Z-4.414 F51.
G0 Z-4.314
G1 Z-4.811 F51.
G0 Z-4.711
G1 Z-5.208 F51.
G0 Z5.
Z-3.208
G1 Z-5.605 F51.
G0 Z-5.505
G1 Z-6.002 F51.
G0 Z-5.902
G1 Z-6.399 F51.
G0 Z-6.299
G1 Z-6.53 F51.
G0 Z5.
X36.5 Y5.
Z2.57
Z-0.43
G1 Z-2.827 F51.
G0 Z-2.727
G1 Z-3.224 F51.
G0 Z-3.124
G1 Z-3.621 F51.
G0 Z-3.521
G1 Z-4.018 F51.
G0 Z-3.918
G1 Z-4.414 F51.
G0 Z-4.314
G1 Z-4.811 F51.
G0 Z-4.711
G1 Z-5.208 F51.
G0 Z5.
Z-3.208
G1 Z-5.605 F51.
G0 Z-5.505
G1 Z-6.002 F51.
G0 Z-5.902
G1 Z-6.399 F51.
G0 Z-6.299
G1 Z-6.53 F51.
G0 Z5.
Z15.

M9
G53 Z0.
M30
