(1001)
(T1  D=3.175 CR=0. - ZMIN=-9.53 - FLAT END MILL)
G0 G90 G94 G17
G21
G53 Z0.

(FACE5)
M5
M9
T1
S16500 M3
G55
M9
G0 X42.064 Y1.385
Z15.
Z5.
G1 Z-0.112 F1500.
G18 G3 X41.746 Z-0.43 I-0.318 K0.
G1 X40.
X0.
G17 G2 Y4.327 I0. J1.471
G1 X40.
G3 Y7.27 I0. J1.471
G1 X0.
G2 Y10.212 I0. J1.471
G1 X40.
G3 Y13.154 I0. J1.471
G1 X0.
G2 Y16.096 I0. J1.471
G1 X40.
G3 Y19.039 I0. J1.471
G1 X0.
G2 Y21.981 I0. J1.471
G1 X40.
G3 Y24.923 I0. J1.471
G1 X0.
G2 Y27.866 I0. J1.471
G1 X40.
G3 Y30.808 I0. J1.471
G1 X0.
G2 Y33.75 I0. J1.471
G1 X40.
G3 Y36.693 I0. J1.471
G1 X0.
G2 Y39.635 I0. J1.471
G1 X40.
G3 Y42.577 I0. J1.471
G1 X0.
G2 Y45.519 I0. J1.471
G1 X40.
G3 Y48.462 I0. J1.471
G1 X0.
G18 G3 X-0.317 Z-0.112 I0. K0.318
G0 Z5.
X-2.064 Y1.385
G1 Z-1.112 F1500.
G2 X-1.746 Z-1.43 I0.317 K0.
G1 X0.
X40.
G17 G3 Y4.327 I0. J1.471
G1 X0.
G2 Y7.27 I0. J1.471
G1 X40.
G3 Y10.212 I0. J1.471
G1 X0.
G2 Y13.154 I0. J1.471
G1 X40.
G3 Y16.096 I0. J1.471
G1 X0.
G2 Y19.039 I0. J1.471
G1 X40.
G3 Y21.981 I0. J1.471
G1 X0.
G2 Y24.923 I0. J1.471
G1 X40.
G3 Y27.866 I0. J1.471
G1 X0.
G2 Y30.808 I0. J1.471
G1 X40.
G3 Y33.75 I0. J1.471
G1 X0.
G2 Y36.693 I0. J1.471
G1 X40.
G3 Y39.635 I0. J1.471
G1 X0.
G2 Y42.577 I0. J1.471
G1 X40.
G3 Y45.519 I0. J1.471
G1 X0.
G2 Y48.462 I0. J1.471
G1 X40.
G18 G2 X40.318 Z-1.112 I0. K0.317
G0 Z5.
X42.064 Y1.385
G1 Z-2.112 F1500.
G3 X41.746 Z-2.43 I-0.318 K0.
G1 X40.
X0.
G17 G2 Y4.327 I0. J1.471
G1 X40.
G3 Y7.27 I0. J1.471
G1 X0.
G2 Y10.212 I0. J1.471
G1 X40.
G3 Y13.154 I0. J1.471
G1 X0.
G2 Y16.096 I0. J1.471
G1 X40.
G3 Y19.039 I0. J1.471
G1 X0.
G2 Y21.981 I0. J1.471
G1 X40.
G3 Y24.923 I0. J1.471
G1 X0.
G2 Y27.866 I0. J1.471
G1 X40.
G3 Y30.808 I0. J1.471
G1 X0.
G2 Y33.75 I0. J1.471
G1 X40.
G3 Y36.693 I0. J1.471
G1 X0.
G2 Y39.635 I0. J1.471
G1 X40.
G3 Y42.577 I0. J1.471
G1 X0.
G2 Y45.519 I0. J1.471
G1 X40.
G3 Y48.462 I0. J1.471
G1 X0.
G18 G3 X-0.317 Z-2.112 I0. K0.318
G0 Z15.
G17

(2D POCKET4)
G55
M9
G0 X4.554 Y16.65
Z15.
Z2.57
G1 Z0.07 F1500.
X20.059 Z-0.471 F700.
G3 Y16.967 I0. J0.159
G1 X4.502 Z-1.015
G3 Y16.65 I0. J-0.159
G1 X20.059 Z-1.558
G3 Y16.967 I0. J0.159
G1 X4.502 Z-2.101
G3 Y16.65 I0. J-0.159
G1 X20.059 Z-2.645
G3 Y16.967 I0. J0.159
G1 X4.502 Z-3.188
G3 Y16.65 I0. J-0.159
G1 X11.436 Z-3.43
X12.133 Y16.717
G2 X12.182 Y16.219 I0.024 J-0.249
X11.931 Y16.575 I-0.024 J0.249
X13.067 Y18.356 I7.591 J-3.588 F1500.
G3 X13.028 Y18.79 I-0.237 J0.197
G1 X12.531 Y19.204
G3 X12.178 Y19.122 I-0.145 J-0.175
G2 X9.261 Y15.386 I-8.959 J3.988
G3 X9.172 Y15.204 I0.141 J-0.182
G1 Y14.981
G3 X9.431 Y14.855 I0.16 J0.
G2 X11.732 Y16.346 I9.589 J-12.27
G3 X11.913 Y16.537 I-0.194 J0.366
G2 X11.931 Y16.575 I7.609 J-3.55
X13.771 Y17.566 I1.592 J-0.753
G3 X15.799 Y18.073 I0.39 J2.745
G2 X16.302 Y18.406 I3.731 J-5.099
G3 X16.331 Y18.758 I-0.11 J0.186
X13.558 Y21.006 I-83.653 J-100.385
G2 X11.81 Y24.118 I2.892 J3.67
X11.795 Y24.692 I3.059 J0.367
X11.852 Y25.263 I9.088 J-0.609
G3 X11.584 Y25.606 I-0.303 J0.04
G1 X10.773 Y25.701
G3 X10.559 Y25.442 I-0.023 J-0.199
G2 X10.892 Y22.142 I-7.614 J-2.435
X9.81 Y19.008 I-7.418 J0.807
X8.75 Y17.694 I-5.885 J3.661
X7.428 Y16.644 I-5.963 J6.148
G3 X7.082 Y16.01 I0.409 J-0.634
G1 Y9.71
G3 X7.328 Y9.621 I0.139 J0.
X7.967 Y10.422 I-17.924 J14.936
G2 X8.605 Y11.224 I18.566 J-14.138
X10.654 Y13.184 I9.669 J-8.057
X13.062 Y14.679 I9.093 J-11.952
G3 X13.67 Y15.336 I-0.56 J1.128
G2 X15.799 Y18.073 I5.86 J-2.362
X16.934 Y18.085 I0.576 J-0.788
G3 X18.055 Y17.904 I0.749 J1.071
G2 X18.682 Y18.048 I1.464 J-4.925
G3 X18.736 Y18.3 I-0.022 J0.136
X18.579 Y18.403 I-14.668 J-22.172
G2 X18.427 Y18.515 I0.878 J1.348
G3 X16.304 Y20.263 I-149.695 J-179.639
G2 X14.181 Y22.012 I147.572 J181.387
X13.022 Y24.009 I2.153 J2.584
X13.389 Y26.289 I3.461 J0.613
G3 X13.234 Y26.587 I-0.179 J0.096
G1 X8.629 Y27.128
G3 X8.511 Y26.926 I-0.015 J-0.127
G2 X6.244 Y17.304 I-5.249 J-3.841
G3 X5.915 Y16.764 I0.28 J-0.54
G1 Y7.728
G3 X6.228 Y7.415 I0.313 J0.
G1 X6.663
G3 X7.231 Y7.681 I0. J0.739
X8.367 Y9.079 I-56.486 J47.07
G2 X9.502 Y10.476 I57.644 J-45.691
X11.6 Y12.443 I9.017 J-7.514
X14.096 Y13.874 I7.724 J-10.584
G3 X14.591 Y14.434 I-0.353 J0.812
G2 X18.055 Y17.904 I4.927 J-1.456
G3 X18.162 Y17.959 Z-3.406 I-0.09 J0.305
X18.231 Y18.035 Z-3.337 I-0.197 J0.249
X18.262 Y18.096 Z-3.234 I-0.266 J0.173
X18.27 Y18.119 Z-3.113 I-0.297 J0.112
G1 Z-0.43
X16.451 Y18.244
Z-3.112
X16.459 Y18.243 Z-3.183
X16.482 Y18.242 Z-3.25
X16.52 Y18.241 Z-3.31
X16.57 Y18.238 Z-3.361
X16.63 Y18.235 Z-3.399
X16.697 Y18.232 Z-3.422
X16.768 Y18.229 Z-3.43
X23.798 Y17.907
G2 X23.949 Y17.738 I-0.007 J-0.159
G3 X24.041 Y17.492 I0.317 J-0.022
G2 X24.984 Y16.274 I-4.415 J-4.395
G3 X25.31 Y16.365 I0.15 J0.09
G1 X25.306 Y17.356
G3 X25.282 Y19.031 I-85.129 J-0.343
X25.032 Y19.118 I-0.141 J-0.003
X24.542 Y18.519 I30.998 J-25.828
G2 X24.034 Y17.934 I-7.57 J6.065
G3 X23.949 Y17.738 I0.231 J-0.218
X23.959 Y17.633 Z-3.412 I0.317 J-0.022
X23.997 Y17.548 Z-3.36 I0.306 J0.083
X24.041 Y17.492 Z-3.279 I0.269 J0.169
G2 X24.065 Y17.467 Z-3.199 I-4.415 J-4.395
X24.074 Y17.459 Z-3.113 I-4.44 J-4.37
G0 Z5.
X24.427 Y26.624
Z2.57
G1 Z0.07 F1500.
Y30.118 Z-0.052 F700.
G3 X24.109 I-0.159 J0.
G1 Y14.56 Z-0.595
G3 X24.427 I0.159 J0.
G1 Y30.118 Z-1.139
G3 X24.109 I-0.159 J0.
G1 Y14.56 Z-1.682
G3 X24.427 I0.159 J0.
G1 Y30.118 Z-2.225
G3 X24.109 I-0.159 J0.
G1 Y14.56 Z-2.768
G3 X24.427 I0.159 J0.
G1 Y30.118 Z-3.312
G3 X24.109 I-0.159 J0.
G1 Y26.73 Z-3.43
X24.049 Y26.068
G2 X23.574 Y26.112 I-0.238 J0.022
X23.96 Y26.277 I0.238 J-0.022
X24.778 Y25.556 I-6.226 J-7.894 F1500.
G3 X25.005 Y25.671 I0.094 J0.096
X24.896 Y26.385 I-97.293 J-14.484
X24.761 Y27.094 I-10.956 J-1.713
X24.38 Y27.329 I-0.305 J-0.068
G2 X23.198 Y27.194 I-1.103 J4.427
G3 X23.112 Y26.964 I-0.002 J-0.13
X23.96 Y26.277 I25.972 J31.167
G2 X24.289 Y25.269 I-0.593 J-0.752
G3 X24.458 Y24.222 I1.227 J-0.34
G2 X24.239 Y20.086 I-2.877 J-1.922
X23.098 Y18.8 I-21.405 J17.835
X21.641 Y17.889 I-2.473 J2.333
G3 X21.627 Y17.651 I0.038 J-0.122
G2 X24.097 Y15.24 I-2.095 J-4.619
G3 X24.617 Y14.915 I0.52 J0.253
X25.058 Y14.929 I0. J7.072
G2 X25.5 Y14.943 I0.442 J-7.058
G3 X26.536 Y15.973 I0. J1.036
X26.535 Y17.434 I-97.64 J0.622
X26.386 Y22.542 I-124.502 J-1.07
X26.238 Y24.824 I-79.883 J-4.012
X25.917 Y27.088 I-18.341 J-1.448
G2 X25.855 Y27.407 I15.345 J3.161
G3 X25.783 Y27.723 I-3.756 J-0.693
X25.608 Y28.071 I-0.952 J-0.261
G2 X25.261 Y28.612 I2.688 J2.107
G3 X24.87 Y28.735 I-0.257 J-0.132
G2 X22.967 Y28.355 I-1.592 J3.022
G3 X22.643 Y28.331 I-0.09 J-0.983
X21.702 Y28.07 I3.773 J-15.427
X20.772 Y27.774 I21.977 J-70.705
X20.713 Y27.47 I0.055 J-0.168
X22.254 Y26.214 I57.37 J68.846
G2 X23.796 Y24.958 I-55.829 J-70.101
X24.458 Y24.222 I-2.215 J-2.658
X23.969 Y22.1 I-1.244 J-0.831
G3 X22.307 Y20.693 I3.188 J-5.448
G1 X21.84 Y20.132
G2 X19.605 Y19.929 I-1.22 J1.016
G1 X15.379 Y23.45
G2 X15.176 Y25.686 I1.016 J1.22
G1 X16.136 Y26.838
G2 X18.372 Y27.041 I1.22 J-1.016
G1 X22.597 Y23.52
G2 X22.801 Y21.284 I-1.016 J-1.22
G1 X22.307 Y20.693
G3 X22.249 Y20.587 Z-3.406 I0.244 J-0.203
X22.234 Y20.485 Z-3.337 I0.302 J-0.097
X22.242 Y20.417 Z-3.234 I0.317 J0.004
X22.249 Y20.394 Z-3.113 I0.309 J0.072
G0 Z5.
X29.857 Y33.745
Z2.57
G1 Z0.07 F1500.
X35.422 Y25.417 Z-0.28 F700.
G3 X35.642 Y25.373 I0.132 J0.088
X35.686 Y25.593 I-0.088 J0.132
G1 X27.043 Y38.529 Z-0.823
G3 X26.779 Y38.352 I-0.132 J-0.088
G1 X35.422 Y25.417 Z-1.366
G3 X35.642 Y25.373 I0.132 J0.088
X35.686 Y25.593 I-0.088 J0.132
G1 X27.043 Y38.529 Z-1.91
G3 X26.779 Y38.352 I-0.132 J-0.088
G1 X35.422 Y25.417 Z-2.453
G3 X35.642 Y25.373 I0.132 J0.088
X35.686 Y25.593 I-0.088 J0.132
G1 X27.043 Y38.529 Z-2.996
G3 X26.779 Y38.352 I-0.132 J-0.088
G1 X33.681 Y28.023 Z-3.43
G3 X33.862 Y27.989 I0.107 J0.071
G1 X33.865 Y27.992
G3 X33.917 Y28.124 I-0.074 J0.105
X33.673 Y29.106 I-15.076 J-3.224 F1500.
X33.254 Y30.305 I-10.278 J-2.915
X33.082 Y30.241 I-0.085 J-0.035
G2 X33.599 Y28.443 I-26.552 J-8.611
X33.985 Y26.612 I-23.477 J-5.909
X34.098 Y25.71 I-10.028 J-1.714
G3 X34.187 Y24.805 I24.777 J1.983
X34.372 Y24.818 I0.092 J0.011
X34.235 Y26.353 I-11.926 J-0.29
X33.969 Y27.871 I-37.745 J-5.842
X33.917 Y28.124 I-15.128 J-2.971
X33.891 Y28.242 Z-3.406 I-15.076 J-3.224
X33.868 Y28.343 Z-3.337 I-15.05 J-3.342
X33.853 Y28.41 Z-3.234 I-15.027 J-3.443
X33.847 Y28.434 Z-3.113 I-15.012 J-3.51
G0 Z5.
X14.75 Y37.159
Z2.57
G1 Z0.07 F1500.
X11.509 Z-0.043 F700.
G3 Y36.841 I0. J-0.159
G1 X27.066 Z-0.586
G3 Y37.159 I0. J0.159
G1 X11.509 Z-1.13
G3 Y36.841 I0. J-0.159
G1 X27.066 Z-1.673
G3 Y37.159 I0. J0.159
G1 X11.509 Z-2.216
G3 Y36.841 I0. J-0.159
G1 X27.066 Z-2.76
G3 Y37.159 I0. J0.159
G1 X11.509 Z-3.303
G3 Y36.841 I0. J-0.159
G1 X15.15 Z-3.43
G2 X15.21 Y36.782 I0. J-0.06
G1 X15.211 Y36.663
G2 X15.091 Y36.662 I-0.06 J0.
X15.151 Y36.722 I0.06 J0.
G3 X15.318 Y36.751 I-0.001 J0.512 F1500.
G2 X17.873 Y37.589 I24.115 J-69.159
X20.478 Y38.261 I8.546 J-27.744
G3 X20.451 Y38.448 I-0.019 J0.092
X18.064 Y38.101 I1.327 J-17.535
X15.731 Y37.488 I5.767 J-26.685
G2 X15.384 Y37.393 I-1.54 J4.958
G3 X15.041 Y37.287 I0.627 J-2.656
X14.859 Y36.902 I0.109 J-0.288
X15.057 Y36.73 I0.245 J0.083
X15.151 Y36.722 I0.092 J0.504
G2 X16.211 Y36.186 I0.004 J-1.309
G3 X17.343 Y35.828 I0.811 J0.594
G2 X18.693 Y36.277 I51.063 J-151.325
X21.654 Y36.926 I4.692 J-14.323
X23.301 Y37.029 I1.796 J-15.538
X24.933 Y36.776 I0.048 J-5.079
X25.968 Y36.311 I-1.688 J-5.145
X26.873 Y35.626 I-2.353 J-4.045
G3 X27.444 Y35.491 I0.398 J0.411
G2 X28.435 Y35.666 I1.147 J-3.607
G3 X28.684 Y35.966 I-0.011 J0.263
G2 X28.677 Y36.971 I3.748 J0.528
G3 X28.442 Y37.509 I-0.567 J0.072
X26.898 Y38.543 I-18.438 J-25.858
X25.228 Y39.358 I-4.616 J-7.348
X20.592 Y39.986 I-3.78 J-10.472
X15.985 Y39.166 I1.818 J-23.555
X14.552 Y38.72 I7.861 J-27.816
X13.512 Y37.802 I0.575 J-1.7
X13.425 Y36.418 I1.649 J-0.798
X14.391 Y35.362 I1.679 J0.566
X15.822 Y35.306 I0.786 J1.791
G2 X17.343 Y35.828 I52.584 J-150.803
X19.339 Y35.284 I0.593 J-1.757
G3 X21.289 Y34.594 I1.58 J1.366
G2 X21.3 Y34.596 I0.282 J-1.562
G1 X21.823 Y34.687
G2 X21.911 Y34.699 I0.271 J-1.564
G1 X22.468 Y34.764
G2 X22.602 Y34.774 I0.182 J-1.577
G1 X23.135 Y34.79
G2 X23.288 Y34.787 I0.048 J-1.587
G1 X23.567 Y34.769
G2 X23.727 Y34.75 I-0.105 J-1.584
G1 X24.004 Y34.703
G2 X24.234 Y34.646 I-0.264 J-1.565
G1 X24.497 Y34.56
G2 X24.826 Y34.409 I-0.495 J-1.508
G1 X25.061 Y34.266
G2 X25.457 Y31.892 I-0.824 J-1.357
G1 X24.497 Y30.74
G2 X22.837 Y30.231 I-1.22 J1.016
G1 X22.646 Y30.202
X22.347 Y30.14
X22.012 Y30.058
X21.622 Y29.952
X21.192 Y29.826
X20.721 Y29.68
X20.172 Y29.501
X19.583 Y29.302
X18.881 Y29.056
X18.135 Y28.788
G2 X14.13 Y28.322 I-2.985 J8.212
G1 X7.407 Y29.112
X4.088
Y27.696
G2 X7.932 Y23.095 I-0.831 J-4.601
G1 Y23.08
G2 X4.088 Y18.479 I-4.675 J0.
G1 Y5.588
X7.865
X10.941 Y9.278
G2 X16.228 Y12.698 I8.134 J-6.778
X19.37 Y16.283 I3.272 J0.302
X22.785 Y13.087 I0.13 J-3.283
G1 X25.5
G3 X28.413 Y15.997 I0. J2.913
G1 X28.407 Y17.45
X28.387 Y18.916
X28.355 Y20.273
X28.307 Y21.607
X28.248 Y22.793
X28.172 Y23.93
X28.079 Y24.987
X27.969 Y25.966
X27.816 Y26.992
X27.728 Y27.461
X27.63 Y27.9
X27.511 Y28.331
X27.371 Y28.729
X27.312 Y28.861
X27.259 Y28.959
X27.237 Y28.99
X27.158 Y29.07
G2 X26.732 Y30.448 I1.138 J1.107
G1 X27.027 Y32.155
G2 X29.668 Y33.051 I1.564 J-0.27
G1 X29.884 Y32.852
G2 X29.985 Y32.749 I-1.077 J-1.167
G1 X30.183 Y32.53
G2 X30.293 Y32.393 I-1.178 J-1.064
G1 X30.639 Y31.914
G2 X30.735 Y31.762 I-1.288 J-0.928
G1 X31.027 Y31.242
G2 X31.088 Y31.122 I-1.385 J-0.776
G1 X31.34 Y30.565
G2 X31.379 Y30.472 I-1.446 J-0.655
G1 X31.58 Y29.939
G2 X31.606 Y29.867 I-1.485 J-0.562
G1 X31.778 Y29.334
G2 X31.796 Y29.275 I-1.51 J-0.49
G1 X31.945 Y28.746
G2 X31.959 Y28.696 I-1.528 J-0.431
G1 X32.096 Y28.14
G2 X32.106 Y28.097 I-1.541 J-0.381
G1 X32.223 Y27.561
G2 X32.23 Y27.524 I-1.551 J-0.338
G1 X32.338 Y26.965
G2 X32.344 Y26.931 I-1.559 J-0.301
G1 X32.444 Y26.348
G2 X32.449 Y26.318 I-1.565 J-0.267
G1 X32.54 Y25.713
G2 X32.544 Y25.685 I-1.57 J-0.237
G1 X32.626 Y25.068
G2 X32.63 Y25.042 I-1.574 J-0.21
G1 X32.704 Y24.405
G2 X32.708 Y24.371 I-1.577 J-0.184
G1 X32.835 Y23.038
G2 X32.838 Y23.008 I-1.58 J-0.151
G1 X32.894 Y22.261
G2 X32.896 Y22.241 I-1.583 J-0.12
G1 X32.944 Y21.474
G2 X32.946 Y21.448 I-1.584 J-0.101
G1 X33.02 Y19.859
G2 X33.021 Y19.835 I-1.586 J-0.074
G1 X33.051 Y18.917
G2 Y18.901 I-1.587 J-0.05
G1 X33.063 Y18.329
G2 X34.25 Y18.862 I1.187 J-1.054
G1 X34.75
G2 X35.912 Y18.355 I0. J-1.587
G1 Y23.981
X35.883 Y25.183
X35.793 Y26.359
X35.649 Y27.431
X35.442 Y28.485
X35.195 Y29.424
X34.887 Y30.338
X34.519 Y31.222
X34.322 Y31.629
X34.103 Y32.038
X33.85 Y32.47
X33.58 Y32.889
X33.29 Y33.297
X32.985 Y33.689
X32.623 Y34.113
X32.241 Y34.518
X31.838 Y34.904
X31.387 Y35.299
G2 X31.884 Y37.984 I1.045 J1.195
G1 X33.509 Y38.582
G2 X35.074 Y38.311 I0.548 J-1.49
G1 X35.463 Y37.987
G2 X35.912 Y38.09 I1.036 J-3.487
G1 Y43.145
X35.121 Y44.412
X34.884
G2 X35.171 Y43.183 I-1.275 J-0.946
G1 X34.903 Y41.707
G2 X33.058 Y40.428 I-1.562 J0.284
G1 X32.634 Y40.505
X31.859 Y39.575
G2 X29.658 Y39.343 I-1.22 J1.016
G1 X29.048 Y39.823
X28.456 Y40.235
X27.845 Y40.609
X27.213 Y40.946
X26.611 Y41.222
X25.989 Y41.467
X25.348 Y41.678
X24.691 Y41.855
X24.085 Y41.986
X23.47 Y42.088
X22.848 Y42.162
X22.22 Y42.21
X21.594 Y42.232
X20.964 Y42.23
X20.329 Y42.204
X19.691 Y42.156
X19. Y42.079
X18.307 Y41.979
X17.614 Y41.857
X16.922 Y41.714
X16.146 Y41.53
X15.376 Y41.323
X14.61 Y41.095
X13.842 Y40.846
G3 X11.301 Y35.701 I1.308 J-3.846
X16.539 Y33.183 I3.849 J1.299
G2 X16.56 Y33.19 I0.535 J-1.495
G1 X17.99 Y33.688
G2 X18.04 Y33.705 I0.523 J-1.499
G1 X19.375 Y34.121
G2 X19.424 Y34.135 I0.472 J-1.516
G1 X20.021 Y34.301
G2 X20.062 Y34.311 I0.423 J-1.53
G1 X20.641 Y34.455
G2 X20.69 Y34.467 I0.383 J-1.541
G1 X21.238 Y34.584
G2 X21.289 Y34.594 I0.333 J-1.552
G3 X21.327 Y34.977 I-0.035 J0.197
G1 X17.556 Y36.455
G2 X17.629 Y36.841 I0.073 J0.186
G1 X27.066 Z-3.76 F700.
G3 Y37.159 I0. J0.159
G1 X11.509 Z-4.303
G3 Y36.841 I0. J-0.159
G1 X15.15 Z-4.43
G2 X15.21 Y36.782 I0. J-0.06
G1 X15.211 Y36.663
G2 X15.091 Y36.662 I-0.06 J0.
X15.151 Y36.722 I0.06 J0.
G3 X15.318 Y36.751 I-0.001 J0.512 F1500.
G2 X17.873 Y37.589 I24.115 J-69.159
X20.478 Y38.261 I8.546 J-27.744
G3 X20.451 Y38.448 I-0.019 J0.092
X18.064 Y38.101 I1.327 J-17.535
X15.731 Y37.488 I5.767 J-26.685
G2 X15.384 Y37.393 I-1.54 J4.958
G3 X15.041 Y37.287 I0.627 J-2.656
X14.859 Y36.902 I0.109 J-0.288
X15.057 Y36.73 I0.245 J0.083
X15.151 Y36.722 I0.092 J0.504
G2 X16.211 Y36.186 I0.004 J-1.309
G3 X17.343 Y35.828 I0.811 J0.594
G2 X18.693 Y36.277 I51.063 J-151.325
X21.654 Y36.926 I4.692 J-14.323
X23.301 Y37.029 I1.796 J-15.538
X24.933 Y36.776 I0.048 J-5.079
X25.968 Y36.311 I-1.688 J-5.145
X26.873 Y35.626 I-2.353 J-4.045
G3 X27.444 Y35.491 I0.398 J0.411
G2 X28.435 Y35.666 I1.147 J-3.607
G3 X28.684 Y35.966 I-0.011 J0.263
G2 X28.677 Y36.971 I3.748 J0.528
G3 X28.442 Y37.509 I-0.567 J0.072
X26.898 Y38.543 I-18.438 J-25.858
X25.228 Y39.358 I-4.616 J-7.348
X20.592 Y39.986 I-3.78 J-10.472
X15.985 Y39.166 I1.818 J-23.555
X14.552 Y38.72 I7.861 J-27.816
X13.512 Y37.802 I0.575 J-1.7
X13.425 Y36.418 I1.649 J-0.798
X14.391 Y35.362 I1.679 J0.566
X15.822 Y35.306 I0.786 J1.791
G2 X17.343 Y35.828 I52.584 J-150.803
G3 X17.449 Y35.886 Z-4.406 I-0.097 J0.302
X17.516 Y35.964 Z-4.337 I-0.203 J0.244
X17.546 Y36.026 Z-4.234 I-0.27 J0.167
X17.553 Y36.049 Z-4.113 I-0.3 J0.105
G0 Z5.
X24.427 Y26.624
Z2.57
G1 Z-0.93 F1500.
Y30.118 Z-1.052 F700.
G3 X24.109 I-0.159 J0.
G1 Y14.56 Z-1.595
G3 X24.427 I0.159 J0.
G1 Y30.118 Z-2.139
G3 X24.109 I-0.159 J0.
G1 Y14.56 Z-2.682
G3 X24.427 I0.159 J0.
G1 Y30.118 Z-3.225
G3 X24.109 I-0.159 J0.
G1 Y14.56 Z-3.768
G3 X24.427 I0.159 J0.
G1 Y30.118 Z-4.312
G3 X24.109 I-0.159 J0.
G1 Y26.73 Z-4.43
X24.049 Y26.068
G2 X23.574 Y26.112 I-0.238 J0.022
X23.96 Y26.277 I0.238 J-0.022
X24.778 Y25.556 I-6.226 J-7.894 F1500.
G3 X25.005 Y25.671 I0.094 J0.096
X24.896 Y26.385 I-97.293 J-14.484
X24.761 Y27.094 I-10.956 J-1.713
X24.38 Y27.329 I-0.305 J-0.068
G2 X23.198 Y27.194 I-1.103 J4.427
G3 X23.112 Y26.964 I-0.002 J-0.13
X23.96 Y26.277 I25.972 J31.167
X24.065 Y26.219 Z-4.406 I0.203 J0.244
X24.167 Y26.203 Z-4.337 I0.097 J0.302
X24.235 Y26.212 Z-4.234 I-0.004 J0.317
X24.258 Y26.218 Z-4.113 I-0.072 J0.309
G1 Z-0.93
X24.573 Y17.564
X28.067 Z-1.052 F700.
G3 Y17.882 I0. J0.159
G1 X12.51 Z-1.595
G3 Y17.564 I0. J-0.159
G1 X28.067 Z-2.139
G3 Y17.882 I0. J0.159
G1 X12.51 Z-2.682
G3 Y17.564 I0. J-0.159
G1 X28.067 Z-3.225
G3 Y17.882 I0. J0.159
G1 X12.51 Z-3.768
G3 Y17.564 I0. J-0.159
G1 X28.067 Z-4.312
G3 Y17.882 I0. J0.159
G1 X24.679 Z-4.43
G2 X24.618 Y17.889 I0. J0.264
G1 X23.955 Y18.048
G2 X24.078 Y18.561 I0.062 J0.257
X24.213 Y18.129 I-0.062 J-0.257
X24.034 Y17.934 I-7.24 J6.454 F1500.
G3 X24.041 Y17.492 I0.231 J-0.218
G2 X24.984 Y16.274 I-4.415 J-4.395
G3 X25.31 Y16.365 I0.15 J0.09
G1 X25.306 Y17.356
G3 X25.282 Y19.031 I-85.129 J-0.343
X25.032 Y19.118 I-0.141 J-0.003
X24.542 Y18.519 I30.998 J-25.828
G2 X24.213 Y18.129 I-7.57 J6.065
X22.974 Y17.856 I-0.808 J0.721
G3 X21.707 Y17.91 I-0.704 J-1.625
G2 X21.641 Y17.889 I-1.081 J3.224
G3 X21.627 Y17.651 I0.038 J-0.122
G2 X24.097 Y15.24 I-2.095 J-4.619
G3 X24.617 Y14.915 I0.52 J0.253
X25.058 Y14.929 I0. J7.072
G2 X25.5 Y14.943 I0.442 J-7.058
G3 X26.536 Y15.973 I0. J1.036
X26.535 Y17.434 I-97.64 J0.622
X26.386 Y22.542 I-124.502 J-1.07
X26.238 Y24.824 I-79.883 J-4.012
X25.917 Y27.088 I-18.341 J-1.448
G2 X25.855 Y27.407 I15.345 J3.161
G3 X25.783 Y27.723 I-3.756 J-0.693
X25.608 Y28.071 I-0.952 J-0.261
G2 X25.261 Y28.612 I2.688 J2.107
G3 X24.87 Y28.735 I-0.257 J-0.132
G2 X22.967 Y28.355 I-1.592 J3.022
G3 X22.643 Y28.331 I-0.09 J-0.983
X21.702 Y28.07 I3.773 J-15.427
X20.772 Y27.774 I21.977 J-70.705
X20.713 Y27.47 I0.055 J-0.168
X22.254 Y26.214 I57.37 J68.846
G2 X23.796 Y24.958 I-55.829 J-70.101
X24.239 Y20.086 I-2.215 J-2.658
X23.098 Y18.8 I-21.405 J17.835
X21.707 Y17.91 I-2.473 J2.333
X21.641 Y17.889 Z-4.422 I-1.081 J3.224
G3 X21.556 Y17.8 Z-4.361 I0.038 J-0.122
X21.563 Y17.714 Z-4.251 I0.123 J-0.033
X21.58 Y17.687 Z-4.113 I0.116 J0.053
G1 Z-0.93
X4.554 Y16.65
X20.059 Z-1.471 F700.
G3 Y16.967 I0. J0.159
G1 X4.502 Z-2.015
G3 Y16.65 I0. J-0.159
G1 X20.059 Z-2.558
G3 Y16.967 I0. J0.159
G1 X4.502 Z-3.101
G3 Y16.65 I0. J-0.159
G1 X20.059 Z-3.645
G3 Y16.967 I0. J0.159
G1 X4.502 Z-4.188
G3 Y16.65 I0. J-0.159
G1 X11.436 Z-4.43
X12.133 Y16.717
G2 X12.182 Y16.219 I0.024 J-0.249
X11.931 Y16.575 I-0.024 J0.249
X13.067 Y18.356 I7.591 J-3.588 F1500.
G3 X13.028 Y18.79 I-0.237 J0.197
G1 X12.531 Y19.204
G3 X12.178 Y19.122 I-0.145 J-0.175
G2 X9.261 Y15.386 I-8.959 J3.988
G3 X9.172 Y15.204 I0.141 J-0.182
G1 Y14.981
G3 X9.431 Y14.855 I0.16 J0.
G2 X11.732 Y16.346 I9.589 J-12.27
G3 X11.913 Y16.537 I-0.194 J0.366
G2 X11.931 Y16.575 I7.609 J-3.55
X13.771 Y17.566 I1.592 J-0.753
G3 X15.799 Y18.073 I0.39 J2.745
G2 X16.302 Y18.406 I3.731 J-5.099
G3 X16.331 Y18.758 I-0.11 J0.186
X13.558 Y21.006 I-83.653 J-100.385
G2 X11.81 Y24.118 I2.892 J3.67
X11.795 Y24.692 I3.059 J0.367
X11.852 Y25.263 I9.088 J-0.609
G3 X11.584 Y25.606 I-0.303 J0.04
G1 X10.773 Y25.701
G3 X10.559 Y25.442 I-0.023 J-0.199
G2 X10.892 Y22.142 I-7.614 J-2.435
X9.81 Y19.008 I-7.418 J0.807
X8.75 Y17.694 I-5.885 J3.661
X7.428 Y16.644 I-5.963 J6.148
G3 X7.082 Y16.01 I0.409 J-0.634
G1 Y9.71
G3 X7.328 Y9.621 I0.139 J0.
X7.967 Y10.422 I-17.924 J14.936
G2 X8.605 Y11.224 I18.566 J-14.138
X10.654 Y13.184 I9.669 J-8.057
X13.062 Y14.679 I9.093 J-11.952
G3 X13.67 Y15.336 I-0.56 J1.128
G2 X15.799 Y18.073 I5.86 J-2.362
X16.934 Y18.085 I0.576 J-0.788
G3 X18.055 Y17.904 I0.749 J1.071
G2 X18.682 Y18.048 I1.464 J-4.925
G3 X18.736 Y18.3 I-0.022 J0.136
X18.579 Y18.403 I-14.668 J-22.172
G2 X18.427 Y18.515 I0.878 J1.348
G3 X16.304 Y20.263 I-149.695 J-179.639
G2 X14.181 Y22.012 I147.572 J181.387
X13.022 Y24.009 I2.153 J2.584
X13.389 Y26.289 I3.461 J0.613
G3 X13.234 Y26.587 I-0.179 J0.096
G1 X8.629 Y27.128
G3 X8.511 Y26.926 I-0.015 J-0.127
G2 X6.244 Y17.304 I-5.249 J-3.841
G3 X5.915 Y16.764 I0.28 J-0.54
G1 Y7.728
G3 X6.228 Y7.415 I0.313 J0.
G1 X6.663
G3 X7.231 Y7.681 I0. J0.739
X8.367 Y9.079 I-56.486 J47.07
G2 X9.502 Y10.476 I57.644 J-45.691
X11.6 Y12.443 I9.017 J-7.514
X14.096 Y13.874 I7.724 J-10.584
G3 X14.591 Y14.434 I-0.353 J0.812
G2 X18.055 Y17.904 I4.927 J-1.456
G3 X19.199 Y19.131 I-0.471 J1.585
X18.657 Y20.719 I-1.574 J0.349
G1 X15.379 Y23.45
G2 X15.176 Y25.686 I1.016 J1.22
G1 X16.136 Y26.838
G2 X18.372 Y27.041 I1.22 J-1.016
G1 X22.597 Y23.52
G2 X22.801 Y21.284 I-1.016 J-1.22
G1 X21.84 Y20.132
G2 X19.605 Y19.929 I-1.22 J1.016
G1 X18.657 Y20.719
G3 X18.551 Y20.777 Z-4.406 I-0.203 J-0.244
X18.449 Y20.792 Z-4.337 I-0.097 J-0.302
X18.381 Y20.784 Z-4.234 I0.004 J-0.317
X18.358 Y20.777 Z-4.113 I0.072 J-0.309
G0 Z5.
X29.857 Y33.745
Z2.57
G1 Z-0.93 F1500.
X35.422 Y25.417 Z-1.28 F700.
G3 X35.642 Y25.373 I0.132 J0.088
X35.686 Y25.593 I-0.088 J0.132
G1 X27.043 Y38.529 Z-1.823
G3 X26.779 Y38.352 I-0.132 J-0.088
G1 X35.422 Y25.417 Z-2.366
G3 X35.642 Y25.373 I0.132 J0.088
X35.686 Y25.593 I-0.088 J0.132
G1 X27.043 Y38.529 Z-2.91
G3 X26.779 Y38.352 I-0.132 J-0.088
G1 X35.422 Y25.417 Z-3.453
G3 X35.642 Y25.373 I0.132 J0.088
X35.686 Y25.593 I-0.088 J0.132
G1 X27.043 Y38.529 Z-3.996
G3 X26.779 Y38.352 I-0.132 J-0.088
G1 X33.681 Y28.023 Z-4.43
G3 X33.886 Y28.012 I0.107 J0.071
G1 X33.89 Y28.016
G3 X33.917 Y28.125 I-0.099 J0.082
X33.673 Y29.106 I-15.075 J-3.225 F1500.
X33.254 Y30.305 I-10.278 J-2.915
X33.082 Y30.241 I-0.085 J-0.035
G2 X33.599 Y28.443 I-26.552 J-8.611
X33.985 Y26.612 I-23.477 J-5.909
X34.098 Y25.71 I-10.028 J-1.714
G3 X34.187 Y24.805 I24.777 J1.983
X34.372 Y24.818 I0.092 J0.011
X34.235 Y26.353 I-11.926 J-0.29
X33.969 Y27.871 I-37.745 J-5.842
X33.917 Y28.125 I-15.128 J-2.971
G2 X34.388 Y29.388 I1.226 J0.262
G3 X34.741 Y30.69 I-0.662 J0.878
G1 X34.519 Y31.222
X34.322 Y31.629
X34.103 Y32.038
X33.85 Y32.47
X33.58 Y32.889
X33.29 Y33.297
X32.985 Y33.689
X32.623 Y34.113
X32.241 Y34.518
X31.838 Y34.904
X31.387 Y35.299
G2 X31.884 Y37.984 I1.045 J1.195
G1 X33.509 Y38.582
G2 X35.074 Y38.311 I0.548 J-1.49
G1 X35.463 Y37.987
G2 X35.912 Y38.09 I1.036 J-3.487
G1 Y43.145
X35.121 Y44.412
X34.884
G2 X35.171 Y43.183 I-1.275 J-0.946
G1 X34.903 Y41.707
G2 X33.058 Y40.428 I-1.562 J0.284
G1 X32.634 Y40.505
X31.859 Y39.575
G2 X29.658 Y39.343 I-1.22 J1.016
G1 X29.048 Y39.823
X28.456 Y40.235
X27.845 Y40.609
X27.213 Y40.946
X26.611 Y41.222
X25.989 Y41.467
X25.348 Y41.678
X24.691 Y41.855
X24.085 Y41.986
X23.47 Y42.088
X22.848 Y42.162
X22.22 Y42.21
X21.594 Y42.232
X20.964 Y42.23
X20.329 Y42.204
X19.691 Y42.156
X19. Y42.079
X18.307 Y41.979
X17.614 Y41.857
X16.922 Y41.714
X16.146 Y41.53
X15.376 Y41.323
X14.61 Y41.095
X13.842 Y40.846
G3 X11.301 Y35.701 I1.308 J-3.846
X16.539 Y33.183 I3.849 J1.299
G2 X16.56 Y33.19 I0.535 J-1.495
G1 X17.99 Y33.688
G2 X18.04 Y33.705 I0.523 J-1.499
G1 X19.375 Y34.121
G2 X19.424 Y34.135 I0.472 J-1.516
G1 X20.021 Y34.301
G2 X20.062 Y34.311 I0.423 J-1.53
G1 X20.641 Y34.455
G2 X20.69 Y34.467 I0.383 J-1.541
G1 X21.238 Y34.584
G2 X21.3 Y34.596 I0.333 J-1.552
G1 X21.823 Y34.687
G2 X21.911 Y34.699 I0.271 J-1.564
G1 X22.468 Y34.764
G2 X22.602 Y34.774 I0.182 J-1.577
G1 X23.135 Y34.79
G2 X23.288 Y34.787 I0.048 J-1.587
G1 X23.567 Y34.769
G2 X23.727 Y34.75 I-0.105 J-1.584
G1 X24.004 Y34.703
G2 X24.234 Y34.646 I-0.264 J-1.565
G1 X24.497 Y34.56
G2 X24.826 Y34.409 I-0.495 J-1.508
G1 X25.061 Y34.266
G2 X25.457 Y31.892 I-0.824 J-1.357
G1 X24.497 Y30.74
G2 X22.837 Y30.231 I-1.22 J1.016
G1 X22.646 Y30.202
X22.347 Y30.14
X22.012 Y30.058
X21.622 Y29.952
X21.192 Y29.826
X20.721 Y29.68
X20.172 Y29.501
X19.583 Y29.302
X18.881 Y29.056
X18.135 Y28.788
G2 X14.13 Y28.322 I-2.985 J8.212
G1 X7.407 Y29.112
X4.088
Y27.696
G2 X7.932 Y23.095 I-0.831 J-4.601
G1 Y23.08
G2 X4.088 Y18.479 I-4.675 J0.
G1 Y5.588
X7.865
X10.941 Y9.278
G2 X16.228 Y12.698 I8.134 J-6.778
X19.37 Y16.283 I3.272 J0.302
X22.785 Y13.087 I0.13 J-3.283
G1 X25.5
G3 X28.413 Y15.997 I0. J2.913
G1 X28.407 Y17.45
X28.387 Y18.916
X28.355 Y20.273
X28.307 Y21.607
X28.248 Y22.793
X28.172 Y23.93
X28.079 Y24.987
X27.969 Y25.966
X27.816 Y26.992
X27.728 Y27.461
X27.63 Y27.9
X27.511 Y28.331
X27.371 Y28.729
X27.312 Y28.861
X27.259 Y28.959
X27.237 Y28.99
X27.158 Y29.07
G2 X26.732 Y30.448 I1.138 J1.107
G1 X27.027 Y32.155
G2 X29.668 Y33.051 I1.564 J-0.27
G1 X29.884 Y32.852
G2 X29.985 Y32.749 I-1.077 J-1.167
G1 X30.183 Y32.53
G2 X30.293 Y32.393 I-1.178 J-1.064
G1 X30.639 Y31.914
G2 X30.735 Y31.762 I-1.288 J-0.928
G1 X31.027 Y31.242
G2 X31.088 Y31.122 I-1.385 J-0.776
G1 X31.34 Y30.565
G2 X31.379 Y30.472 I-1.446 J-0.655
G1 X31.58 Y29.939
G2 X31.606 Y29.867 I-1.485 J-0.562
G1 X31.778 Y29.334
G2 X31.796 Y29.275 I-1.51 J-0.49
G1 X31.945 Y28.746
G2 X31.959 Y28.696 I-1.528 J-0.431
G1 X32.096 Y28.14
G2 X32.106 Y28.097 I-1.541 J-0.381
G1 X32.223 Y27.561
G2 X32.23 Y27.524 I-1.551 J-0.338
G1 X32.338 Y26.965
G2 X32.344 Y26.931 I-1.559 J-0.301
G1 X32.444 Y26.348
G2 X32.449 Y26.318 I-1.565 J-0.267
G1 X32.54 Y25.713
G2 X32.544 Y25.685 I-1.57 J-0.237
G1 X32.626 Y25.068
G2 X32.63 Y25.042 I-1.574 J-0.21
G1 X32.704 Y24.405
G2 X32.708 Y24.371 I-1.577 J-0.184
G1 X32.835 Y23.038
G2 X32.838 Y23.008 I-1.58 J-0.151
G1 X32.894 Y22.261
G2 X32.896 Y22.241 I-1.583 J-0.12
G1 X32.944 Y21.474
G2 X32.946 Y21.448 I-1.584 J-0.101
G1 X33.02 Y19.859
G2 X33.021 Y19.835 I-1.586 J-0.074
G1 X33.051 Y18.917
G2 Y18.901 I-1.587 J-0.05
G1 X33.063 Y18.329
G2 X34.25 Y18.862 I1.187 J-1.054
G1 X34.75
G2 X35.912 Y18.355 I0. J-1.587
G1 Y23.981
X35.883 Y25.183
X35.793 Y26.359
X35.649 Y27.431
X35.442 Y28.485
X35.195 Y29.424
X34.887 Y30.338
X34.741 Y30.69
G3 X34.358 Y30.583 I-0.185 J-0.077
G1 X35.026 Y26.044
G3 X35.058 Y25.962 I0.198 J0.029
G1 X35.422 Y25.417 Z-4.453 F700.
G3 X35.642 Y25.373 I0.132 J0.088
X35.686 Y25.593 I-0.088 J0.132
G1 X27.043 Y38.529 Z-4.996
G3 X26.779 Y38.352 I-0.132 J-0.088
G1 X33.681 Y28.023 Z-5.43
G3 X33.918 Y28.094 I0.108 J0.072
G1 X33.915 Y28.133
G3 X33.673 Y29.106 I-15.074 J-3.233 F1500.
X33.254 Y30.305 I-10.278 J-2.915
X33.082 Y30.241 I-0.085 J-0.035
G2 X33.599 Y28.443 I-26.552 J-8.611
X33.985 Y26.612 I-23.477 J-5.909
X34.098 Y25.71 I-10.028 J-1.714
G3 X34.187 Y24.805 I24.777 J1.983
X34.372 Y24.818 I0.092 J0.011
X34.235 Y26.353 I-11.926 J-0.29
X33.969 Y27.871 I-37.745 J-5.842
X33.915 Y28.133 I-15.128 J-2.971
X33.889 Y28.252 Z-5.406 I-15.074 J-3.233
X33.866 Y28.352 Z-5.337 I-15.048 J-3.351
X33.851 Y28.419 Z-5.234 I-15.025 J-3.452
X33.845 Y28.443 Z-5.113 I-15.01 J-3.519
G0 Z5.
X24.427 Y26.624
Z2.57
G1 Z-1.93 F1500.
Y30.118 Z-2.052 F700.
G3 X24.109 I-0.159 J0.
G1 Y14.56 Z-2.595
G3 X24.427 I0.159 J0.
G1 Y30.118 Z-3.139
G3 X24.109 I-0.159 J0.
G1 Y14.56 Z-3.682
G3 X24.427 I0.159 J0.
G1 Y30.118 Z-4.225
G3 X24.109 I-0.159 J0.
G1 Y14.56 Z-4.768
G3 X24.427 I0.159 J0.
G1 Y30.118 Z-5.312
G3 X24.109 I-0.159 J0.
G1 Y26.73 Z-5.43
X24.049 Y26.068
G2 X23.574 Y26.112 I-0.238 J0.022
X23.96 Y26.277 I0.238 J-0.022
X24.778 Y25.556 I-6.226 J-7.894 F1500.
G3 X25.005 Y25.671 I0.094 J0.096
X24.896 Y26.385 I-97.293 J-14.484
X24.761 Y27.094 I-10.956 J-1.713
X24.38 Y27.329 I-0.305 J-0.068
G2 X23.198 Y27.194 I-1.103 J4.427
G3 X23.112 Y26.964 I-0.002 J-0.13
X23.96 Y26.277 I25.972 J31.167
X24.065 Y26.219 Z-5.406 I0.203 J0.244
X24.167 Y26.203 Z-5.337 I0.097 J0.302
X24.235 Y26.212 Z-5.234 I-0.004 J0.317
X24.258 Y26.218 Z-5.113 I-0.072 J0.309
G1 Z-1.93
X24.573 Y17.564
X28.067 Z-2.052 F700.
G3 Y17.882 I0. J0.159
G1 X12.51 Z-2.595
G3 Y17.564 I0. J-0.159
G1 X28.067 Z-3.139
G3 Y17.882 I0. J0.159
G1 X12.51 Z-3.682
G3 Y17.564 I0. J-0.159
G1 X28.067 Z-4.225
G3 Y17.882 I0. J0.159
G1 X12.51 Z-4.768
G3 Y17.564 I0. J-0.159
G1 X28.067 Z-5.312
G3 Y17.882 I0. J0.159
G1 X24.679 Z-5.43
G2 X24.616 Y17.89 I0. J0.263
G1 X23.957 Y18.054
G2 X24.085 Y18.564 I0.064 J0.255
X24.218 Y18.134 I-0.064 J-0.255
X24.034 Y17.934 I-7.245 J6.449 F1500.
G3 X24.041 Y17.492 I0.231 J-0.218
G2 X24.984 Y16.274 I-4.415 J-4.395
G3 X25.31 Y16.365 I0.15 J0.09
G1 X25.306 Y17.356
G3 X25.282 Y19.031 I-85.129 J-0.343
X25.032 Y19.118 I-0.141 J-0.003
X24.542 Y18.519 I30.998 J-25.828
G2 X24.218 Y18.134 I-7.57 J6.065
X22.98 Y17.86 I-0.809 J0.72
G3 X21.713 Y17.912 I-0.701 J-1.624
G2 X21.641 Y17.889 I-1.087 J3.222
G3 X21.627 Y17.651 I0.038 J-0.122
G2 X24.097 Y15.24 I-2.095 J-4.619
G3 X24.617 Y14.915 I0.52 J0.253
X25.058 Y14.929 I0. J7.072
G2 X25.5 Y14.943 I0.442 J-7.058
G3 X26.536 Y15.973 I0. J1.036
X26.535 Y17.434 I-97.64 J0.622
X26.386 Y22.542 I-124.502 J-1.07
X26.238 Y24.824 I-79.883 J-4.012
X25.917 Y27.088 I-18.341 J-1.448
G2 X25.855 Y27.407 I15.345 J3.161
G3 X25.783 Y27.723 I-3.756 J-0.693
X25.608 Y28.071 I-0.952 J-0.261
G2 X25.261 Y28.612 I2.688 J2.107
G3 X24.87 Y28.735 I-0.257 J-0.132
G2 X22.967 Y28.355 I-1.592 J3.022
G3 X22.643 Y28.331 I-0.09 J-0.983
X21.702 Y28.07 I3.773 J-15.427
X20.772 Y27.774 I21.977 J-70.705
X20.713 Y27.47 I0.055 J-0.168
X22.254 Y26.214 I57.37 J68.846
G2 X23.796 Y24.958 I-55.829 J-70.101
X24.239 Y20.086 I-2.215 J-2.658
X23.098 Y18.8 I-21.405 J17.835
X21.713 Y17.912 I-2.473 J2.333
X21.641 Y17.889 Z-5.421 I-1.087 J3.222
G3 X21.557 Y17.803 Z-5.359 I0.038 J-0.122
X21.561 Y17.718 Z-5.249 I0.122 J-0.036
X21.576 Y17.692 Z-5.113 I0.118 J0.049
G1 Z-1.93
X4.554 Y16.65
X20.059 Z-2.471 F700.
G3 Y16.967 I0. J0.159
G1 X4.502 Z-3.015
G3 Y16.65 I0. J-0.159
G1 X20.059 Z-3.558
G3 Y16.967 I0. J0.159
G1 X4.502 Z-4.101
G3 Y16.65 I0. J-0.159
G1 X20.059 Z-4.645
G3 Y16.967 I0. J0.159
G1 X4.502 Z-5.188
G3 Y16.65 I0. J-0.159
G1 X11.436 Z-5.43
X12.133 Y16.717
G2 X12.182 Y16.219 I0.024 J-0.249
X11.931 Y16.575 I-0.024 J0.249
X13.067 Y18.356 I7.591 J-3.588 F1500.
G3 X13.028 Y18.79 I-0.237 J0.197
G1 X12.531 Y19.204
G3 X12.178 Y19.122 I-0.145 J-0.175
G2 X9.261 Y15.386 I-8.959 J3.988
G3 X9.172 Y15.204 I0.141 J-0.182
G1 Y14.981
G3 X9.431 Y14.855 I0.16 J0.
G2 X11.732 Y16.346 I9.589 J-12.27
G3 X11.913 Y16.537 I-0.194 J0.366
G2 X11.931 Y16.575 I7.609 J-3.55
X13.771 Y17.566 I1.592 J-0.753
G3 X15.799 Y18.073 I0.39 J2.745
G2 X16.302 Y18.406 I3.731 J-5.099
G3 X16.331 Y18.758 I-0.11 J0.186
X13.558 Y21.006 I-83.653 J-100.385
G2 X11.81 Y24.118 I2.892 J3.67
X11.795 Y24.692 I3.059 J0.367
X11.852 Y25.263 I9.088 J-0.609
G3 X11.584 Y25.606 I-0.303 J0.04
G1 X10.773 Y25.701
G3 X10.559 Y25.442 I-0.023 J-0.199
G2 X10.892 Y22.142 I-7.614 J-2.435
X9.81 Y19.008 I-7.418 J0.807
X8.75 Y17.694 I-5.885 J3.661
X7.428 Y16.644 I-5.963 J6.148
G3 X7.082 Y16.01 I0.409 J-0.634
G1 Y9.71
G3 X7.328 Y9.621 I0.139 J0.
X7.967 Y10.422 I-17.924 J14.936
G2 X8.605 Y11.224 I18.566 J-14.138
X10.654 Y13.184 I9.669 J-8.057
X13.062 Y14.679 I9.093 J-11.952
G3 X13.67 Y15.336 I-0.56 J1.128
G2 X15.799 Y18.073 I5.86 J-2.362
X16.934 Y18.085 I0.576 J-0.788
G3 X18.055 Y17.904 I0.749 J1.071
G2 X18.682 Y18.048 I1.464 J-4.925
G3 X18.736 Y18.3 I-0.022 J0.136
X18.579 Y18.403 I-14.668 J-22.172
G2 X18.427 Y18.515 I0.878 J1.348
G3 X16.304 Y20.263 I-149.695 J-179.639
G2 X14.181 Y22.012 I147.572 J181.387
X13.022 Y24.009 I2.153 J2.584
X13.389 Y26.289 I3.461 J0.613
G3 X13.234 Y26.587 I-0.179 J0.096
G1 X8.629 Y27.128
G3 X8.511 Y26.926 I-0.015 J-0.127
G2 X6.244 Y17.304 I-5.249 J-3.841
G3 X5.915 Y16.764 I0.28 J-0.54
G1 Y7.728
G3 X6.228 Y7.415 I0.313 J0.
G1 X6.663
G3 X7.231 Y7.681 I0. J0.739
X8.367 Y9.079 I-56.486 J47.07
G2 X9.502 Y10.476 I57.644 J-45.691
X11.6 Y12.443 I9.017 J-7.514
X14.096 Y13.874 I7.724 J-10.584
G3 X14.591 Y14.434 I-0.353 J0.812
G2 X18.055 Y17.904 I4.927 J-1.456
G3 X19.199 Y19.131 I-0.471 J1.585
X18.657 Y20.719 I-1.574 J0.349
G1 X15.379 Y23.45
G2 X15.176 Y25.686 I1.016 J1.22
G1 X16.136 Y26.838
G2 X18.372 Y27.041 I1.22 J-1.016
G1 X22.597 Y23.52
G2 X22.801 Y21.284 I-1.016 J-1.22
G1 X21.84 Y20.132
G2 X19.605 Y19.929 I-1.22 J1.016
G1 X18.657 Y20.719
G3 X18.551 Y20.777 Z-5.406 I-0.203 J-0.244
X18.449 Y20.792 Z-5.337 I-0.097 J-0.302
X18.381 Y20.784 Z-5.234 I0.004 J-0.317
X18.358 Y20.777 Z-5.113 I0.072 J-0.309
G0 Z5.
X14.75 Y37.159
Z2.57
G1 Z-1.93 F1500.
X11.509 Z-2.043 F700.
G3 Y36.841 I0. J-0.159
G1 X27.066 Z-2.586
G3 Y37.159 I0. J0.159
G1 X11.509 Z-3.13
G3 Y36.841 I0. J-0.159
G1 X27.066 Z-3.673
G3 Y37.159 I0. J0.159
G1 X11.509 Z-4.216
G3 Y36.841 I0. J-0.159
G1 X27.066 Z-4.76
G3 Y37.159 I0. J0.159
G1 X11.509 Z-5.303
G3 Y36.841 I0. J-0.159
G1 X15.15 Z-5.43
G2 X15.21 Y36.782 I0. J-0.06
G1 X15.211 Y36.663
G2 X15.091 Y36.662 I-0.06 J0.
X15.151 Y36.722 I0.06 J0.
G3 X15.318 Y36.751 I-0.001 J0.512 F1500.
G2 X17.873 Y37.589 I24.115 J-69.159
X20.478 Y38.261 I8.546 J-27.744
G3 X20.451 Y38.448 I-0.019 J0.092
X18.064 Y38.101 I1.327 J-17.535
X15.731 Y37.488 I5.767 J-26.685
G2 X15.384 Y37.393 I-1.54 J4.958
G3 X15.041 Y37.287 I0.627 J-2.656
X14.859 Y36.902 I0.109 J-0.288
X15.057 Y36.73 I0.245 J0.083
X15.151 Y36.722 I0.092 J0.504
G2 X16.211 Y36.186 I0.004 J-1.309
G3 X17.343 Y35.828 I0.811 J0.594
G2 X18.693 Y36.277 I51.063 J-151.325
X21.654 Y36.926 I4.692 J-14.323
X23.301 Y37.029 I1.796 J-15.538
X24.933 Y36.776 I0.048 J-5.079
X25.968 Y36.311 I-1.688 J-5.145
X26.873 Y35.626 I-2.353 J-4.045
G3 X27.444 Y35.491 I0.398 J0.411
G2 X28.435 Y35.666 I1.147 J-3.607
G3 X28.684 Y35.966 I-0.011 J0.263
G2 X28.677 Y36.971 I3.748 J0.528
G3 X28.442 Y37.509 I-0.567 J0.072
X26.898 Y38.543 I-18.438 J-25.858
X25.228 Y39.358 I-4.616 J-7.348
X20.592 Y39.986 I-3.78 J-10.472
X15.985 Y39.166 I1.818 J-23.555
X14.552 Y38.72 I7.861 J-27.816
X13.512 Y37.802 I0.575 J-1.7
X13.425 Y36.418 I1.649 J-0.798
X14.391 Y35.362 I1.679 J0.566
X15.822 Y35.306 I0.786 J1.791
G2 X17.343 Y35.828 I52.584 J-150.803
X19.339 Y35.284 I0.593 J-1.757
G3 X21.289 Y34.594 I1.58 J1.366
G2 X21.3 Y34.596 I0.282 J-1.562
G1 X21.823 Y34.687
G2 X21.911 Y34.699 I0.271 J-1.564
G1 X22.468 Y34.764
G2 X22.602 Y34.774 I0.182 J-1.577
G1 X23.135 Y34.79
G2 X23.288 Y34.787 I0.048 J-1.587
G1 X23.567 Y34.769
G2 X23.727 Y34.75 I-0.105 J-1.584
G1 X24.004 Y34.703
G2 X24.234 Y34.646 I-0.264 J-1.565
G1 X24.497 Y34.56
G2 X24.826 Y34.409 I-0.495 J-1.508
G1 X25.061 Y34.266
G2 X25.457 Y31.892 I-0.824 J-1.357
G1 X24.497 Y30.74
G2 X22.837 Y30.231 I-1.22 J1.016
G1 X22.646 Y30.202
X22.347 Y30.14
X22.012 Y30.058
X21.622 Y29.952
X21.192 Y29.826
X20.721 Y29.68
X20.172 Y29.501
X19.583 Y29.302
X18.881 Y29.056
X18.135 Y28.788
G2 X14.13 Y28.322 I-2.985 J8.212
G1 X7.407 Y29.112
X4.088
Y27.696
G2 X7.932 Y23.095 I-0.831 J-4.601
G1 Y23.08
G2 X4.088 Y18.479 I-4.675 J0.
G1 Y5.588
X7.865
X10.941 Y9.278
G2 X16.228 Y12.698 I8.134 J-6.778
X19.37 Y16.283 I3.272 J0.302
X22.785 Y13.087 I0.13 J-3.283
G1 X25.5
G3 X28.413 Y15.997 I0. J2.913
G1 X28.407 Y17.45
X28.387 Y18.916
X28.355 Y20.273
X28.307 Y21.607
X28.248 Y22.793
X28.172 Y23.93
X28.079 Y24.987
X27.969 Y25.966
X27.816 Y26.992
X27.728 Y27.461
X27.63 Y27.9
X27.511 Y28.331
X27.371 Y28.729
X27.312 Y28.861
X27.259 Y28.959
X27.237 Y28.99
X27.158 Y29.07
G2 X26.732 Y30.448 I1.138 J1.107
G1 X27.027 Y32.155
G2 X29.668 Y33.051 I1.564 J-0.27
G1 X29.884 Y32.852
G2 X29.985 Y32.749 I-1.077 J-1.167
G1 X30.183 Y32.53
G2 X30.293 Y32.393 I-1.178 J-1.064
G1 X30.639 Y31.914
G2 X30.735 Y31.762 I-1.288 J-0.928
G1 X31.027 Y31.242
G2 X31.088 Y31.122 I-1.385 J-0.776
G1 X31.34 Y30.565
G2 X31.379 Y30.472 I-1.446 J-0.655
G1 X31.58 Y29.939
G2 X31.606 Y29.867 I-1.485 J-0.562
G1 X31.778 Y29.334
G2 X31.796 Y29.275 I-1.51 J-0.49
G1 X31.945 Y28.746
G2 X31.959 Y28.696 I-1.528 J-0.431
G1 X32.096 Y28.14
G2 X32.106 Y28.097 I-1.541 J-0.381
G1 X32.223 Y27.561
G2 X32.23 Y27.524 I-1.551 J-0.338
G1 X32.338 Y26.965
G2 X32.344 Y26.931 I-1.559 J-0.301
G1 X32.444 Y26.348
G2 X32.449 Y26.318 I-1.565 J-0.267
G1 X32.54 Y25.713
G2 X32.544 Y25.685 I-1.57 J-0.237
G1 X32.626 Y25.068
G2 X32.63 Y25.042 I-1.574 J-0.21
G1 X32.704 Y24.405
G2 X32.708 Y24.371 I-1.577 J-0.184
G1 X32.835 Y23.038
G2 X32.838 Y23.008 I-1.58 J-0.151
G1 X32.894 Y22.261
G2 X32.896 Y22.241 I-1.583 J-0.12
G1 X32.944 Y21.474
G2 X32.946 Y21.448 I-1.584 J-0.101
G1 X33.02 Y19.859
G2 X33.021 Y19.835 I-1.586 J-0.074
G1 X33.051 Y18.917
G2 Y18.901 I-1.587 J-0.05
G1 X33.063 Y18.329
G2 X34.25 Y18.862 I1.187 J-1.054
G1 X34.75
G2 X35.912 Y18.355 I0. J-1.587
G1 Y23.981
X35.883 Y25.183
X35.793 Y26.359
X35.649 Y27.431
X35.442 Y28.485
X35.195 Y29.424
X34.887 Y30.338
X34.519 Y31.222
X34.322 Y31.629
X34.103 Y32.038
X33.85 Y32.47
X33.58 Y32.889
X33.29 Y33.297
X32.985 Y33.689
X32.623 Y34.113
X32.241 Y34.518
X31.838 Y34.904
X31.387 Y35.299
G2 X31.884 Y37.984 I1.045 J1.195
G1 X33.509 Y38.582
G2 X35.074 Y38.311 I0.548 J-1.49
G1 X35.463 Y37.987
G2 X35.912 Y38.09 I1.036 J-3.487
G1 Y43.145
X35.121 Y44.412
X34.884
G2 X35.171 Y43.183 I-1.275 J-0.946
G1 X34.903 Y41.707
G2 X33.058 Y40.428 I-1.562 J0.284
G1 X32.634 Y40.505
X31.859 Y39.575
G2 X29.658 Y39.343 I-1.22 J1.016
G1 X29.048 Y39.823
X28.456 Y40.235
X27.845 Y40.609
X27.213 Y40.946
X26.611 Y41.222
X25.989 Y41.467
X25.348 Y41.678
X24.691 Y41.855
X24.085 Y41.986
X23.47 Y42.088
X22.848 Y42.162
X22.22 Y42.21
X21.594 Y42.232
X20.964 Y42.23
X20.329 Y42.204
X19.691 Y42.156
X19. Y42.079
X18.307 Y41.979
X17.614 Y41.857
X16.922 Y41.714
X16.146 Y41.53
X15.376 Y41.323
X14.61 Y41.095
X13.842 Y40.846
G3 X11.301 Y35.701 I1.308 J-3.846
X16.539 Y33.183 I3.849 J1.299
G2 X16.56 Y33.19 I0.535 J-1.495
G1 X17.99 Y33.688
G2 X18.04 Y33.705 I0.523 J-1.499
G1 X19.375 Y34.121
G2 X19.424 Y34.135 I0.472 J-1.516
G1 X20.021 Y34.301
G2 X20.062 Y34.311 I0.423 J-1.53
G1 X20.641 Y34.455
G2 X20.69 Y34.467 I0.383 J-1.541
G1 X21.238 Y34.584
G2 X21.289 Y34.594 I0.333 J-1.552
G3 X21.327 Y34.977 I-0.035 J0.197
G1 X17.556 Y36.455
G2 X17.629 Y36.841 I0.073 J0.186
G1 X27.066 Z-5.76 F700.
G3 Y37.159 I0. J0.159
G1 X11.509 Z-6.303
G3 Y36.841 I0. J-0.159
G1 X15.15 Z-6.43
G2 X15.21 Y36.782 I0. J-0.06
G1 X15.211 Y36.663
G2 X15.091 Y36.662 I-0.06 J0.
X15.151 Y36.722 I0.06 J0.
G3 X15.318 Y36.751 I-0.001 J0.512 F1500.
G2 X17.873 Y37.589 I24.115 J-69.159
X20.478 Y38.261 I8.546 J-27.744
G3 X20.451 Y38.448 I-0.019 J0.092
X18.064 Y38.101 I1.327 J-17.535
X15.731 Y37.488 I5.767 J-26.685
G2 X15.384 Y37.393 I-1.54 J4.958
G3 X15.041 Y37.287 I0.627 J-2.656
X14.859 Y36.902 I0.109 J-0.288
X15.057 Y36.73 I0.245 J0.083
X15.151 Y36.722 I0.092 J0.504
G2 X16.211 Y36.186 I0.004 J-1.309
G3 X17.343 Y35.828 I0.811 J0.594
G2 X18.693 Y36.277 I51.063 J-151.325
X21.654 Y36.926 I4.692 J-14.323
X23.301 Y37.029 I1.796 J-15.538
X24.933 Y36.776 I0.048 J-5.079
X25.968 Y36.311 I-1.688 J-5.145
X26.873 Y35.626 I-2.353 J-4.045
G3 X27.444 Y35.491 I0.398 J0.411
G2 X28.435 Y35.666 I1.147 J-3.607
G3 X28.684 Y35.966 I-0.011 J0.263
G2 X28.677 Y36.971 I3.748 J0.528
G3 X28.442 Y37.509 I-0.567 J0.072
X26.898 Y38.543 I-18.438 J-25.858
X25.228 Y39.358 I-4.616 J-7.348
X20.592 Y39.986 I-3.78 J-10.472
X15.985 Y39.166 I1.818 J-23.555
X14.552 Y38.72 I7.861 J-27.816
X13.512 Y37.802 I0.575 J-1.7
X13.425 Y36.418 I1.649 J-0.798
X14.391 Y35.362 I1.679 J0.566
X15.822 Y35.306 I0.786 J1.791
G2 X17.343 Y35.828 I52.584 J-150.803
G3 X17.449 Y35.886 Z-6.406 I-0.097 J0.302
X17.516 Y35.964 Z-6.337 I-0.203 J0.244
X17.546 Y36.026 Z-6.234 I-0.27 J0.167
X17.553 Y36.049 Z-6.113 I-0.3 J0.105
G0 Z5.
X24.427 Y26.624
Z2.57
G1 Z-2.93 F1500.
Y30.118 Z-3.052 F700.
G3 X24.109 I-0.159 J0.
G1 Y14.56 Z-3.595
G3 X24.427 I0.159 J0.
G1 Y30.118 Z-4.139
G3 X24.109 I-0.159 J0.
G1 Y14.56 Z-4.682
G3 X24.427 I0.159 J0.
G1 Y30.118 Z-5.225
G3 X24.109 I-0.159 J0.
G1 Y14.56 Z-5.768
G3 X24.427 I0.159 J0.
G1 Y30.118 Z-6.312
G3 X24.109 I-0.159 J0.
G1 Y26.73 Z-6.43
X24.049 Y26.068
G2 X23.574 Y26.112 I-0.238 J0.022
X23.96 Y26.277 I0.238 J-0.022
X24.778 Y25.556 I-6.226 J-7.894 F1500.
G3 X25.005 Y25.671 I0.094 J0.096
X24.896 Y26.385 I-97.293 J-14.484
X24.761 Y27.094 I-10.956 J-1.713
X24.38 Y27.329 I-0.305 J-0.068
G2 X23.198 Y27.194 I-1.103 J4.427
G3 X23.112 Y26.964 I-0.002 J-0.13
X23.96 Y26.277 I25.972 J31.167
X24.065 Y26.219 Z-6.406 I0.203 J0.244
X24.167 Y26.203 Z-6.337 I0.097 J0.302
X24.235 Y26.212 Z-6.234 I-0.004 J0.317
X24.258 Y26.218 Z-6.113 I-0.072 J0.309
G1 Z-2.93
X24.573 Y17.564
X28.067 Z-3.052 F700.
G3 Y17.882 I0. J0.159
G1 X12.51 Z-3.595
G3 Y17.564 I0. J-0.159
G1 X28.067 Z-4.139
G3 Y17.882 I0. J0.159
G1 X12.51 Z-4.682
G3 Y17.564 I0. J-0.159
G1 X28.067 Z-5.225
G3 Y17.882 I0. J0.159
G1 X12.51 Z-5.768
G3 Y17.564 I0. J-0.159
G1 X28.067 Z-6.312
G3 Y17.882 I0. J0.159
G1 X24.679 Z-6.43
G2 X24.618 Y17.889 I0. J0.264
G1 X23.955 Y18.048
G2 X24.078 Y18.561 I0.062 J0.257
X24.213 Y18.129 I-0.062 J-0.257
X24.034 Y17.934 I-7.24 J6.454 F1500.
G3 X24.041 Y17.492 I0.231 J-0.218
G2 X24.984 Y16.274 I-4.415 J-4.395
G3 X25.31 Y16.365 I0.15 J0.09
G1 X25.306 Y17.356
G3 X25.282 Y19.031 I-85.129 J-0.343
X25.032 Y19.118 I-0.141 J-0.003
X24.542 Y18.519 I30.998 J-25.828
G2 X24.213 Y18.129 I-7.57 J6.065
X22.974 Y17.856 I-0.808 J0.721
G3 X21.707 Y17.91 I-0.704 J-1.625
G2 X21.641 Y17.889 I-1.081 J3.224
G3 X21.627 Y17.651 I0.038 J-0.122
G2 X24.097 Y15.24 I-2.095 J-4.619
G3 X24.617 Y14.915 I0.52 J0.253
X25.058 Y14.929 I0. J7.072
G2 X25.5 Y14.943 I0.442 J-7.058
G3 X26.536 Y15.973 I0. J1.036
X26.535 Y17.434 I-97.64 J0.622
X26.386 Y22.542 I-124.502 J-1.07
X26.238 Y24.824 I-79.883 J-4.012
X25.917 Y27.088 I-18.341 J-1.448
G2 X25.855 Y27.407 I15.345 J3.161
G3 X25.783 Y27.723 I-3.756 J-0.693
X25.608 Y28.071 I-0.952 J-0.261
G2 X25.261 Y28.612 I2.688 J2.107
G3 X24.87 Y28.735 I-0.257 J-0.132
G2 X22.967 Y28.355 I-1.592 J3.022
G3 X22.643 Y28.331 I-0.09 J-0.983
X21.702 Y28.07 I3.773 J-15.427
X20.772 Y27.774 I21.977 J-70.705
X20.713 Y27.47 I0.055 J-0.168
X22.254 Y26.214 I57.37 J68.846
G2 X23.796 Y24.958 I-55.829 J-70.101
X24.239 Y20.086 I-2.215 J-2.658
X23.098 Y18.8 I-21.405 J17.835
X21.707 Y17.91 I-2.473 J2.333
X21.641 Y17.889 Z-6.422 I-1.081 J3.224
G3 X21.556 Y17.8 Z-6.361 I0.038 J-0.122
X21.563 Y17.714 Z-6.251 I0.123 J-0.033
X21.58 Y17.687 Z-6.113 I0.116 J0.053
G1 Z-2.93
X4.554 Y16.65
X20.059 Z-3.471 F700.
G3 Y16.967 I0. J0.159
G1 X4.502 Z-4.015
G3 Y16.65 I0. J-0.159
G1 X20.059 Z-4.558
G3 Y16.967 I0. J0.159
G1 X4.502 Z-5.101
G3 Y16.65 I0. J-0.159
G1 X20.059 Z-5.645
G3 Y16.967 I0. J0.159
G1 X4.502 Z-6.188
G3 Y16.65 I0. J-0.159
G1 X11.436 Z-6.43
X12.133 Y16.717
G2 X12.182 Y16.219 I0.024 J-0.249
X11.931 Y16.575 I-0.024 J0.249
X13.067 Y18.356 I7.591 J-3.588 F1500.
G3 X13.028 Y18.79 I-0.237 J0.197
G1 X12.531 Y19.204
G3 X12.178 Y19.122 I-0.145 J-0.175
G2 X9.261 Y15.386 I-8.959 J3.988
G3 X9.172 Y15.204 I0.141 J-0.182
G1 Y14.981
G3 X9.431 Y14.855 I0.16 J0.
G2 X11.732 Y16.346 I9.589 J-12.27
G3 X11.913 Y16.537 I-0.194 J0.366
G2 X11.931 Y16.575 I7.609 J-3.55
X13.771 Y17.566 I1.592 J-0.753
G3 X15.799 Y18.073 I0.39 J2.745
G2 X16.302 Y18.406 I3.731 J-5.099
G3 X16.331 Y18.758 I-0.11 J0.186
X13.558 Y21.006 I-83.653 J-100.385
G2 X11.81 Y24.118 I2.892 J3.67
X11.795 Y24.692 I3.059 J0.367
X11.852 Y25.263 I9.088 J-0.609
G3 X11.584 Y25.606 I-0.303 J0.04
G1 X10.773 Y25.701
G3 X10.559 Y25.442 I-0.023 J-0.199
G2 X10.892 Y22.142 I-7.614 J-2.435
X9.81 Y19.008 I-7.418 J0.807
X8.75 Y17.694 I-5.885 J3.661
X7.428 Y16.644 I-5.963 J6.148
G3 X7.082 Y16.01 I0.409 J-0.634
G1 Y9.71
G3 X7.328 Y9.621 I0.139 J0.
X7.967 Y10.422 I-17.924 J14.936
G2 X8.605 Y11.224 I18.566 J-14.138
X10.654 Y13.184 I9.669 J-8.057
X13.062 Y14.679 I9.093 J-11.952
G3 X13.67 Y15.336 I-0.56 J1.128
G2 X15.799 Y18.073 I5.86 J-2.362
X16.934 Y18.085 I0.576 J-0.788
G3 X18.055 Y17.904 I0.749 J1.071
G2 X18.682 Y18.048 I1.464 J-4.925
G3 X18.736 Y18.3 I-0.022 J0.136
X18.579 Y18.403 I-14.668 J-22.172
G2 X18.427 Y18.515 I0.878 J1.348
G3 X16.304 Y20.263 I-149.695 J-179.639
G2 X14.181 Y22.012 I147.572 J181.387
X13.022 Y24.009 I2.153 J2.584
X13.389 Y26.289 I3.461 J0.613
G3 X13.234 Y26.587 I-0.179 J0.096
G1 X8.629 Y27.128
G3 X8.511 Y26.926 I-0.015 J-0.127
G2 X6.244 Y17.304 I-5.249 J-3.841
G3 X5.915 Y16.764 I0.28 J-0.54
G1 Y7.728
G3 X6.228 Y7.415 I0.313 J0.
G1 X6.663
G3 X7.231 Y7.681 I0. J0.739
X8.367 Y9.079 I-56.486 J47.07
G2 X9.502 Y10.476 I57.644 J-45.691
X11.6 Y12.443 I9.017 J-7.514
X14.096 Y13.874 I7.724 J-10.584
G3 X14.591 Y14.434 I-0.353 J0.812
G2 X18.055 Y17.904 I4.927 J-1.456
G3 X19.199 Y19.131 I-0.471 J1.585
X18.657 Y20.719 I-1.574 J0.349
G1 X15.379 Y23.45
G2 X15.176 Y25.686 I1.016 J1.22
G1 X16.136 Y26.838
G2 X18.372 Y27.041 I1.22 J-1.016
G1 X22.597 Y23.52
G2 X22.801 Y21.284 I-1.016 J-1.22
G1 X21.84 Y20.132
G2 X19.605 Y19.929 I-1.22 J1.016
G1 X18.657 Y20.719
G3 X18.551 Y20.777 Z-6.406 I-0.203 J-0.244
X18.449 Y20.792 Z-6.337 I-0.097 J-0.302
X18.381 Y20.784 Z-6.234 I0.004 J-0.317
X18.358 Y20.777 Z-6.113 I0.072 J-0.309
G0 Z5.
X29.857 Y33.745
Z2.57
G1 Z-2.93 F1500.
X35.422 Y25.417 Z-3.28 F700.
G3 X35.642 Y25.373 I0.132 J0.088
X35.686 Y25.593 I-0.088 J0.132
G1 X27.043 Y38.529 Z-3.823
G3 X26.779 Y38.352 I-0.132 J-0.088
G1 X35.422 Y25.417 Z-4.366
G3 X35.642 Y25.373 I0.132 J0.088
X35.686 Y25.593 I-0.088 J0.132
G1 X27.043 Y38.529 Z-4.91
G3 X26.779 Y38.352 I-0.132 J-0.088
G1 X35.422 Y25.417 Z-5.453
G3 X35.642 Y25.373 I0.132 J0.088
X35.686 Y25.593 I-0.088 J0.132
G1 X27.043 Y38.529 Z-5.996
G3 X26.779 Y38.352 I-0.132 J-0.088
G1 X33.681 Y28.023 Z-6.43
G3 X33.886 Y28.012 I0.107 J0.071
G1 X33.89 Y28.016
G3 X33.917 Y28.125 I-0.099 J0.082
X33.673 Y29.106 I-15.075 J-3.225 F1500.
X33.254 Y30.305 I-10.278 J-2.915
X33.082 Y30.241 I-0.085 J-0.035
G2 X33.599 Y28.443 I-26.552 J-8.611
X33.985 Y26.612 I-23.477 J-5.909
X34.098 Y25.71 I-10.028 J-1.714
G3 X34.187 Y24.805 I24.777 J1.983
X34.372 Y24.818 I0.092 J0.011
X34.235 Y26.353 I-11.926 J-0.29
X33.969 Y27.871 I-37.745 J-5.842
X33.917 Y28.125 I-15.128 J-2.971
G2 X34.388 Y29.388 I1.226 J0.262
G3 X34.741 Y30.69 I-0.662 J0.878
G1 X34.519 Y31.222
X34.322 Y31.629
X34.103 Y32.038
X33.85 Y32.47
X33.58 Y32.889
X33.29 Y33.297
X32.985 Y33.689
X32.623 Y34.113
X32.241 Y34.518
X31.838 Y34.904
X31.387 Y35.299
G2 X31.884 Y37.984 I1.045 J1.195
G1 X33.509 Y38.582
G2 X35.074 Y38.311 I0.548 J-1.49
G1 X35.463 Y37.987
G2 X35.912 Y38.09 I1.036 J-3.487
G1 Y43.145
X35.121 Y44.412
X34.884
G2 X35.171 Y43.183 I-1.275 J-0.946
G1 X34.903 Y41.707
G2 X33.058 Y40.428 I-1.562 J0.284
G1 X32.634 Y40.505
X31.859 Y39.575
G2 X29.658 Y39.343 I-1.22 J1.016
G1 X29.048 Y39.823
X28.456 Y40.235
X27.845 Y40.609
X27.213 Y40.946
X26.611 Y41.222
X25.989 Y41.467
X25.348 Y41.678
X24.691 Y41.855
X24.085 Y41.986
X23.47 Y42.088
X22.848 Y42.162
X22.22 Y42.21
X21.594 Y42.232
X20.964 Y42.23
X20.329 Y42.204
X19.691 Y42.156
X19. Y42.079
X18.307 Y41.979
X17.614 Y41.857
X16.922 Y41.714
X16.146 Y41.53
X15.376 Y41.323
X14.61 Y41.095
X13.842 Y40.846
G3 X11.301 Y35.701 I1.308 J-3.846
X16.539 Y33.183 I3.849 J1.299
G2 X16.56 Y33.19 I0.535 J-1.495
G1 X17.99 Y33.688
G2 X18.04 Y33.705 I0.523 J-1.499
G1 X19.375 Y34.121
G2 X19.424 Y34.135 I0.472 J-1.516
G1 X20.021 Y34.301
G2 X20.062 Y34.311 I0.423 J-1.53
G1 X20.641 Y34.455
G2 X20.69 Y34.467 I0.383 J-1.541
G1 X21.238 Y34.584
G2 X21.3 Y34.596 I0.333 J-1.552
G1 X21.823 Y34.687
G2 X21.911 Y34.699 I0.271 J-1.564
G1 X22.468 Y34.764
G2 X22.602 Y34.774 I0.182 J-1.577
G1 X23.135 Y34.79
G2 X23.288 Y34.787 I0.048 J-1.587
G1 X23.567 Y34.769
G2 X23.727 Y34.75 I-0.105 J-1.584
G1 X24.004 Y34.703
G2 X24.234 Y34.646 I-0.264 J-1.565
G1 X24.497 Y34.56
G2 X24.826 Y34.409 I-0.495 J-1.508
G1 X25.061 Y34.266
G2 X25.457 Y31.892 I-0.824 J-1.357
G1 X24.497 Y30.74
G2 X22.837 Y30.231 I-1.22 J1.016
G1 X22.646 Y30.202
X22.347 Y30.14
X22.012 Y30.058
X21.622 Y29.952
X21.192 Y29.826
X20.721 Y29.68
X20.172 Y29.501
X19.583 Y29.302
X18.881 Y29.056
X18.135 Y28.788
G2 X14.13 Y28.322 I-2.985 J8.212
G1 X7.407 Y29.112
X4.088
Y27.696
G2 X7.932 Y23.095 I-0.831 J-4.601
G1 Y23.08
G2 X4.088 Y18.479 I-4.675 J0.
G1 Y5.588
X7.865
X10.941 Y9.278
G2 X16.228 Y12.698 I8.134 J-6.778
X19.37 Y16.283 I3.272 J0.302
X22.785 Y13.087 I0.13 J-3.283
G1 X25.5
G3 X28.413 Y15.997 I0. J2.913
G1 X28.407 Y17.45
X28.387 Y18.916
X28.355 Y20.273
X28.307 Y21.607
X28.248 Y22.793
X28.172 Y23.93
X28.079 Y24.987
X27.969 Y25.966
X27.816 Y26.992
X27.728 Y27.461
X27.63 Y27.9
X27.511 Y28.331
X27.371 Y28.729
X27.312 Y28.861
X27.259 Y28.959
X27.237 Y28.99
X27.158 Y29.07
G2 X26.732 Y30.448 I1.138 J1.107
G1 X27.027 Y32.155
G2 X29.668 Y33.051 I1.564 J-0.27
G1 X29.884 Y32.852
G2 X29.985 Y32.749 I-1.077 J-1.167
G1 X30.183 Y32.53
G2 X30.293 Y32.393 I-1.178 J-1.064
G1 X30.639 Y31.914
G2 X30.735 Y31.762 I-1.288 J-0.928
G1 X31.027 Y31.242
G2 X31.088 Y31.122 I-1.385 J-0.776
G1 X31.34 Y30.565
G2 X31.379 Y30.472 I-1.446 J-0.655
G1 X31.58 Y29.939
G2 X31.606 Y29.867 I-1.485 J-0.562
G1 X31.778 Y29.334
G2 X31.796 Y29.275 I-1.51 J-0.49
G1 X31.945 Y28.746
G2 X31.959 Y28.696 I-1.528 J-0.431
G1 X32.096 Y28.14
G2 X32.106 Y28.097 I-1.541 J-0.381
G1 X32.223 Y27.561
G2 X32.23 Y27.524 I-1.551 J-0.338
G1 X32.338 Y26.965
G2 X32.344 Y26.931 I-1.559 J-0.301
G1 X32.444 Y26.348
G2 X32.449 Y26.318 I-1.565 J-0.267
G1 X32.54 Y25.713
G2 X32.544 Y25.685 I-1.57 J-0.237
G1 X32.626 Y25.068
G2 X32.63 Y25.042 I-1.574 J-0.21
G1 X32.704 Y24.405
G2 X32.708 Y24.371 I-1.577 J-0.184
G1 X32.835 Y23.038
G2 X32.838 Y23.008 I-1.58 J-0.151
G1 X32.894 Y22.261
G2 X32.896 Y22.241 I-1.583 J-0.12
G1 X32.944 Y21.474
G2 X32.946 Y21.448 I-1.584 J-0.101
G1 X33.02 Y19.859
G2 X33.021 Y19.835 I-1.586 J-0.074
G1 X33.051 Y18.917
G2 Y18.901 I-1.587 J-0.05
G1 X33.063 Y18.329
G2 X34.25 Y18.862 I1.187 J-1.054
G1 X34.75
G2 X35.912 Y18.355 I0. J-1.587
G1 Y23.981
X35.883 Y25.183
X35.793 Y26.359
X35.649 Y27.431
X35.442 Y28.485
X35.195 Y29.424
X34.887 Y30.338
X34.741 Y30.69
G3 X34.358 Y30.583 I-0.185 J-0.077
G1 X35.026 Y26.044
G3 X35.058 Y25.962 I0.198 J0.029
G1 X35.422 Y25.417 Z-6.453 F700.
G3 X35.642 Y25.373 I0.132 J0.088
X35.686 Y25.593 I-0.088 J0.132
G1 X27.043 Y38.529 Z-6.996
G3 X26.779 Y38.352 I-0.132 J-0.088
G1 X33.681 Y28.023 Z-7.43
G3 X33.918 Y28.094 I0.108 J0.072
G1 X33.915 Y28.133
G3 X33.673 Y29.106 I-15.074 J-3.233 F1500.
X33.254 Y30.305 I-10.278 J-2.915
X33.082 Y30.241 I-0.085 J-0.035
G2 X33.599 Y28.443 I-26.552 J-8.611
X33.985 Y26.612 I-23.477 J-5.909
X34.098 Y25.71 I-10.028 J-1.714
G3 X34.187 Y24.805 I24.777 J1.983
X34.372 Y24.818 I0.092 J0.011
X34.235 Y26.353 I-11.926 J-0.29
X33.969 Y27.871 I-37.745 J-5.842
X33.915 Y28.133 I-15.128 J-2.971
X33.889 Y28.252 Z-7.406 I-15.074 J-3.233
X33.866 Y28.352 Z-7.337 I-15.048 J-3.351
X33.851 Y28.419 Z-7.234 I-15.025 J-3.452
X33.845 Y28.443 Z-7.113 I-15.01 J-3.519
G0 Z5.
X24.427 Y26.624
Z2.57
G1 Z-3.93 F1500.
Y30.118 Z-4.052 F700.
G3 X24.109 I-0.159 J0.
G1 Y14.56 Z-4.595
G3 X24.427 I0.159 J0.
G1 Y30.118 Z-5.139
G3 X24.109 I-0.159 J0.
G1 Y14.56 Z-5.682
G3 X24.427 I0.159 J0.
G1 Y30.118 Z-6.225
G3 X24.109 I-0.159 J0.
G1 Y14.56 Z-6.768
G3 X24.427 I0.159 J0.
G1 Y30.118 Z-7.312
G3 X24.109 I-0.159 J0.
G1 Y26.73 Z-7.43
X24.049 Y26.068
G2 X23.574 Y26.112 I-0.238 J0.022
X23.96 Y26.277 I0.238 J-0.022
X24.778 Y25.556 I-6.226 J-7.894 F1500.
G3 X25.005 Y25.671 I0.094 J0.096
X24.896 Y26.385 I-97.293 J-14.484
X24.761 Y27.094 I-10.956 J-1.713
X24.38 Y27.329 I-0.305 J-0.068
G2 X23.198 Y27.194 I-1.103 J4.427
G3 X23.112 Y26.964 I-0.002 J-0.13
X23.96 Y26.277 I25.972 J31.167
X24.065 Y26.219 Z-7.406 I0.203 J0.244
X24.167 Y26.203 Z-7.337 I0.097 J0.302
X24.235 Y26.212 Z-7.234 I-0.004 J0.317
X24.258 Y26.218 Z-7.113 I-0.072 J0.309
G1 Z-3.93
X24.573 Y17.564
X28.067 Z-4.052 F700.
G3 Y17.882 I0. J0.159
G1 X12.51 Z-4.595
G3 Y17.564 I0. J-0.159
G1 X28.067 Z-5.139
G3 Y17.882 I0. J0.159
G1 X12.51 Z-5.682
G3 Y17.564 I0. J-0.159
G1 X28.067 Z-6.225
G3 Y17.882 I0. J0.159
G1 X12.51 Z-6.768
G3 Y17.564 I0. J-0.159
G1 X28.067 Z-7.312
G3 Y17.882 I0. J0.159
G1 X24.679 Z-7.43
G2 X24.616 Y17.89 I0. J0.263
G1 X23.957 Y18.054
G2 X24.085 Y18.564 I0.064 J0.255
X24.218 Y18.134 I-0.064 J-0.255
X24.034 Y17.934 I-7.245 J6.449 F1500.
G3 X24.041 Y17.492 I0.231 J-0.218
G2 X24.984 Y16.274 I-4.415 J-4.395
G3 X25.31 Y16.365 I0.15 J0.09
G1 X25.306 Y17.356
G3 X25.282 Y19.031 I-85.129 J-0.343
X25.032 Y19.118 I-0.141 J-0.003
X24.542 Y18.519 I30.998 J-25.828
G2 X24.218 Y18.134 I-7.57 J6.065
X22.98 Y17.86 I-0.809 J0.72
G3 X21.713 Y17.912 I-0.701 J-1.624
G2 X21.641 Y17.889 I-1.087 J3.222
G3 X21.627 Y17.651 I0.038 J-0.122
G2 X24.097 Y15.24 I-2.095 J-4.619
G3 X24.617 Y14.915 I0.52 J0.253
X25.058 Y14.929 I0. J7.072
G2 X25.5 Y14.943 I0.442 J-7.058
G3 X26.536 Y15.973 I0. J1.036
X26.535 Y17.434 I-97.64 J0.622
X26.386 Y22.542 I-124.502 J-1.07
X26.238 Y24.824 I-79.883 J-4.012
X25.917 Y27.088 I-18.341 J-1.448
G2 X25.855 Y27.407 I15.345 J3.161
G3 X25.783 Y27.723 I-3.756 J-0.693
X25.608 Y28.071 I-0.952 J-0.261
G2 X25.261 Y28.612 I2.688 J2.107
G3 X24.87 Y28.735 I-0.257 J-0.132
G2 X22.967 Y28.355 I-1.592 J3.022
G3 X22.643 Y28.331 I-0.09 J-0.983
X21.702 Y28.07 I3.773 J-15.427
X20.772 Y27.774 I21.977 J-70.705
X20.713 Y27.47 I0.055 J-0.168
X22.254 Y26.214 I57.37 J68.846
G2 X23.796 Y24.958 I-55.829 J-70.101
X24.239 Y20.086 I-2.215 J-2.658
X23.098 Y18.8 I-21.405 J17.835
X21.713 Y17.912 I-2.473 J2.333
X21.641 Y17.889 Z-7.421 I-1.087 J3.222
G3 X21.557 Y17.803 Z-7.359 I0.038 J-0.122
X21.561 Y17.718 Z-7.249 I0.122 J-0.036
X21.576 Y17.692 Z-7.113 I0.118 J0.049
G1 Z-3.93
X4.554 Y16.65
X20.059 Z-4.471 F700.
G3 Y16.967 I0. J0.159
G1 X4.502 Z-5.015
G3 Y16.65 I0. J-0.159
G1 X20.059 Z-5.558
G3 Y16.967 I0. J0.159
G1 X4.502 Z-6.101
G3 Y16.65 I0. J-0.159
G1 X20.059 Z-6.645
G3 Y16.967 I0. J0.159
G1 X4.502 Z-7.188
G3 Y16.65 I0. J-0.159
G1 X11.436 Z-7.43
X12.133 Y16.717
G2 X12.182 Y16.219 I0.024 J-0.249
X11.931 Y16.575 I-0.024 J0.249
X13.067 Y18.356 I7.591 J-3.588 F1500.
G3 X13.028 Y18.79 I-0.237 J0.197
G1 X12.531 Y19.204
G3 X12.178 Y19.122 I-0.145 J-0.175
G2 X9.261 Y15.386 I-8.959 J3.988
G3 X9.172 Y15.204 I0.141 J-0.182
G1 Y14.981
G3 X9.431 Y14.855 I0.16 J0.
G2 X11.732 Y16.346 I9.589 J-12.27
G3 X11.913 Y16.537 I-0.194 J0.366
G2 X11.931 Y16.575 I7.609 J-3.55
X13.771 Y17.566 I1.592 J-0.753
G3 X15.799 Y18.073 I0.39 J2.745
G2 X16.302 Y18.406 I3.731 J-5.099
G3 X16.331 Y18.758 I-0.11 J0.186
X13.558 Y21.006 I-83.653 J-100.385
G2 X11.81 Y24.118 I2.892 J3.67
X11.795 Y24.692 I3.059 J0.367
X11.852 Y25.263 I9.088 J-0.609
G3 X11.584 Y25.606 I-0.303 J0.04
G1 X10.773 Y25.701
G3 X10.559 Y25.442 I-0.023 J-0.199
G2 X10.892 Y22.142 I-7.614 J-2.435
X9.81 Y19.008 I-7.418 J0.807
X8.75 Y17.694 I-5.885 J3.661
X7.428 Y16.644 I-5.963 J6.148
G3 X7.082 Y16.01 I0.409 J-0.634
G1 Y9.71
G3 X7.328 Y9.621 I0.139 J0.
X7.967 Y10.422 I-17.924 J14.936
G2 X8.605 Y11.224 I18.566 J-14.138
X10.654 Y13.184 I9.669 J-8.057
X13.062 Y14.679 I9.093 J-11.952
G3 X13.67 Y15.336 I-0.56 J1.128
G2 X15.799 Y18.073 I5.86 J-2.362
X16.934 Y18.085 I0.576 J-0.788
G3 X18.055 Y17.904 I0.749 J1.071
G2 X18.682 Y18.048 I1.464 J-4.925
G3 X18.736 Y18.3 I-0.022 J0.136
X18.579 Y18.403 I-14.668 J-22.172
G2 X18.427 Y18.515 I0.878 J1.348
G3 X16.304 Y20.263 I-149.695 J-179.639
G2 X14.181 Y22.012 I147.572 J181.387
X13.022 Y24.009 I2.153 J2.584
X13.389 Y26.289 I3.461 J0.613
G3 X13.234 Y26.587 I-0.179 J0.096
G1 X8.629 Y27.128
G3 X8.511 Y26.926 I-0.015 J-0.127
G2 X6.244 Y17.304 I-5.249 J-3.841
G3 X5.915 Y16.764 I0.28 J-0.54
G1 Y7.728
G3 X6.228 Y7.415 I0.313 J0.
G1 X6.663
G3 X7.231 Y7.681 I0. J0.739
X8.367 Y9.079 I-56.486 J47.07
G2 X9.502 Y10.476 I57.644 J-45.691
X11.6 Y12.443 I9.017 J-7.514
X14.096 Y13.874 I7.724 J-10.584
G3 X14.591 Y14.434 I-0.353 J0.812
G2 X18.055 Y17.904 I4.927 J-1.456
G3 X19.199 Y19.131 I-0.471 J1.585
X18.657 Y20.719 I-1.574 J0.349
G1 X15.379 Y23.45
G2 X15.176 Y25.686 I1.016 J1.22
G1 X16.136 Y26.838
G2 X18.372 Y27.041 I1.22 J-1.016
G1 X22.597 Y23.52
G2 X22.801 Y21.284 I-1.016 J-1.22
G1 X21.84 Y20.132
G2 X19.605 Y19.929 I-1.22 J1.016
G1 X18.657 Y20.719
G3 X18.551 Y20.777 Z-7.406 I-0.203 J-0.244
X18.449 Y20.792 Z-7.337 I-0.097 J-0.302
X18.381 Y20.784 Z-7.234 I0.004 J-0.317
X18.358 Y20.777 Z-7.113 I0.072 J-0.309
G0 Z5.
X14.75 Y37.159
Z2.57
G1 Z-3.93 F1500.
X11.509 Z-4.043 F700.
G3 Y36.841 I0. J-0.159
G1 X27.066 Z-4.586
G3 Y37.159 I0. J0.159
G1 X11.509 Z-5.13
G3 Y36.841 I0. J-0.159
G1 X27.066 Z-5.673
G3 Y37.159 I0. J0.159
G1 X11.509 Z-6.216
G3 Y36.841 I0. J-0.159
G1 X27.066 Z-6.76
G3 Y37.159 I0. J0.159
G1 X11.509 Z-7.303
G3 Y36.841 I0. J-0.159
G1 X15.15 Z-7.43
G2 X15.21 Y36.782 I0. J-0.06
G1 X15.211 Y36.663
G2 X15.091 Y36.662 I-0.06 J0.
X15.151 Y36.722 I0.06 J0.
G3 X15.318 Y36.751 I-0.001 J0.512 F1500.
G2 X17.873 Y37.589 I24.115 J-69.159
X20.478 Y38.261 I8.546 J-27.744
G3 X20.451 Y38.448 I-0.019 J0.092
X18.064 Y38.101 I1.327 J-17.535
X15.731 Y37.488 I5.767 J-26.685
G2 X15.384 Y37.393 I-1.54 J4.958
G3 X15.041 Y37.287 I0.627 J-2.656
X14.859 Y36.902 I0.109 J-0.288
X15.057 Y36.73 I0.245 J0.083
X15.151 Y36.722 I0.092 J0.504
G2 X16.211 Y36.186 I0.004 J-1.309
G3 X17.343 Y35.828 I0.811 J0.594
G2 X18.693 Y36.277 I51.063 J-151.325
X21.654 Y36.926 I4.692 J-14.323
X23.301 Y37.029 I1.796 J-15.538
X24.933 Y36.776 I0.048 J-5.079
X25.968 Y36.311 I-1.688 J-5.145
X26.873 Y35.626 I-2.353 J-4.045
G3 X27.444 Y35.491 I0.398 J0.411
G2 X28.435 Y35.666 I1.147 J-3.607
G3 X28.684 Y35.966 I-0.011 J0.263
G2 X28.677 Y36.971 I3.748 J0.528
G3 X28.442 Y37.509 I-0.567 J0.072
X26.898 Y38.543 I-18.438 J-25.858
X25.228 Y39.358 I-4.616 J-7.348
X20.592 Y39.986 I-3.78 J-10.472
X15.985 Y39.166 I1.818 J-23.555
X14.552 Y38.72 I7.861 J-27.816
X13.512 Y37.802 I0.575 J-1.7
X13.425 Y36.418 I1.649 J-0.798
X14.391 Y35.362 I1.679 J0.566
X15.822 Y35.306 I0.786 J1.791
G2 X17.343 Y35.828 I52.584 J-150.803
X19.339 Y35.284 I0.593 J-1.757
G3 X21.289 Y34.594 I1.58 J1.366
G2 X21.3 Y34.596 I0.282 J-1.562
G1 X21.823 Y34.687
G2 X21.911 Y34.699 I0.271 J-1.564
G1 X22.468 Y34.764
G2 X22.602 Y34.774 I0.182 J-1.577
G1 X23.135 Y34.79
G2 X23.288 Y34.787 I0.048 J-1.587
G1 X23.567 Y34.769
G2 X23.727 Y34.75 I-0.105 J-1.584
G1 X24.004 Y34.703
G2 X24.234 Y34.646 I-0.264 J-1.565
G1 X24.497 Y34.56
G2 X24.826 Y34.409 I-0.495 J-1.508
G1 X25.061 Y34.266
G2 X25.457 Y31.892 I-0.824 J-1.357
G1 X24.497 Y30.74
G2 X22.837 Y30.231 I-1.22 J1.016
G1 X22.646 Y30.202
X22.347 Y30.14
X22.012 Y30.058
X21.622 Y29.952
X21.192 Y29.826
X20.721 Y29.68
X20.172 Y29.501
X19.583 Y29.302
X18.881 Y29.056
X18.135 Y28.788
G2 X14.13 Y28.322 I-2.985 J8.212
G1 X7.407 Y29.112
X4.088
Y27.696
G2 X7.932 Y23.095 I-0.831 J-4.601
G1 Y23.08
G2 X4.088 Y18.479 I-4.675 J0.
G1 Y5.588
X7.865
X10.941 Y9.278
G2 X16.228 Y12.698 I8.134 J-6.778
X19.37 Y16.283 I3.272 J0.302
X22.785 Y13.087 I0.13 J-3.283
G1 X25.5
G3 X28.413 Y15.997 I0. J2.913
G1 X28.407 Y17.45
X28.387 Y18.916
X28.355 Y20.273
X28.307 Y21.607
X28.248 Y22.793
X28.172 Y23.93
X28.079 Y24.987
X27.969 Y25.966
X27.816 Y26.992
X27.728 Y27.461
X27.63 Y27.9
X27.511 Y28.331
X27.371 Y28.729
X27.312 Y28.861
X27.259 Y28.959
X27.237 Y28.99
X27.158 Y29.07
G2 X26.732 Y30.448 I1.138 J1.107
G1 X27.027 Y32.155
G2 X29.668 Y33.051 I1.564 J-0.27
G1 X29.884 Y32.852
G2 X29.985 Y32.749 I-1.077 J-1.167
G1 X30.183 Y32.53
G2 X30.293 Y32.393 I-1.178 J-1.064
G1 X30.639 Y31.914
G2 X30.735 Y31.762 I-1.288 J-0.928
G1 X31.027 Y31.242
G2 X31.088 Y31.122 I-1.385 J-0.776
G1 X31.34 Y30.565
G2 X31.379 Y30.472 I-1.446 J-0.655
G1 X31.58 Y29.939
G2 X31.606 Y29.867 I-1.485 J-0.562
G1 X31.778 Y29.334
G2 X31.796 Y29.275 I-1.51 J-0.49
G1 X31.945 Y28.746
G2 X31.959 Y28.696 I-1.528 J-0.431
G1 X32.096 Y28.14
G2 X32.106 Y28.097 I-1.541 J-0.381
G1 X32.223 Y27.561
G2 X32.23 Y27.524 I-1.551 J-0.338
G1 X32.338 Y26.965
G2 X32.344 Y26.931 I-1.559 J-0.301
G1 X32.444 Y26.348
G2 X32.449 Y26.318 I-1.565 J-0.267
G1 X32.54 Y25.713
G2 X32.544 Y25.685 I-1.57 J-0.237
G1 X32.626 Y25.068
G2 X32.63 Y25.042 I-1.574 J-0.21
G1 X32.704 Y24.405
G2 X32.708 Y24.371 I-1.577 J-0.184
G1 X32.835 Y23.038
G2 X32.838 Y23.008 I-1.58 J-0.151
G1 X32.894 Y22.261
G2 X32.896 Y22.241 I-1.583 J-0.12
G1 X32.944 Y21.474
G2 X32.946 Y21.448 I-1.584 J-0.101
G1 X33.02 Y19.859
G2 X33.021 Y19.835 I-1.586 J-0.074
G1 X33.051 Y18.917
G2 Y18.901 I-1.587 J-0.05
G1 X33.063 Y18.329
G2 X34.25 Y18.862 I1.187 J-1.054
G1 X34.75
G2 X35.912 Y18.355 I0. J-1.587
G1 Y23.981
X35.883 Y25.183
X35.793 Y26.359
X35.649 Y27.431
X35.442 Y28.485
X35.195 Y29.424
X34.887 Y30.338
X34.519 Y31.222
X34.322 Y31.629
X34.103 Y32.038
X33.85 Y32.47
X33.58 Y32.889
X33.29 Y33.297
X32.985 Y33.689
X32.623 Y34.113
X32.241 Y34.518
X31.838 Y34.904
X31.387 Y35.299
G2 X31.884 Y37.984 I1.045 J1.195
G1 X33.509 Y38.582
G2 X35.074 Y38.311 I0.548 J-1.49
G1 X35.463 Y37.987
G2 X35.912 Y38.09 I1.036 J-3.487
G1 Y43.145
X35.121 Y44.412
X34.884
G2 X35.171 Y43.183 I-1.275 J-0.946
G1 X34.903 Y41.707
G2 X33.058 Y40.428 I-1.562 J0.284
G1 X32.634 Y40.505
X31.859 Y39.575
G2 X29.658 Y39.343 I-1.22 J1.016
G1 X29.048 Y39.823
X28.456 Y40.235
X27.845 Y40.609
X27.213 Y40.946
X26.611 Y41.222
X25.989 Y41.467
X25.348 Y41.678
X24.691 Y41.855
X24.085 Y41.986
X23.47 Y42.088
X22.848 Y42.162
X22.22 Y42.21
X21.594 Y42.232
X20.964 Y42.23
X20.329 Y42.204
X19.691 Y42.156
X19. Y42.079
X18.307 Y41.979
X17.614 Y41.857
X16.922 Y41.714
X16.146 Y41.53
X15.376 Y41.323
X14.61 Y41.095
X13.842 Y40.846
G3 X11.301 Y35.701 I1.308 J-3.846
X16.539 Y33.183 I3.849 J1.299
G2 X16.56 Y33.19 I0.535 J-1.495
G1 X17.99 Y33.688
G2 X18.04 Y33.705 I0.523 J-1.499
G1 X19.375 Y34.121
G2 X19.424 Y34.135 I0.472 J-1.516
G1 X20.021 Y34.301
G2 X20.062 Y34.311 I0.423 J-1.53
G1 X20.641 Y34.455
G2 X20.69 Y34.467 I0.383 J-1.541
G1 X21.238 Y34.584
G2 X21.289 Y34.594 I0.333 J-1.552
G3 X21.389 Y34.644 I-0.035 J0.197
G1 X23.753 Y36.811
G3 X23.618 Y37.159 I-0.135 J0.147
G1 X11.509 Z-7.853 F700.
G3 Y36.841 I0. J-0.159
G1 X15.15 Z-7.98
G2 X15.21 Y36.782 I0. J-0.06
G1 X15.211 Y36.663
G2 X15.091 Y36.662 I-0.06 J0.
X15.151 Y36.722 I0.06 J0.
G3 X15.318 Y36.751 I-0.001 J0.512 F1500.
G2 X17.873 Y37.589 I24.115 J-69.159
X20.478 Y38.261 I8.546 J-27.744
G3 X20.451 Y38.448 I-0.019 J0.092
X18.064 Y38.101 I1.327 J-17.535
X15.731 Y37.488 I5.767 J-26.685
G2 X15.384 Y37.393 I-1.54 J4.958
G3 X15.041 Y37.287 I0.627 J-2.656
X14.859 Y36.902 I0.109 J-0.288
X15.057 Y36.73 I0.245 J0.083
X15.151 Y36.722 I0.092 J0.504
G2 X16.211 Y36.186 I0.004 J-1.309
G3 X17.343 Y35.828 I0.811 J0.594
G2 X18.693 Y36.277 I51.063 J-151.325
X21.654 Y36.926 I4.692 J-14.323
X23.301 Y37.029 I1.796 J-15.538
X24.933 Y36.776 I0.048 J-5.079
X25.968 Y36.311 I-1.688 J-5.145
X26.873 Y35.626 I-2.353 J-4.045
G3 X27.444 Y35.491 I0.398 J0.411
G2 X28.435 Y35.666 I1.147 J-3.607
G3 X28.684 Y35.966 I-0.011 J0.263
G2 X28.677 Y36.971 I3.748 J0.528
G3 X28.442 Y37.509 I-0.567 J0.072
X26.898 Y38.543 I-18.438 J-25.858
X25.228 Y39.358 I-4.616 J-7.348
X20.592 Y39.986 I-3.78 J-10.472
X15.985 Y39.166 I1.818 J-23.555
X14.552 Y38.72 I7.861 J-27.816
X13.512 Y37.802 I0.575 J-1.7
X13.425 Y36.418 I1.649 J-0.798
X14.391 Y35.362 I1.679 J0.566
X15.822 Y35.306 I0.786 J1.791
G2 X17.343 Y35.828 I52.584 J-150.803
G3 X17.449 Y35.886 Z-7.956 I-0.097 J0.302
X17.516 Y35.964 Z-7.887 I-0.203 J0.244
X17.546 Y36.026 Z-7.784 I-0.27 J0.167
X17.553 Y36.049 Z-7.663 I-0.3 J0.105
G0 Z5.
X24.109 Y20.726
Z2.57
G1 Z-4.93 F1500.
Y14.56 Z-5.145 F700.
G3 X24.427 I0.159 J0.
G1 Y30.118 Z-5.689
G3 X24.109 I-0.159 J0.
G1 Y14.56 Z-6.232
G3 X24.427 I0.159 J0.
G1 Y30.118 Z-6.775
G3 X24.109 I-0.159 J0.
G1 Y14.56 Z-7.318
G3 X24.427 I0.159 J0.
G1 Y30.118 Z-7.862
G3 X24.109 I-0.159 J0.
G1 Y26.73 Z-7.98
X24.049 Y26.068
G2 X23.574 Y26.112 I-0.238 J0.022
X23.96 Y26.277 I0.238 J-0.022
X24.778 Y25.556 I-6.226 J-7.894 F1500.
G3 X25.005 Y25.671 I0.094 J0.096
X24.896 Y26.385 I-97.293 J-14.484
X24.761 Y27.094 I-10.956 J-1.713
X24.38 Y27.329 I-0.305 J-0.068
G2 X23.198 Y27.194 I-1.103 J4.427
G3 X23.112 Y26.964 I-0.002 J-0.13
X23.96 Y26.277 I25.972 J31.167
X24.065 Y26.219 Z-7.956 I0.203 J0.244
X24.167 Y26.203 Z-7.887 I0.097 J0.302
X24.235 Y26.212 Z-7.784 I-0.004 J0.317
X24.258 Y26.218 Z-7.663 I-0.072 J0.309
G0 Z5.
X18.675 Y17.882
Z2.57
G1 Z-4.93 F1500.
X12.51 Z-5.145 F700.
G3 Y17.564 I0. J-0.159
G1 X28.067 Z-5.689
G3 Y17.882 I0. J0.159
G1 X12.51 Z-6.232
G3 Y17.564 I0. J-0.159
G1 X28.067 Z-6.775
G3 Y17.882 I0. J0.159
G1 X12.51 Z-7.318
G3 Y17.564 I0. J-0.159
G1 X28.067 Z-7.862
G3 Y17.882 I0. J0.159
G1 X24.679 Z-7.98
G2 X24.618 Y17.889 I0. J0.264
G1 X23.955 Y18.048
G2 X24.078 Y18.561 I0.062 J0.257
X24.213 Y18.129 I-0.062 J-0.257
X24.034 Y17.934 I-7.24 J6.454 F1500.
G3 X24.041 Y17.492 I0.231 J-0.218
G2 X24.984 Y16.274 I-4.415 J-4.395
G3 X25.31 Y16.365 I0.15 J0.09
G1 X25.306 Y17.356
G3 X25.282 Y19.031 I-85.129 J-0.343
X25.032 Y19.118 I-0.141 J-0.003
X24.542 Y18.519 I30.998 J-25.828
G2 X24.213 Y18.129 I-7.57 J6.065
X22.974 Y17.856 I-0.808 J0.721
G3 X21.707 Y17.91 I-0.704 J-1.625
G2 X21.641 Y17.889 I-1.081 J3.224
G3 X21.627 Y17.651 I0.038 J-0.122
G2 X24.097 Y15.24 I-2.095 J-4.619
G3 X24.617 Y14.915 I0.52 J0.253
X25.058 Y14.929 I0. J7.072
G2 X25.5 Y14.943 I0.442 J-7.058
G3 X26.536 Y15.973 I0. J1.036
X26.535 Y17.434 I-97.64 J0.622
X26.386 Y22.542 I-124.502 J-1.07
X26.238 Y24.824 I-79.883 J-4.012
X25.917 Y27.088 I-18.341 J-1.448
G2 X25.855 Y27.407 I15.345 J3.161
G3 X25.783 Y27.723 I-3.756 J-0.693
X25.608 Y28.071 I-0.952 J-0.261
G2 X25.261 Y28.612 I2.688 J2.107
G3 X24.87 Y28.735 I-0.257 J-0.132
G2 X22.967 Y28.355 I-1.592 J3.022
G3 X22.643 Y28.331 I-0.09 J-0.983
X21.702 Y28.07 I3.773 J-15.427
X20.772 Y27.774 I21.977 J-70.705
X20.713 Y27.47 I0.055 J-0.168
X22.254 Y26.214 I57.37 J68.846
G2 X23.796 Y24.958 I-55.829 J-70.101
X24.239 Y20.086 I-2.215 J-2.658
X23.098 Y18.8 I-21.405 J17.835
X21.707 Y17.91 I-2.473 J2.333
X21.641 Y17.889 Z-7.972 I-1.081 J3.224
G3 X21.556 Y17.8 Z-7.911 I0.038 J-0.122
X21.563 Y17.714 Z-7.801 I0.123 J-0.033
X21.58 Y17.687 Z-7.663 I0.116 J0.053
G1 Z-4.93
X17.44 Y16.65
X20.059 Z-5.021 F700.
G3 Y16.967 I0. J0.159
G1 X4.502 Z-5.565
G3 Y16.65 I0. J-0.159
G1 X20.059 Z-6.108
G3 Y16.967 I0. J0.159
G1 X4.502 Z-6.651
G3 Y16.65 I0. J-0.159
G1 X20.059 Z-7.195
G3 Y16.967 I0. J0.159
G1 X4.502 Z-7.738
G3 Y16.65 I0. J-0.159
G1 X11.436 Z-7.98
X12.133 Y16.717
G2 X12.182 Y16.219 I0.024 J-0.249
X11.931 Y16.575 I-0.024 J0.249
X13.067 Y18.356 I7.591 J-3.588 F1500.
G3 X13.028 Y18.79 I-0.237 J0.197
G1 X12.531 Y19.204
G3 X12.178 Y19.122 I-0.145 J-0.175
G2 X9.261 Y15.386 I-8.959 J3.988
G3 X9.172 Y15.204 I0.141 J-0.182
G1 Y14.981
G3 X9.431 Y14.855 I0.16 J0.
G2 X11.732 Y16.346 I9.589 J-12.27
G3 X11.913 Y16.537 I-0.194 J0.366
G2 X11.931 Y16.575 I7.609 J-3.55
X13.771 Y17.566 I1.592 J-0.753
G3 X15.799 Y18.073 I0.39 J2.745
G2 X16.302 Y18.406 I3.731 J-5.099
G3 X16.331 Y18.758 I-0.11 J0.186
X13.558 Y21.006 I-83.653 J-100.385
G2 X11.81 Y24.118 I2.892 J3.67
X11.795 Y24.692 I3.059 J0.367
X11.852 Y25.263 I9.088 J-0.609
G3 X11.584 Y25.606 I-0.303 J0.04
G1 X10.773 Y25.701
G3 X10.559 Y25.442 I-0.023 J-0.199
G2 X10.892 Y22.142 I-7.614 J-2.435
X9.81 Y19.008 I-7.418 J0.807
X8.75 Y17.694 I-5.885 J3.661
X7.428 Y16.644 I-5.963 J6.148
G3 X7.082 Y16.01 I0.409 J-0.634
G1 Y9.71
G3 X7.328 Y9.621 I0.139 J0.
X7.967 Y10.422 I-17.924 J14.936
G2 X8.605 Y11.224 I18.566 J-14.138
X10.654 Y13.184 I9.669 J-8.057
X13.062 Y14.679 I9.093 J-11.952
G3 X13.67 Y15.336 I-0.56 J1.128
G2 X15.799 Y18.073 I5.86 J-2.362
X16.934 Y18.085 I0.576 J-0.788
G3 X18.055 Y17.904 I0.749 J1.071
G2 X18.682 Y18.048 I1.464 J-4.925
G3 X18.736 Y18.3 I-0.022 J0.136
X18.579 Y18.403 I-14.668 J-22.172
G2 X18.427 Y18.515 I0.878 J1.348
G3 X16.304 Y20.263 I-149.695 J-179.639
G2 X14.181 Y22.012 I147.572 J181.387
X13.022 Y24.009 I2.153 J2.584
X13.389 Y26.289 I3.461 J0.613
G3 X13.234 Y26.587 I-0.179 J0.096
G1 X8.629 Y27.128
G3 X8.511 Y26.926 I-0.015 J-0.127
G2 X6.244 Y17.304 I-5.249 J-3.841
G3 X5.915 Y16.764 I0.28 J-0.54
G1 Y7.728
G3 X6.228 Y7.415 I0.313 J0.
G1 X6.663
G3 X7.231 Y7.681 I0. J0.739
X8.367 Y9.079 I-56.486 J47.07
G2 X9.502 Y10.476 I57.644 J-45.691
X11.6 Y12.443 I9.017 J-7.514
X14.096 Y13.874 I7.724 J-10.584
G3 X14.591 Y14.434 I-0.353 J0.812
G2 X18.055 Y17.904 I4.927 J-1.456
G3 X19.199 Y19.131 I-0.471 J1.585
X18.657 Y20.719 I-1.574 J0.349
G1 X15.379 Y23.45
G2 X15.176 Y25.686 I1.016 J1.22
G1 X16.136 Y26.838
G2 X18.372 Y27.041 I1.22 J-1.016
G1 X22.597 Y23.52
G2 X22.801 Y21.284 I-1.016 J-1.22
G1 X21.84 Y20.132
G2 X19.605 Y19.929 I-1.22 J1.016
G1 X18.657 Y20.719
G3 X18.551 Y20.777 Z-7.956 I-0.203 J-0.244
X18.449 Y20.792 Z-7.887 I-0.097 J-0.302
X18.381 Y20.784 Z-7.784 I0.004 J-0.317
X18.358 Y20.777 Z-7.663 I0.072 J-0.309
G0 Z5.
X34.092 Y27.979
Z2.57
G1 Z-4.93 F1500.
X27.043 Y38.529 Z-5.373 F700.
G3 X26.779 Y38.352 I-0.132 J-0.088
G1 X35.422 Y25.417 Z-5.916
G3 X35.642 Y25.373 I0.132 J0.088
X35.686 Y25.593 I-0.088 J0.132
G1 X27.043 Y38.529 Z-6.46
G3 X26.779 Y38.352 I-0.132 J-0.088
G1 X35.422 Y25.417 Z-7.003
G3 X35.642 Y25.373 I0.132 J0.088
X35.686 Y25.593 I-0.088 J0.132
G1 X27.043 Y38.529 Z-7.546
G3 X26.779 Y38.352 I-0.132 J-0.088
G1 X33.681 Y28.023 Z-7.98
G3 X33.886 Y28.012 I0.107 J0.071
G1 X33.89 Y28.016
G3 X33.917 Y28.125 I-0.099 J0.082
X33.673 Y29.106 I-15.075 J-3.225 F1500.
X33.254 Y30.305 I-10.278 J-2.915
X33.082 Y30.241 I-0.085 J-0.035
G2 X33.599 Y28.443 I-26.552 J-8.611
X33.985 Y26.612 I-23.477 J-5.909
X34.098 Y25.71 I-10.028 J-1.714
G3 X34.187 Y24.805 I24.777 J1.983
X34.372 Y24.818 I0.092 J0.011
X34.235 Y26.353 I-11.926 J-0.29
X33.969 Y27.871 I-37.745 J-5.842
X33.917 Y28.125 I-15.128 J-2.971
G2 X34.388 Y29.388 I1.226 J0.262
G3 X34.741 Y30.69 I-0.662 J0.878
G1 X34.519 Y31.222
X34.322 Y31.629
X34.103 Y32.038
X33.85 Y32.47
X33.58 Y32.889
X33.29 Y33.297
X32.985 Y33.689
X32.623 Y34.113
X32.241 Y34.518
X31.838 Y34.904
X31.387 Y35.299
G2 X31.884 Y37.984 I1.045 J1.195
G1 X33.509 Y38.582
G2 X35.074 Y38.311 I0.548 J-1.49
G1 X35.463 Y37.987
G2 X35.912 Y38.09 I1.036 J-3.487
G1 Y43.145
X35.121 Y44.412
X34.884
G2 X35.171 Y43.183 I-1.275 J-0.946
G1 X34.903 Y41.707
G2 X33.058 Y40.428 I-1.562 J0.284
G1 X32.634 Y40.505
X31.859 Y39.575
G2 X29.658 Y39.343 I-1.22 J1.016
G1 X29.048 Y39.823
X28.456 Y40.235
X27.845 Y40.609
X27.213 Y40.946
X26.611 Y41.222
X25.989 Y41.467
X25.348 Y41.678
X24.691 Y41.855
X24.085 Y41.986
X23.47 Y42.088
X22.848 Y42.162
X22.22 Y42.21
X21.594 Y42.232
X20.964 Y42.23
X20.329 Y42.204
X19.691 Y42.156
X19. Y42.079
X18.307 Y41.979
X17.614 Y41.857
X16.922 Y41.714
X16.146 Y41.53
X15.376 Y41.323
X14.61 Y41.095
X13.842 Y40.846
G3 X11.301 Y35.701 I1.308 J-3.846
X16.539 Y33.183 I3.849 J1.299
G2 X16.56 Y33.19 I0.535 J-1.495
G1 X17.99 Y33.688
G2 X18.04 Y33.705 I0.523 J-1.499
G1 X19.375 Y34.121
G2 X19.424 Y34.135 I0.472 J-1.516
G1 X20.021 Y34.301
G2 X20.062 Y34.311 I0.423 J-1.53
G1 X20.641 Y34.455
G2 X20.69 Y34.467 I0.383 J-1.541
G1 X21.238 Y34.584
G2 X21.3 Y34.596 I0.333 J-1.552
G1 X21.823 Y34.687
G2 X21.911 Y34.699 I0.271 J-1.564
G1 X22.468 Y34.764
G2 X22.602 Y34.774 I0.182 J-1.577
G1 X23.135 Y34.79
G2 X23.288 Y34.787 I0.048 J-1.587
G1 X23.567 Y34.769
G2 X23.727 Y34.75 I-0.105 J-1.584
G1 X24.004 Y34.703
G2 X24.234 Y34.646 I-0.264 J-1.565
G1 X24.497 Y34.56
G2 X24.826 Y34.409 I-0.495 J-1.508
G1 X25.061 Y34.266
G2 X25.457 Y31.892 I-0.824 J-1.357
G1 X24.497 Y30.74
G2 X22.837 Y30.231 I-1.22 J1.016
G1 X22.646 Y30.202
X22.347 Y30.14
X22.012 Y30.058
X21.622 Y29.952
X21.192 Y29.826
X20.721 Y29.68
X20.172 Y29.501
X19.583 Y29.302
X18.881 Y29.056
X18.135 Y28.788
G2 X14.13 Y28.322 I-2.985 J8.212
G1 X7.407 Y29.112
X4.088
Y27.696
G2 X7.932 Y23.095 I-0.831 J-4.601
G1 Y23.08
G2 X4.088 Y18.479 I-4.675 J0.
G1 Y5.588
X7.865
X10.941 Y9.278
G2 X16.228 Y12.698 I8.134 J-6.778
X19.37 Y16.283 I3.272 J0.302
X22.785 Y13.087 I0.13 J-3.283
G1 X25.5
G3 X28.413 Y15.997 I0. J2.913
G1 X28.407 Y17.45
X28.387 Y18.916
X28.355 Y20.273
X28.307 Y21.607
X28.248 Y22.793
X28.172 Y23.93
X28.079 Y24.987
X27.969 Y25.966
X27.816 Y26.992
X27.728 Y27.461
X27.63 Y27.9
X27.511 Y28.331
X27.371 Y28.729
X27.312 Y28.861
X27.259 Y28.959
X27.237 Y28.99
X27.158 Y29.07
G2 X26.732 Y30.448 I1.138 J1.107
G1 X27.027 Y32.155
G2 X29.668 Y33.051 I1.564 J-0.27
G1 X29.884 Y32.852
G2 X29.985 Y32.749 I-1.077 J-1.167
G1 X30.183 Y32.53
G2 X30.293 Y32.393 I-1.178 J-1.064
G1 X30.639 Y31.914
G2 X30.735 Y31.762 I-1.288 J-0.928
G1 X31.027 Y31.242
G2 X31.088 Y31.122 I-1.385 J-0.776
G1 X31.34 Y30.565
G2 X31.379 Y30.472 I-1.446 J-0.655
G1 X31.58 Y29.939
G2 X31.606 Y29.867 I-1.485 J-0.562
G1 X31.778 Y29.334
G2 X31.796 Y29.275 I-1.51 J-0.49
G1 X31.945 Y28.746
G2 X31.959 Y28.696 I-1.528 J-0.431
G1 X32.096 Y28.14
G2 X32.106 Y28.097 I-1.541 J-0.381
G1 X32.223 Y27.561
G2 X32.23 Y27.524 I-1.551 J-0.338
G1 X32.338 Y26.965
G2 X32.344 Y26.931 I-1.559 J-0.301
G1 X32.444 Y26.348
G2 X32.449 Y26.318 I-1.565 J-0.267
G1 X32.54 Y25.713
G2 X32.544 Y25.685 I-1.57 J-0.237
G1 X32.626 Y25.068
G2 X32.63 Y25.042 I-1.574 J-0.21
G1 X32.704 Y24.405
G2 X32.708 Y24.371 I-1.577 J-0.184
G1 X32.835 Y23.038
G2 X32.838 Y23.008 I-1.58 J-0.151
G1 X32.894 Y22.261
G2 X32.896 Y22.241 I-1.583 J-0.12
G1 X32.944 Y21.474
G2 X32.946 Y21.448 I-1.584 J-0.101
G1 X33.02 Y19.859
G2 X33.021 Y19.835 I-1.586 J-0.074
G1 X33.051 Y18.917
G2 Y18.901 I-1.587 J-0.05
G1 X33.063 Y18.329
G2 X34.25 Y18.862 I1.187 J-1.054
G1 X34.75
G2 X35.912 Y18.355 I0. J-1.587
G1 Y23.981
X35.883 Y25.183
X35.793 Y26.359
X35.649 Y27.431
X35.442 Y28.485
X35.195 Y29.424
X34.887 Y30.338
X34.741 Y30.69
G3 X34.687 Y30.764 I-0.185 J-0.077
G1 X28.927 Y35.722
G2 X28.891 Y35.762 I0.13 J0.152
G1 X27.043 Y38.529 Z-8.096 F700.
G3 X26.779 Y38.352 I-0.132 J-0.088
G1 X33.681 Y28.023 Z-8.53
G3 X33.918 Y28.094 I0.108 J0.072
G1 X33.915 Y28.133
G3 X33.673 Y29.106 I-15.074 J-3.233 F1500.
X33.254 Y30.305 I-10.278 J-2.915
X33.082 Y30.241 I-0.085 J-0.035
G2 X33.599 Y28.443 I-26.552 J-8.611
X33.985 Y26.612 I-23.477 J-5.909
X34.098 Y25.71 I-10.028 J-1.714
G3 X34.187 Y24.805 I24.777 J1.983
X34.372 Y24.818 I0.092 J0.011
X34.235 Y26.353 I-11.926 J-0.29
X33.969 Y27.871 I-37.745 J-5.842
X33.915 Y28.133 I-15.128 J-2.971
X33.889 Y28.252 Z-8.506 I-15.074 J-3.233
X33.866 Y28.352 Z-8.437 I-15.048 J-3.351
X33.851 Y28.419 Z-8.334 I-15.025 J-3.452
X33.845 Y28.443 Z-8.213 I-15.01 J-3.519
G0 Z5.
X24.109 Y20.726
Z2.57
G1 Z-5.48 F1500.
Y14.56 Z-5.695 F700.
G3 X24.427 I0.159 J0.
G1 Y30.118 Z-6.239
G3 X24.109 I-0.159 J0.
G1 Y14.56 Z-6.782
G3 X24.427 I0.159 J0.
G1 Y30.118 Z-7.325
G3 X24.109 I-0.159 J0.
G1 Y14.56 Z-7.868
G3 X24.427 I0.159 J0.
G1 Y30.118 Z-8.412
G3 X24.109 I-0.159 J0.
G1 Y26.73 Z-8.53
X24.049 Y26.068
G2 X23.574 Y26.112 I-0.238 J0.022
X23.96 Y26.277 I0.238 J-0.022
X24.778 Y25.556 I-6.226 J-7.894 F1500.
G3 X25.005 Y25.671 I0.094 J0.096
X24.896 Y26.385 I-97.293 J-14.484
X24.761 Y27.094 I-10.956 J-1.713
X24.38 Y27.329 I-0.305 J-0.068
G2 X23.198 Y27.194 I-1.103 J4.427
G3 X23.112 Y26.964 I-0.002 J-0.13
X23.96 Y26.277 I25.972 J31.167
X24.065 Y26.219 Z-8.506 I0.203 J0.244
X24.167 Y26.203 Z-8.437 I0.097 J0.302
X24.235 Y26.212 Z-8.334 I-0.004 J0.317
X24.258 Y26.218 Z-8.213 I-0.072 J0.309
G0 Z5.
X18.675 Y17.882
Z2.57
G1 Z-5.48 F1500.
X12.51 Z-5.695 F700.
G3 Y17.564 I0. J-0.159
G1 X28.067 Z-6.239
G3 Y17.882 I0. J0.159
G1 X12.51 Z-6.782
G3 Y17.564 I0. J-0.159
G1 X28.067 Z-7.325
G3 Y17.882 I0. J0.159
G1 X12.51 Z-7.868
G3 Y17.564 I0. J-0.159
G1 X28.067 Z-8.412
G3 Y17.882 I0. J0.159
G1 X24.679 Z-8.53
G2 X24.616 Y17.89 I0. J0.263
G1 X23.957 Y18.054
G2 X24.085 Y18.564 I0.064 J0.255
X24.218 Y18.134 I-0.064 J-0.255
X24.034 Y17.934 I-7.245 J6.449 F1500.
G3 X24.041 Y17.492 I0.231 J-0.218
G2 X24.984 Y16.274 I-4.415 J-4.395
G3 X25.31 Y16.365 I0.15 J0.09
G1 X25.306 Y17.356
G3 X25.282 Y19.031 I-85.129 J-0.343
X25.032 Y19.118 I-0.141 J-0.003
X24.542 Y18.519 I30.998 J-25.828
G2 X24.218 Y18.134 I-7.57 J6.065
X22.98 Y17.86 I-0.809 J0.72
G3 X21.713 Y17.912 I-0.701 J-1.624
G2 X21.641 Y17.889 I-1.087 J3.222
G3 X21.627 Y17.651 I0.038 J-0.122
G2 X24.097 Y15.24 I-2.095 J-4.619
G3 X24.617 Y14.915 I0.52 J0.253
X25.058 Y14.929 I0. J7.072
G2 X25.5 Y14.943 I0.442 J-7.058
G3 X26.536 Y15.973 I0. J1.036
X26.535 Y17.434 I-97.64 J0.622
X26.386 Y22.542 I-124.502 J-1.07
X26.238 Y24.824 I-79.883 J-4.012
X25.917 Y27.088 I-18.341 J-1.448
G2 X25.855 Y27.407 I15.345 J3.161
G3 X25.783 Y27.723 I-3.756 J-0.693
X25.608 Y28.071 I-0.952 J-0.261
G2 X25.261 Y28.612 I2.688 J2.107
G3 X24.87 Y28.735 I-0.257 J-0.132
G2 X22.967 Y28.355 I-1.592 J3.022
G3 X22.643 Y28.331 I-0.09 J-0.983
X21.702 Y28.07 I3.773 J-15.427
X20.772 Y27.774 I21.977 J-70.705
X20.713 Y27.47 I0.055 J-0.168
X22.254 Y26.214 I57.37 J68.846
G2 X23.796 Y24.958 I-55.829 J-70.101
X24.239 Y20.086 I-2.215 J-2.658
X23.098 Y18.8 I-21.405 J17.835
X21.713 Y17.912 I-2.473 J2.333
X21.641 Y17.889 Z-8.521 I-1.087 J3.222
G3 X21.557 Y17.803 Z-8.459 I0.038 J-0.122
X21.561 Y17.718 Z-8.349 I0.122 J-0.036
X21.576 Y17.692 Z-8.213 I0.118 J0.049
G1 Z-5.48
X17.44 Y16.65
X20.059 Z-5.571 F700.
G3 Y16.967 I0. J0.159
G1 X4.502 Z-6.115
G3 Y16.65 I0. J-0.159
G1 X20.059 Z-6.658
G3 Y16.967 I0. J0.159
G1 X4.502 Z-7.201
G3 Y16.65 I0. J-0.159
G1 X20.059 Z-7.745
G3 Y16.967 I0. J0.159
G1 X4.502 Z-8.288
G3 Y16.65 I0. J-0.159
G1 X11.436 Z-8.53
X12.133 Y16.717
G2 X12.182 Y16.219 I0.024 J-0.249
X11.931 Y16.575 I-0.024 J0.249
X13.067 Y18.356 I7.591 J-3.588 F1500.
G3 X13.028 Y18.79 I-0.237 J0.197
G1 X12.531 Y19.204
G3 X12.178 Y19.122 I-0.145 J-0.175
G2 X9.261 Y15.386 I-8.959 J3.988
G3 X9.172 Y15.204 I0.141 J-0.182
G1 Y14.981
G3 X9.431 Y14.855 I0.16 J0.
G2 X11.732 Y16.346 I9.589 J-12.27
G3 X11.913 Y16.537 I-0.194 J0.366
G2 X11.931 Y16.575 I7.609 J-3.55
X13.771 Y17.566 I1.592 J-0.753
G3 X15.799 Y18.073 I0.39 J2.745
G2 X16.302 Y18.406 I3.731 J-5.099
G3 X16.331 Y18.758 I-0.11 J0.186
X13.558 Y21.006 I-83.653 J-100.385
G2 X11.81 Y24.118 I2.892 J3.67
X11.795 Y24.692 I3.059 J0.367
X11.852 Y25.263 I9.088 J-0.609
G3 X11.584 Y25.606 I-0.303 J0.04
G1 X10.773 Y25.701
G3 X10.559 Y25.442 I-0.023 J-0.199
G2 X10.892 Y22.142 I-7.614 J-2.435
X9.81 Y19.008 I-7.418 J0.807
X8.75 Y17.694 I-5.885 J3.661
X7.428 Y16.644 I-5.963 J6.148
G3 X7.082 Y16.01 I0.409 J-0.634
G1 Y9.71
G3 X7.328 Y9.621 I0.139 J0.
X7.967 Y10.422 I-17.924 J14.936
G2 X8.605 Y11.224 I18.566 J-14.138
X10.654 Y13.184 I9.669 J-8.057
X13.062 Y14.679 I9.093 J-11.952
G3 X13.67 Y15.336 I-0.56 J1.128
G2 X15.799 Y18.073 I5.86 J-2.362
X16.934 Y18.085 I0.576 J-0.788
G3 X18.055 Y17.904 I0.749 J1.071
G2 X18.682 Y18.048 I1.464 J-4.925
G3 X18.736 Y18.3 I-0.022 J0.136
X18.579 Y18.403 I-14.668 J-22.172
G2 X18.427 Y18.515 I0.878 J1.348
G3 X16.304 Y20.263 I-149.695 J-179.639
G2 X14.181 Y22.012 I147.572 J181.387
X13.022 Y24.009 I2.153 J2.584
X13.389 Y26.289 I3.461 J0.613
G3 X13.234 Y26.587 I-0.179 J0.096
G1 X8.629 Y27.128
G3 X8.511 Y26.926 I-0.015 J-0.127
G2 X6.244 Y17.304 I-5.249 J-3.841
G3 X5.915 Y16.764 I0.28 J-0.54
G1 Y7.728
G3 X6.228 Y7.415 I0.313 J0.
G1 X6.663
G3 X7.231 Y7.681 I0. J0.739
X8.367 Y9.079 I-56.486 J47.07
G2 X9.502 Y10.476 I57.644 J-45.691
X11.6 Y12.443 I9.017 J-7.514
X14.096 Y13.874 I7.724 J-10.584
G3 X14.591 Y14.434 I-0.353 J0.812
G2 X18.055 Y17.904 I4.927 J-1.456
G3 X19.199 Y19.131 I-0.471 J1.585
X18.657 Y20.719 I-1.574 J0.349
G1 X15.379 Y23.45
G2 X15.176 Y25.686 I1.016 J1.22
G1 X16.136 Y26.838
G2 X18.372 Y27.041 I1.22 J-1.016
G1 X22.597 Y23.52
G2 X22.801 Y21.284 I-1.016 J-1.22
G1 X21.84 Y20.132
G2 X19.605 Y19.929 I-1.22 J1.016
G1 X18.657 Y20.719
G3 X18.551 Y20.777 Z-8.506 I-0.203 J-0.244
X18.449 Y20.792 Z-8.437 I-0.097 J-0.302
X18.381 Y20.784 Z-8.334 I0.004 J-0.317
X18.358 Y20.777 Z-8.213 I0.072 J-0.309
G0 Z5.
X21.154 Y36.841
Z2.57
G1 Z-5.48 F1500.
X27.066 Z-5.686 F700.
G3 Y37.159 I0. J0.159
G1 X11.509 Z-6.23
G3 Y36.841 I0. J-0.159
G1 X27.066 Z-6.773
G3 Y37.159 I0. J0.159
G1 X11.509 Z-7.316
G3 Y36.841 I0. J-0.159
G1 X27.066 Z-7.86
G3 Y37.159 I0. J0.159
G1 X11.509 Z-8.403
G3 Y36.841 I0. J-0.159
G1 X15.15 Z-8.53
G2 X15.21 Y36.782 I0. J-0.06
G1 X15.211 Y36.663
G2 X15.091 Y36.662 I-0.06 J0.
X15.151 Y36.722 I0.06 J0.
G3 X15.318 Y36.751 I-0.001 J0.512 F1500.
G2 X17.873 Y37.589 I24.115 J-69.159
X20.478 Y38.261 I8.546 J-27.744
G3 X20.451 Y38.448 I-0.019 J0.092
X18.064 Y38.101 I1.327 J-17.535
X15.731 Y37.488 I5.767 J-26.685
G2 X15.384 Y37.393 I-1.54 J4.958
G3 X15.041 Y37.287 I0.627 J-2.656
X14.859 Y36.902 I0.109 J-0.288
X15.057 Y36.73 I0.245 J0.083
X15.151 Y36.722 I0.092 J0.504
G2 X16.211 Y36.186 I0.004 J-1.309
G3 X17.343 Y35.828 I0.811 J0.594
G2 X18.693 Y36.277 I51.063 J-151.325
X21.654 Y36.926 I4.692 J-14.323
X23.301 Y37.029 I1.796 J-15.538
X24.933 Y36.776 I0.048 J-5.079
X25.968 Y36.311 I-1.688 J-5.145
X26.873 Y35.626 I-2.353 J-4.045
G3 X27.444 Y35.491 I0.398 J0.411
G2 X28.435 Y35.666 I1.147 J-3.607
G3 X28.684 Y35.966 I-0.011 J0.263
G2 X28.677 Y36.971 I3.748 J0.528
G3 X28.442 Y37.509 I-0.567 J0.072
X26.898 Y38.543 I-18.438 J-25.858
X25.228 Y39.358 I-4.616 J-7.348
X20.592 Y39.986 I-3.78 J-10.472
X15.985 Y39.166 I1.818 J-23.555
X14.552 Y38.72 I7.861 J-27.816
X13.512 Y37.802 I0.575 J-1.7
X13.425 Y36.418 I1.649 J-0.798
X14.391 Y35.362 I1.679 J0.566
X15.822 Y35.306 I0.786 J1.791
G2 X17.343 Y35.828 I52.584 J-150.803
X19.339 Y35.284 I0.593 J-1.757
G3 X21.289 Y34.594 I1.58 J1.366
G2 X21.3 Y34.596 I0.282 J-1.562
G1 X21.823 Y34.687
G2 X21.911 Y34.699 I0.271 J-1.564
G1 X22.468 Y34.764
G2 X22.602 Y34.774 I0.182 J-1.577
G1 X23.135 Y34.79
G2 X23.288 Y34.787 I0.048 J-1.587
G1 X23.567 Y34.769
G2 X23.727 Y34.75 I-0.105 J-1.584
G1 X24.004 Y34.703
G2 X24.234 Y34.646 I-0.264 J-1.565
G1 X24.497 Y34.56
G2 X24.826 Y34.409 I-0.495 J-1.508
G1 X25.061 Y34.266
G2 X25.457 Y31.892 I-0.824 J-1.357
G1 X24.497 Y30.74
G2 X22.837 Y30.231 I-1.22 J1.016
G1 X22.646 Y30.202
X22.347 Y30.14
X22.012 Y30.058
X21.622 Y29.952
X21.192 Y29.826
X20.721 Y29.68
X20.172 Y29.501
X19.583 Y29.302
X18.881 Y29.056
X18.135 Y28.788
G2 X14.13 Y28.322 I-2.985 J8.212
G1 X7.407 Y29.112
X4.088
Y27.696
G2 X7.932 Y23.095 I-0.831 J-4.601
G1 Y23.08
G2 X4.088 Y18.479 I-4.675 J0.
G1 Y5.588
X7.865
X10.941 Y9.278
G2 X16.228 Y12.698 I8.134 J-6.778
X19.37 Y16.283 I3.272 J0.302
X22.785 Y13.087 I0.13 J-3.283
G1 X25.5
G3 X28.413 Y15.997 I0. J2.913
G1 X28.407 Y17.45
X28.387 Y18.916
X28.355 Y20.273
X28.307 Y21.607
X28.248 Y22.793
X28.172 Y23.93
X28.079 Y24.987
X27.969 Y25.966
X27.816 Y26.992
X27.728 Y27.461
X27.63 Y27.9
X27.511 Y28.331
X27.371 Y28.729
X27.312 Y28.861
X27.259 Y28.959
X27.237 Y28.99
X27.158 Y29.07
G2 X26.732 Y30.448 I1.138 J1.107
G1 X27.027 Y32.155
G2 X29.668 Y33.051 I1.564 J-0.27
G1 X29.884 Y32.852
G2 X29.985 Y32.749 I-1.077 J-1.167
G1 X30.183 Y32.53
G2 X30.293 Y32.393 I-1.178 J-1.064
G1 X30.639 Y31.914
G2 X30.735 Y31.762 I-1.288 J-0.928
G1 X31.027 Y31.242
G2 X31.088 Y31.122 I-1.385 J-0.776
G1 X31.34 Y30.565
G2 X31.379 Y30.472 I-1.446 J-0.655
G1 X31.58 Y29.939
G2 X31.606 Y29.867 I-1.485 J-0.562
G1 X31.778 Y29.334
G2 X31.796 Y29.275 I-1.51 J-0.49
G1 X31.945 Y28.746
G2 X31.959 Y28.696 I-1.528 J-0.431
G1 X32.096 Y28.14
G2 X32.106 Y28.097 I-1.541 J-0.381
G1 X32.223 Y27.561
G2 X32.23 Y27.524 I-1.551 J-0.338
G1 X32.338 Y26.965
G2 X32.344 Y26.931 I-1.559 J-0.301
G1 X32.444 Y26.348
G2 X32.449 Y26.318 I-1.565 J-0.267
G1 X32.54 Y25.713
G2 X32.544 Y25.685 I-1.57 J-0.237
G1 X32.626 Y25.068
G2 X32.63 Y25.042 I-1.574 J-0.21
G1 X32.704 Y24.405
G2 X32.708 Y24.371 I-1.577 J-0.184
G1 X32.835 Y23.038
G2 X32.838 Y23.008 I-1.58 J-0.151
G1 X32.894 Y22.261
G2 X32.896 Y22.241 I-1.583 J-0.12
G1 X32.944 Y21.474
G2 X32.946 Y21.448 I-1.584 J-0.101
G1 X33.02 Y19.859
G2 X33.021 Y19.835 I-1.586 J-0.074
G1 X33.051 Y18.917
G2 Y18.901 I-1.587 J-0.05
G1 X33.063 Y18.329
G2 X34.25 Y18.862 I1.187 J-1.054
G1 X34.75
G2 X35.912 Y18.355 I0. J-1.587
G1 Y23.981
X35.883 Y25.183
X35.793 Y26.359
X35.649 Y27.431
X35.442 Y28.485
X35.195 Y29.424
X34.887 Y30.338
X34.519 Y31.222
X34.322 Y31.629
X34.103 Y32.038
X33.85 Y32.47
X33.58 Y32.889
X33.29 Y33.297
X32.985 Y33.689
X32.623 Y34.113
X32.241 Y34.518
X31.838 Y34.904
X31.387 Y35.299
G2 X31.884 Y37.984 I1.045 J1.195
G1 X33.509 Y38.582
G2 X35.074 Y38.311 I0.548 J-1.49
G1 X35.463 Y37.987
G2 X35.912 Y38.09 I1.036 J-3.487
G1 Y43.145
X35.121 Y44.412
X34.884
G2 X35.171 Y43.183 I-1.275 J-0.946
G1 X34.903 Y41.707
G2 X33.058 Y40.428 I-1.562 J0.284
G1 X32.634 Y40.505
X31.859 Y39.575
G2 X29.658 Y39.343 I-1.22 J1.016
G1 X29.048 Y39.823
X28.456 Y40.235
X27.845 Y40.609
X27.213 Y40.946
X26.611 Y41.222
X25.989 Y41.467
X25.348 Y41.678
X24.691 Y41.855
X24.085 Y41.986
X23.47 Y42.088
X22.848 Y42.162
X22.22 Y42.21
X21.594 Y42.232
X20.964 Y42.23
X20.329 Y42.204
X19.691 Y42.156
X19. Y42.079
X18.307 Y41.979
X17.614 Y41.857
X16.922 Y41.714
X16.146 Y41.53
X15.376 Y41.323
X14.61 Y41.095
X13.842 Y40.846
G3 X11.301 Y35.701 I1.308 J-3.846
X16.539 Y33.183 I3.849 J1.299
G2 X16.56 Y33.19 I0.535 J-1.495
G1 X17.99 Y33.688
G2 X18.04 Y33.705 I0.523 J-1.499
G1 X19.375 Y34.121
G2 X19.424 Y34.135 I0.472 J-1.516
G1 X20.021 Y34.301
G2 X20.062 Y34.311 I0.423 J-1.53
G1 X20.641 Y34.455
G2 X20.69 Y34.467 I0.383 J-1.541
G1 X21.238 Y34.584
G2 X21.289 Y34.594 I0.333 J-1.552
G3 X21.402 Y34.638 Z-8.506 I-0.056 J0.312
X21.479 Y34.706 Z-8.437 I-0.169 J0.269
X21.516 Y34.763 Z-8.334 I-0.246 J0.201
X21.526 Y34.785 Z-8.213 I-0.283 J0.143
G0 Z15.
X18.448 Y20.633
Z2.57
G1 Z-0.43 F1500.
Z-3.112
X18.451 Y20.641 Z-3.183
X18.458 Y20.663 Z-3.25
X18.469 Y20.7 Z-3.31
X18.484 Y20.748 Z-3.361
X18.502 Y20.805 Z-3.399
X18.522 Y20.869 Z-3.422
X18.543 Y20.937 Z-3.43
G3 X18.104 Y22.423 I-1.332 J0.415
G1 X15.991 Y24.184
G2 X15.91 Y25.074 I0.404 J0.485
G1 X16.87 Y26.226
G2 X17.76 Y26.307 I0.485 J-0.404
G1 X21.985 Y22.786
G2 X22.066 Y21.896 I-0.404 J-0.485
G1 X21.106 Y20.744
G2 X20.216 Y20.663 I-0.485 J0.404
G1 X18.104 Y22.423
G3 X17.777 Y22.25 I-0.128 J-0.154
G1 X17.964 Y20.37
G3 X18.354 Y20.33 I0.199 J0.02
G1 X18.375 Y20.398 Z-3.438
X18.395 Y20.462 Z-3.461
X18.413 Y20.519 Z-3.499
X18.428 Y20.567 Z-3.55
X18.439 Y20.603 Z-3.61
X18.446 Y20.626 Z-3.677
X18.448 Y20.633 Z-3.747
Z-4.113
X18.451 Y20.641 Z-4.183
X18.458 Y20.663 Z-4.25
X18.469 Y20.7 Z-4.31
X18.484 Y20.748 Z-4.361
X18.502 Y20.805 Z-4.399
X18.522 Y20.869 Z-4.422
X18.543 Y20.937 Z-4.43
G3 X18.104 Y22.423 I-1.332 J0.415
G1 X15.991 Y24.184
G2 X15.91 Y25.074 I0.404 J0.485
G1 X16.87 Y26.226
G2 X17.76 Y26.307 I0.485 J-0.404
G1 X21.985 Y22.786
G2 X22.066 Y21.896 I-0.404 J-0.485
G1 X21.106 Y20.744
G2 X20.216 Y20.663 I-0.485 J0.404
G1 X18.104 Y22.423
G3 X17.777 Y22.25 I-0.128 J-0.154
G1 X17.964 Y20.37
G3 X18.354 Y20.33 I0.199 J0.02
G1 X18.375 Y20.398 Z-4.438
X18.395 Y20.462 Z-4.461
X18.413 Y20.519 Z-4.499
X18.428 Y20.567 Z-4.55
X18.439 Y20.603 Z-4.61
X18.446 Y20.626 Z-4.677
X18.448 Y20.633 Z-4.747
Z-5.113
X18.451 Y20.641 Z-5.183
X18.458 Y20.663 Z-5.25
X18.469 Y20.7 Z-5.31
X18.484 Y20.748 Z-5.361
X18.502 Y20.805 Z-5.399
X18.522 Y20.869 Z-5.422
X18.543 Y20.937 Z-5.43
G3 X18.104 Y22.423 I-1.332 J0.415
G1 X15.991 Y24.184
G2 X15.91 Y25.074 I0.404 J0.485
G1 X16.87 Y26.226
G2 X17.76 Y26.307 I0.485 J-0.404
G1 X21.985 Y22.786
G2 X22.066 Y21.896 I-0.404 J-0.485
G1 X21.106 Y20.744
G2 X20.216 Y20.663 I-0.485 J0.404
G1 X18.104 Y22.423
G3 X17.777 Y22.25 I-0.128 J-0.154
G1 X17.965 Y20.373
G3 X18.355 Y20.334 I0.199 J0.02
G1 X18.374 Y20.397 Z-5.437
X18.393 Y20.457 Z-5.458
X18.41 Y20.512 Z-5.491
X18.425 Y20.559 Z-5.535
X18.437 Y20.596 Z-5.589
X18.445 Y20.622 Z-5.65
X18.449 Y20.635 Z-5.715
X18.453 Y20.648 Z-5.78
X18.461 Y20.674 Z-5.841
X18.472 Y20.711 Z-5.895
X18.487 Y20.758 Z-5.939
X18.504 Y20.813 Z-5.972
X18.523 Y20.873 Z-5.993
X18.543 Y20.937 Z-6.
G3 X18.104 Y22.423 I-1.332 J0.415
G1 X15.991 Y24.184
G2 X15.91 Y25.074 I0.404 J0.485
G1 X16.87 Y26.226
G2 X17.76 Y26.307 I0.485 J-0.404
G1 X21.985 Y22.786
G2 X22.066 Y21.896 I-0.404 J-0.485
G1 X21.106 Y20.744
G2 X20.216 Y20.663 I-0.485 J0.404
G1 X18.104 Y22.423
G3 X17.777 Y22.25 I-0.128 J-0.154
G1 X17.965 Y20.373
G3 X18.355 Y20.334 I0.199 J0.02
G1 X18.374 Y20.397 Z-6.007
X18.393 Y20.457 Z-6.028
X18.41 Y20.512 Z-6.061
X18.425 Y20.559 Z-6.105
X18.437 Y20.596 Z-6.159
X18.445 Y20.622 Z-6.22
X18.449 Y20.635 Z-6.285
X18.453 Y20.648 Z-6.35
X18.461 Y20.674 Z-6.411
X18.472 Y20.711 Z-6.465
X18.487 Y20.758 Z-6.509
X18.504 Y20.813 Z-6.542
X18.523 Y20.873 Z-6.563
X18.543 Y20.937 Z-6.57
G3 X18.104 Y22.423 I-1.332 J0.415
G1 X15.991 Y24.184
G2 X15.91 Y25.074 I0.404 J0.485
G1 X16.87 Y26.226
G2 X17.76 Y26.307 I0.485 J-0.404
G1 X21.985 Y22.786
G2 X22.066 Y21.896 I-0.404 J-0.485
G1 X21.106 Y20.744
G2 X20.216 Y20.663 I-0.485 J0.404
G1 X18.104 Y22.423
G2 X18.027 Y22.517 Z-6.546 I0.203 J0.244
X17.994 Y22.614 Z-6.477 I0.28 J0.15
X17.99 Y22.683 Z-6.374 I0.313 J0.053
X17.992 Y22.707 Z-6.253 I0.317 J-0.015
G0 Z15.

(BORE9)
G55
M9
G0 X12.504 Y35.054
Z15.
Z-6.53
G1 Z-8.212 F1500.
X12.499 Y35.049 Z-8.283
X12.481 Y35.033 Z-8.35
X12.453 Y35.008 Z-8.41
X12.415 Y34.974 Z-8.461
X12.371 Y34.934 Z-8.499
X12.321 Y34.889 Z-8.522
X12.268 Y34.842 Z-8.53
X12.15 Y34.736
G3 X12.126 Y34.288 I0.212 J-0.236
X18.174 Y39.712 Z-9.03 I3.024 J2.712
X12.126 Y34.288 Z-9.53 I-3.024 J-2.712
X18.174 Y39.712 I3.024 J2.712
X12.126 Y34.288 I-3.024 J-2.712
X12.574 Y34.263 I0.236 J0.212
G1 X12.692 Y34.369
X12.745 Y34.416 Z-9.522
X12.795 Y34.461 Z-9.499
X12.839 Y34.501 Z-9.461
X12.877 Y34.535 Z-9.41
X12.905 Y34.56 Z-9.35
X12.922 Y34.576 Z-9.283
X12.928 Y34.581 Z-9.212
G0 Z15.

(2D CONTOUR3)
G55
M9
G0 X19.683 Y50.04
Z15.
Z5.
G1 Z2. F1500.
Z-0.683 F40.
G19 G2 Y49.722 Z-1. J-0.318 K0.
G1 Y49.405 F1500.
G17 G3 X20. Y49.088 I0.318 J0.
G1 X37.
G2 X40.588 Y45.5 I0. J-3.588
G1 Y4.5
G2 X37. Y0.913 I-3.588 J0.
G1 X3.
G2 X-0.587 Y4.5 I0. J3.587
G1 Y19.5
G2 X2.984 Y23.087 I3.588 J0.
X-0.587 Y26.675 I0.016 J3.587
G1 Y39.898
G2 X3. Y43.486 I3.587 J0.
G1 X4.412
Y45.5
G2 X8. Y49.088 I3.588 J0.
G1 X20.
G3 X20.318 Y49.405 I0. J0.317
G1 Y49.722
G19 G3 Y50.04 Z-0.683 J0. K0.317
G1 X19.683
Z-1.683 F40.
G2 Y49.722 Z-2. J-0.318 K0.
G1 Y49.405 F1500.
G17 G3 X20. Y49.088 I0.318 J0.
G1 X37.
G2 X40.588 Y45.5 I0. J-3.588
G1 Y4.5
G2 X37. Y0.913 I-3.588 J0.
G1 X3.
G2 X-0.587 Y4.5 I0. J3.587
G1 Y19.5
G2 X2.984 Y23.087 I3.588 J0.
X-0.587 Y26.675 I0.016 J3.587
G1 Y39.898
G2 X3. Y43.486 I3.587 J0.
G1 X4.412
Y45.5
G2 X8. Y49.088 I3.588 J0.
G1 X20.
G3 X20.318 Y49.405 I0. J0.317
G1 Y49.722
G19 G3 Y50.04 Z-1.683 J0. K0.317
G1 X19.683
Z-2.683 F40.
G2 Y49.722 Z-3. J-0.318 K0.
G1 Y49.405 F1500.
G17 G3 X20. Y49.088 I0.318 J0.
G1 X37.
G2 X40.588 Y45.5 I0. J-3.588
G1 Y4.5
G2 X37. Y0.913 I-3.588 J0.
G1 X3.
G2 X-0.587 Y4.5 I0. J3.587
G1 Y19.5
G2 X2.984 Y23.087 I3.588 J0.
X-0.587 Y26.675 I0.016 J3.587
G1 Y39.898
G2 X3. Y43.486 I3.587 J0.
G1 X4.412
Y45.5
G2 X8. Y49.088 I3.588 J0.
G1 X20.
G3 X20.318 Y49.405 I0. J0.317
G1 Y49.722
G19 G3 Y50.04 Z-2.683 J0. K0.318
G1 X19.683
Z-3.683 F40.
G2 Y49.722 Z-4. J-0.318 K0.
G1 Y49.405 F1500.
G17 G3 X20. Y49.088 I0.318 J0.
G1 X37.
G2 X40.588 Y45.5 I0. J-3.588
G1 Y4.5
G2 X37. Y0.913 I-3.588 J0.
G1 X3.
G2 X-0.587 Y4.5 I0. J3.587
G1 Y19.5
G2 X2.984 Y23.087 I3.588 J0.
X-0.587 Y26.675 I0.016 J3.587
G1 Y39.898
G2 X3. Y43.486 I3.587 J0.
G1 X4.412
Y45.5
G2 X8. Y49.088 I3.588 J0.
G1 X20.
G3 X20.318 Y49.405 I0. J0.317
G1 Y49.722
G19 G3 Y50.04 Z-3.683 J0. K0.318
G1 X19.683
Z-4.683 F40.
G2 Y49.722 Z-5. J-0.318 K0.
G1 Y49.405 F1500.
G17 G3 X20. Y49.088 I0.318 J0.
G1 X37.
G2 X40.588 Y45.5 I0. J-3.588
G1 Y4.5
G2 X37. Y0.913 I-3.588 J0.
G1 X3.
G2 X-0.587 Y4.5 I0. J3.587
G1 Y19.5
G2 X2.984 Y23.087 I3.588 J0.
X-0.587 Y26.675 I0.016 J3.587
G1 Y39.898
G2 X3. Y43.486 I3.587 J0.
G1 X4.412
Y45.5
G2 X8. Y49.088 I3.588 J0.
G1 X20.
G3 X20.318 Y49.405 I0. J0.317
G1 Y49.722
G19 G3 Y50.04 Z-4.683 J0. K0.318
G1 X19.683
Z-5.683 F40.
G2 Y49.722 Z-6. J-0.318 K0.
G1 Y49.405 F1500.
G17 G3 X20. Y49.088 I0.318 J0.
G1 X37.
G2 X40.588 Y45.5 I0. J-3.588
G1 Y4.5
G2 X37. Y0.913 I-3.588 J0.
G1 X3.
G2 X-0.587 Y4.5 I0. J3.587
G1 Y19.5
G2 X2.984 Y23.087 I3.588 J0.
X-0.587 Y26.675 I0.016 J3.587
G1 Y39.898
G2 X3. Y43.486 I3.587 J0.
G1 X4.412
Y45.5
G2 X8. Y49.088 I3.588 J0.
G1 X20.
G3 X20.318 Y49.405 I0. J0.317
G1 Y49.722
G19 G3 Y50.04 Z-5.683 J0. K0.318
G1 X19.683
Z-6.683 F40.
G2 Y49.722 Z-7. J-0.318 K0.
G1 Y49.405 F1500.
G17 G3 X20. Y49.088 I0.318 J0.
G1 X37.
G2 X40.588 Y45.5 I0. J-3.588
G1 Y4.5
G2 X37. Y0.913 I-3.588 J0.
G1 X3.
G2 X-0.587 Y4.5 I0. J3.587
G1 Y19.5
G2 X2.984 Y23.087 I3.588 J0.
X-0.587 Y26.675 I0.016 J3.587
G1 Y39.898
G2 X3. Y43.486 I3.587 J0.
G1 X4.412
Y45.5
G2 X8. Y49.088 I3.588 J0.
G1 X20.
G3 X20.318 Y49.405 I0. J0.317
G1 Y49.722
G19 G3 Y50.04 Z-6.683 J0. K0.318
G1 X19.683
Z-7.683 F40.
G2 Y49.722 Z-8. J-0.318 K0.
G1 Y49.405 F1500.
G17 G3 X20. Y49.088 I0.318 J0.
G1 X37.
G2 X40.588 Y45.5 I0. J-3.588
G1 Y4.5
G2 X37. Y0.913 I-3.588 J0.
G1 X3.
G2 X-0.587 Y4.5 I0. J3.587
G1 Y19.5
G2 X2.984 Y23.087 I3.588 J0.
X-0.587 Y26.675 I0.016 J3.587
G1 Y39.898
G2 X3. Y43.486 I3.587 J0.
G1 X4.412
Y45.5
G2 X8. Y49.088 I3.588 J0.
G1 X20.
G3 X20.318 Y49.405 I0. J0.317
G1 Y49.722
G19 G3 Y50.04 Z-7.683 J0. K0.318
G1 X19.683
Z-8.683 F40.
G2 Y50.035 Z-8.736 J-0.318 K0.
G1 Y49.722
Y49.405 F1500.
G17 G3 X20. Y49.088 I0.318 J0.
G1 X25.675
Z-9. F40.
X37. F1500.
G2 X40.588 Y45.5 I0. J-3.588
G1 Y28.175
Z-8.736
Y21.825
Z-9.
Y4.5
G2 X37. Y0.913 I-3.588 J0.
G1 X23.175
Z-8.736
X16.825
Z-9. F40.
X3. F1500.
G2 X-0.587 Y4.5 I0. J3.587
G1 Y19.5
G2 X2.984 Y23.087 I3.588 J0.
X-0.587 Y26.675 I0.016 J3.587
G1 Y39.898
G2 X3. Y43.486 I3.587 J0.
G1 X4.412
Y45.5
G2 X8. Y49.088 I3.588 J0.
G1 X19.325
Z-8.736
X20.
G3 X20.318 Y49.405 I0. J0.317
G1 Y49.722
Y50.035 F40.
G19 G3 Y50.04 Z-8.683 J-0.313 K0.054 F1500.
G1 X19.683
Z-8.736 F40.
Y49.722
Y49.405 F1500.
G17 G3 X20. Y49.088 I0.318 J0.
G1 X25.675
Z-9.53 F40.
X37. F1500.
G2 X40.588 Y45.5 I0. J-3.588
G1 Y28.175
Z-8.736
Y21.825
Z-9.53
Y4.5
G2 X37. Y0.913 I-3.588 J0.
G1 X23.175
Z-8.736
X16.825
Z-9.53 F40.
X3. F1500.
G2 X-0.587 Y4.5 I0. J3.587
G1 Y19.5
G2 X2.984 Y23.087 I3.588 J0.
X-0.587 Y26.675 I0.016 J3.587
G1 Y39.898
G2 X3. Y43.486 I3.587 J0.
G1 X4.412
Y45.5
G2 X8. Y49.088 I3.588 J0.
G1 X19.325
Z-8.736
X20.
G3 X20.318 Y49.405 I0. J0.317
G1 Y50.04
G0 Z15.

M9
G53 Z0.
M30
